Fabiaho/6DOF-Inverse-Kinematic/model_training/model_no_orientation/ur5_val_data_87k copy.csv
Shoulder_Pan,Shoulder_Lift,Elbow,Wrist_1,Wrist_2,Wrist_3,TCP_X,TCP_Y,TCP_Z,Orientation_X,Orientation_Y,Orientation_Z
-0.793858,0.309446,2.84033,-0.688404,1.66277,1.26337,0.0449107,0.110007,0.0365259,0.620012,-0.2008,-0.758462
2.092,0.309896,-1.68052,-2.22532,0.969637,0.772883,-0.314348,0.328278,0.429016,-0.845737,0.287289,-0.44966
1.14968,-0.163709,0.510227,0.780774,1.11053,-1.94097,0.187656,0.685981,-0.0154081,-0.0202186,-0.838068,-0.545192
-2.15821,0.309755,-0.747259,-1.38055,2.70159,2.5293,-0.381248,-0.769553,0.148962,-0.0817189,0.5062,-0.858536
-0.455689,0.310085,-1.18034,-1.05536,0.683921,-1.54006,0.718217,-0.230438,0.292232,0.857603,-0.398678,0.32492
-1.46892,-0.0187208,0.183891,-0.264824,3.05438,-1.11164,0.192109,-0.805894,-0.0615594,0.0921537,-0.521834,-0.848055
-0.5014,-0.643295,2.11879,0.520308,-2.88248,-1.34353,0.307776,-0.0442275,-0.00735459,-0.884851,0.419172,0.203307
-1.00903,-0.383061,2.6191,-0.633917,-3.02057,1.53667,0.122993,0.00949674,-0.0576377,0.528056,-0.846706,-0.0651591
0.715859,-0.546679,1.53873,-2.56666,-1.57634,1.49856,0.435607,0.523537,-0.0179143,-0.705196,-0.709004,-0.00340498
-2.98246,-0.0166722,0.367254,-1.90261,1.44806,-3.08035,-0.85945,-0.248479,-0.0402475,-0.219657,0.968041,0.121029
-0.604434,-2.38542,-1.89444,-0.24802,0.0330442,2.36427,-0.404212,0.411828,0.0420075,0.446384,-0.336922,-0.82899
0.623107,0.0424791,0.205796,1.06168,-0.353983,1.57737,0.515627,0.504945,-0.0496877,0.784544,0.566585,0.251938
0.00548004,-0.651479,2.16514,0.538877,0.0907445,-1.18367,0.275875,0.110663,-0.000893179,-0.646589,0.0306691,0.762222
0.477316,0.309723,-2.80317,1.66617,-0.874398,2.77548,0.0935247,0.171256,0.13236,-0.203028,0.701444,0.683195
-1.61755,-0.686417,2.42174,-3.14159,2.61107,-0.652575,0.0923068,-0.362582,-0.0439447,0.368335,-0.729292,0.576596
0.888238,-0.678683,1.63899,-0.377725,-1.74016,0.491541,0.23297,0.459631,-0.044474,0.916375,-0.250359,0.312373
-3.00138,-0.869168,1.03032,0.295272,-0.721133,-1.56413,-0.598436,-0.194697,0.265871,0.440242,0.0665823,-0.895407
2.25167,-1.75926,-0.194683,0.807009,-2.58325,3.07435,0.00330823,-0.177483,0.831514,-0.153091,-0.650749,-0.7437
0.295062,-0.644474,2.20899,0.386963,1.7737,-0.374357,0.211609,0.178395,-0.0125851,-0.656608,0.753261,-0.038264
-0.821691,0.310218,-0.676343,2.66374,-1.58573,-2.19159,0.556779,-0.438451,0.162741,0.015901,0.836977,0.547007
-0.344002,0.000439767,0.360406,1.53275,0.851193,-1.40928,0.697897,-0.134076,-0.0194931,-0.808731,0.418193,0.413605
1.13072,-0.354602,1.13137,3.14168,0.935176,0.26161,0.218481,0.720205,0.0292653,-0.606279,0.537103,-0.586468
0.534888,-2.32934,0.0104622,-0.913141,-1.21204,-2.81621,-0.544056,-0.195484,0.77942,-0.762134,0.579672,0.288326
-0.807062,-0.574028,1.90311,0.236345,0.0150705,-2.83533,0.325138,-0.181723,-0.0614132,-0.215358,0.204122,-0.954964
-0.0384574,-0.906401,-2.17908,-0.975114,1.89184,-0.628617,-0.200483,0.116945,0.503171,-0.592339,0.790874,0.153794
-0.0561796,0.309673,-1.78787,-0.487047,-1.00311,-2.53113,0.533731,0.0793061,0.386585,0.398136,0.669563,0.627035
0.468119,-0.805974,1.93195,-0.384279,2.20606,-2.70164,0.30693,0.277492,-0.0280684,-0.28143,-0.958347,0.0486595
-1.96194,-2.37975,0.318853,-1.82731,0.646315,0.35856,0.313045,0.472796,0.798067,0.221304,-0.942584,0.250118
0.158376,0.309999,-1.25718,-3.08264,-1.85636,-2.53215,0.536132,0.196161,0.337632,-0.418814,0.729842,0.540302
1.85851,0.309719,-1.09444,-1.54964,-3.07867,2.92024,-0.317684,0.688872,0.302246,-0.204879,0.476125,-0.855178
-0.495604,-2.0211,-2.19232,-3.14166,-1.65791,1.10725,-0.202816,0.233723,0.08208,-0.886395,-0.0271599,0.462132
0.540616,0.309899,-2.14526,2.47846,-2.60745,0.291154,0.154251,0.219897,0.262409,0.964277,0.0100325,-0.264706
-1.09225,0.309818,-0.594974,-0.591536,-0.928524,0.659954,0.490113,-0.707738,0.00937807,-0.917935,0.39571,0.0284451
-2.66798,-1.89708,-1.04579,1.42497,-2.43185,0.552834,0.429101,0.0972706,0.564171,0.183332,0.717125,0.672399
0.302937,-1.733,-2.61696,-2.57796,-1.5167,-0.0325272,-0.176517,0.0591857,0.0661619,0.275161,-0.959618,-0.0584699
0.334705,-0.563085,1.85423,-2.85681,-0.012666,-3.00952,0.495243,0.287804,-0.0614755,0.125067,0.0567899,0.990522
-0.571818,-0.09424,0.529817,3.14159,-0.631077,2.31523,0.747506,-0.351249,0.0494605,-0.461688,0.772506,-0.435981
1.29379,-0.521345,1.61115,0.888581,-1.70357,1.59608,0.0216627,0.475315,-0.00939593,0.22725,0.890928,-0.393198
2.43254,0.309487,3.00425,-2.57293,-2.06314,-1.60166,-0.036519,-0.112483,-0.0429356,0.502444,-0.466862,-0.727729
-2.78419,0.173665,-0.0365254,2.74382,-3.13579,-0.91962,-0.695135,-0.376101,0.053551,0.739413,0.279875,0.612322
-2.22698,-0.695858,2.62982,-3.14143,2.1832,-1.87876,-0.0814876,-0.284735,-0.0387003,-0.702183,-0.505374,-0.501534
0.251138,-0.258126,0.90504,2.68344,1.71085,0.14689,0.691284,0.290037,0.0541976,-0.401413,0.908284,-0.11785
1.22579,0.309634,-0.443752,1.14119,-1.82886,-0.369228,0.138592,0.708382,-0.0384675,0.78843,-0.472359,-0.394025
-2.7247,-1.78631,1.92583,0.81832,-1.49373,-1.47779,-0.157081,-0.188937,0.395327,0.710931,0.416103,-0.566953
2.42962,-2.27334,2.5647,-0.792823,-1.22875,-1.02776,-0.182298,0.013143,0.217848,0.121527,0.538134,-0.834052
-0.454457,0.309634,2.81209,-1.18006,1.15024,-0.881406,-0.0200111,0.131257,-0.013832,-0.306726,0.796089,0.521692
-1.1044,0.309685,2.83827,0.277186,0.564939,-0.175101,0.115039,0.0142283,0.0530032,0.851846,-0.51969,-0.0654317
-1.61246,0.309635,-1.86395,2.50817,2.35449,2.63241,0.0951429,-0.33831,0.297094,-0.619627,-0.0152236,0.784749
-0.635019,-0.974709,-0.427452,0.229728,-2.47003,2.3336,0.380066,-0.144464,0.790833,-0.45031,0.865817,-0.218134
1.00676,-0.0949518,-0.928751,1.24244,-1.31943,1.66404,0.232043,0.570991,0.372055,0.0513761,0.249905,0.966906
2.2738,-0.103769,-0.569477,-0.584867,-1.17552,1.79391,-0.613045,0.554586,0.348645,0.427176,-0.819948,0.381059
0.837234,-0.158015,0.739999,1.05346,-2.9253,2.05731,0.356073,0.558069,-0.0534617,0.535819,0.744329,0.398588
0.0781395,-0.198016,0.570645,-1.08506,1.36267,-1.87942,0.832802,0.174692,-0.0416662,0.691443,-0.243961,-0.679992
-1.65005,0.249644,-1.89432,2.29989,-1.80571,-0.727715,0.0830597,-0.332821,0.30029,-0.70273,0.324154,-0.633321
-1.62541,-0.460731,1.40147,2.3971,1.08148,-2.72408,0.0745833,-0.635269,0.0540134,-0.786945,0.385866,0.481482
0.287284,-1.06899,2.44661,-0.800089,1.37418,2.31648,0.187781,0.169296,-0.00249058,0.679672,-0.493021,0.543117
-0.998995,-0.911987,-1.49532,-1.80805,-2.19445,2.9816,0.0299922,0.155094,0.733178,0.898451,0.0847342,0.43082
-0.816263,0.310166,-0.920874,-1.16677,-2.48091,-2.46924,0.640296,-0.521738,0.203801,0.854153,-0.207651,-0.476764
2.34189,0.0702806,0.191422,1.903,-0.616136,2.91165,-0.583129,0.443434,0.010796,-0.225257,-0.575577,-0.786111
0.0832889,0.309671,-1.95084,-1.59972,-2.96255,-2.86716,0.357467,0.139372,0.445105,0.898226,0.247007,0.363562
1.63019,-2.31546,2.45143,2.15099,-0.198664,-0.104919,-0.110691,0.0226677,0.410635,0.162627,0.571704,0.804181
-1.19494,0.30962,2.77929,1.62778,-3.12956,1.37098,0.141076,-0.0601489,-0.0613996,-0.361666,0.910008,0.202689
-0.310046,-0.580708,1.8669,-3.05374,1.15782,-1.6782,0.564972,-0.0663897,-0.0356486,0.890601,-0.388429,0.236543
1.13671,0.310044,-2.80821,-3.00961,-2.80442,-0.468321,-0.0886539,0.0682822,0.127225,0.38785,0.134762,-0.911818
0.135652,-0.276695,0.990862,1.13038,-0.687668,1.96216,0.593706,0.191197,-0.0260722,0.770095,0.349477,-0.533684
0.697949,-0.975187,-2.64118,-1.04866,2.24056,-0.49081,-0.227192,-0.0481023,0.266145,-0.824916,0.210516,-0.524592
-0.949876,0.31008,-1.38354,1.93563,1.51441,-2.22094,0.391306,-0.35944,0.242611,-0.830225,0.121905,-0.543935
-0.553398,-1.68154,-0.641037,0.294267,-1.38773,0.0472099,-0.138248,0.213708,0.839894,-0.483907,-0.855559,-0.18399
1.77642,-1.79396,1.70938,-2.24656,0.329301,2.05597,-0.181451,0.335388,0.60199,0.340606,-0.894407,-0.289868
0.828339,0.309766,-2.22487,-1.45288,-0.0850826,0.952879,0.0893633,0.258828,0.421068,0.540285,0.515982,-0.664722
-1.60256,-0.438227,-2.30431,-1.94417,2.11596,-1.56559,0.111357,0.067707,0.424339,0.0362055,0.99908,0.0229776
-1.63025,-0.430195,1.31885,2.49288,-0.272079,-0.513929,0.0699756,-0.661391,0.0538676,-0.288958,-0.916035,0.278177
-2.29586,-2.17832,0.781193,-0.644302,-1.07261,-1.43183,0.141691,-0.00467566,0.86738,-0.696362,-0.602421,0.390089
0.402183,0.309978,-1.92334,-1.29425,-2.49535,0.524889,0.33456,0.260926,0.443483,-0.521357,-0.788082,-0.327281
-1.05598,-2.23609,-2.6732,-3.00499,-2.55887,0.938219,0.0501304,0.133063,0.044555,-0.694214,0.566389,0.444151
-2.53151,-1.2833,-2.89199,1.25295,2.55966,3.04428,0.111382,-0.0553137,0.25208,-0.961242,-0.00450786,-0.275669
-3.05959,0.270826,-2.21381,-1.10206,-2.22467,1.89322,-0.266119,-0.13139,0.435063,-0.0794735,-0.258886,-0.962633
0.310302,0.309856,-2.53338,-0.126917,-1.05224,-2.34731,0.189339,0.175338,0.337724,0.0647031,0.659945,0.748523
1.72079,0.30979,3.0284,-2.98591,-0.909044,3.02885,-0.106044,-0.0287519,-0.0526245,-0.866546,0.48791,-0.105083
-1.44191,0.3097,-0.319528,2.32953,-1.94595,-1.85068,0.201772,-0.707623,0.027927,0.173286,0.662788,0.728481
-0.743921,0.256817,-0.403765,0.552612,-1.46079,-0.111888,0.634411,-0.435514,-0.0483278,-0.775061,-0.629075,-0.0595379
2.32398,-0.812599,0.158844,-0.110465,-2.91538,-2.46475,-0.53727,0.413463,0.567967,-0.0488749,-0.203508,-0.977853
1.35514,-2.28114,-2.06773,1.63225,-2.07305,1.52487,-0.18742,-0.345485,0.130981,-0.0531341,-0.430603,-0.900976
0.712372,0.0716654,0.0722581,-1.3622,-2.57985,-0.0817967,0.610495,0.671484,-0.0302109,0.625436,-0.1613,0.763421
1.92769,-0.792666,0.19116,-0.695305,1.04225,1.35875,-0.351315,0.629801,0.588215,0.168537,-0.972236,0.162335
-0.363874,-0.213914,0.84672,-2.44104,2.08117,0.276215,0.808527,-0.191116,-0.0303377,-0.0522468,0.9182,0.392657
-0.273874,-0.173556,0.646559,0.600816,3.1183,0.197159,0.688604,-0.0800764,-0.0612698,0.621935,-0.150999,-0.768372
1.38144,-2.03871,1.57181,-3.14159,-2.76846,2.15092,-0.0853693,0.134449,0.729557,-0.0395868,0.854994,-0.517126
0.151135,-0.581212,1.8158,0.716097,1.80498,0.642348,0.375765,0.167636,-0.012691,0.364654,0.843352,-0.394696
0.688276,-1.40357,-1.46625,3.14159,3.04832,2.68888,-0.326152,-0.126917,0.522352,-0.522247,-0.537963,0.661705
0.100936,-1.38354,-1.28336,2.07045,1.24057,-1.04429,-0.226491,0.0867692,0.607706,0.30114,0.508296,-0.806815
1.49004,-0.694708,2.34954,-3.14136,1.2686,0.578903,-0.0775043,0.395431,-0.0376052,-0.842196,-0.499825,-0.202188
-2.07482,-0.323405,-0.90735,2.99106,2.63156,-1.70952,-0.117326,-0.438733,0.611843,0.399655,0.864405,0.30509
-0.1014,0.309674,-2.39098,1.0091,-0.833675,2.23521,0.305777,0.0786012,0.256617,-0.444499,0.504116,0.740465
-2.6163,-2.2495,-1.5304,-1.70104,-0.536865,1.40632,0.616989,0.231457,0.12047,-0.570981,-0.234157,0.786862
-0.161229,-0.670507,2.24463,1.74805,-0.832035,-0.322669,0.361686,0.0517592,0.0541099,0.563745,-0.802051,0.197248
3.03596,-0.147299,0.579756,-1.51547,0.14791,-2.13519,-0.866862,-0.017849,-0.0572183,-0.980476,0.18323,0.0713711
-0.381466,-0.581438,1.94087,0.22916,3.09074,3.09954,0.358812,-0.0263213,-0.0592565,0.0365865,-0.0693924,0.996918
0.7524,-0.324937,2.91731,-3.14174,3.0602,0.206755,0.0112761,0.160066,-0.0606465,0.474718,0.553366,0.684418
0.434776,0.309699,-2.42028,2.88798,1.22424,3.11987,0.0780926,0.156614,0.228651,0.629404,-0.744479,-0.222714
0.271463,-0.496694,1.32132,-2.11988,-0.763184,2.23114,0.674959,0.301163,-0.0220979,-0.729663,0.237019,0.641415
0.779415,-0.168272,-1.80175,-1.00645,1.80218,0.297544,0.123935,0.275907,0.615104,-0.842181,0.476074,-0.25315
2.13409,-2.14984,-2.04736,0.412707,2.05896,1.73618,0.165394,-0.466301,0.179298,-0.22582,0.629867,-0.74315
-1.05457,-0.317788,1.06946,0.672285,-3.08127,1.57859,0.38943,-0.465019,-0.0597443,0.48812,-0.859083,0.153997
-1.95733,-0.614103,2.86802,0.221234,0.701528,0.448411,0.0855493,-0.0793474,0.104219,0.233671,-0.968614,0.0847609
-2.68523,-1.14929,0.652494,-1.56872,1.52629,0.518664,-0.492307,-0.363283,0.708847,0.757519,-0.594648,-0.269369
1.12004,-0.661769,2.25827,-3.14159,-0.269393,2.77153,0.0846452,0.42544,-0.0442265,-0.370789,-0.196547,0.907681
1.01601,0.309802,-2.27201,3.14159,-2.46166,-1.67733,-0.00447512,0.199988,0.286066,-0.557604,-0.77287,-0.302902
0.841327,-0.603554,0.183704,3.14159,-2.90722,-0.491963,0.364839,0.571887,0.576697,-0.497475,-0.863606,0.0818703
1.24569,0.309792,-2.04026,1.32718,-0.0667619,0.813126,0.0177984,0.394531,0.259797,-0.24906,-0.882447,0.399069
0.69676,-0.631727,2.53434,-3.14185,-3.12227,1.25353,0.163632,0.279243,-0.0615253,-0.607232,-0.515968,0.604191
-0.140567,-2.08409,2.48288,0.69265,-0.630381,-3.07037,0.0834059,0.0984354,0.263425,0.387815,0.538939,-0.74776
2.48512,-0.635232,2.12329,2.89345,-0.887185,-2.40759,-0.4342,0.196746,-0.0188194,-0.732487,-0.162346,0.66114
-1.23878,-0.592974,-0.828697,-0.663772,-1.65192,2.15234,0.263921,-0.430604,0.761148,0.287657,0.845399,-0.45006
0.0092028,0.309948,3.05891,-2.62299,-2.02454,-1.26826,-0.0426484,0.108762,-0.0216091,-0.549381,-0.272865,-0.789763
1.23809,-0.155759,0.733508,1.06424,0.143418,3.00797,0.110443,0.653813,-0.052401,0.154497,0.0133862,-0.987903
-0.939753,0.309739,2.83433,0.155216,-0.422896,-2.53721,0.104289,0.0422817,0.0540613,-0.111899,0.725523,0.679039
0.57047,0.267459,-0.36921,0.990308,-0.815061,0.0657679,0.552636,0.484275,-0.0429976,0.0719272,-0.816674,0.572599
0.167132,0.0524644,-2.86249,-2.00573,-0.192616,-1.57454,-0.058207,0.100873,0.184791,-0.980541,-0.164696,-0.106843
-1.9629,-0.513035,0.840897,-2.42304,0.695381,2.85277,-0.213852,-0.802779,0.218836,-0.332494,0.803064,0.494506
-0.175549,0.3102,-0.755309,3.13041,-2.63552,-0.526574,0.725084,-0.0177576,0.21328,-0.959609,-0.25541,0.117968
-0.786084,-0.565116,1.45947,-1.7727,-2.90127,-1.39142,0.55585,-0.402146,-0.0495544,0.583274,-0.644171,-0.494809
2.6603,-2.22962,-0.710089,0.826192,0.333304,-1.32718,0.448884,-0.357568,0.552745,-0.877498,0.369241,0.306036
-1.65518,0.0892226,0.144599,2.74288,-1.92337,2.9696,0.0422338,-0.79574,0.0537731,0.890699,-0.440329,-0.112985
-1.68291,0.309689,-1.44219,-2.15538,-0.934973,3.06818,0.0460991,-0.566167,0.408447,0.861732,0.481841,-0.158897
1.19645,0.0822231,0.171649,-2.33233,0.0512298,-2.0471,0.222372,0.864512,0.0017511,0.224438,0.507065,0.832173
-1.49947,0.309676,-2.58771,1.25754,2.87825,0.496636,0.125306,-0.222235,0.208315,0.230969,-0.0213801,0.972726
1.15881,-1.34095,0.917565,-2.71395,2.75625,-2.00977,0.0821188,0.460495,0.758786,0.305635,0.300451,0.903502
-1.19527,-0.522968,1.603,-3.14173,-2.26325,-0.465931,0.335001,-0.552144,9.20584e-05,-0.593022,-0.370641,0.714808
1.59953,-0.590212,1.88086,3.1417,2.41826,-2.60006,-0.124977,0.549155,-0.0251096,0.547619,0.688928,-0.47486
-0.219755,-0.507805,2.92316,-1.29239,1.13733,2.43912,0.0167459,0.108099,-0.00564401,0.552871,-0.833216,-0.00919262
-0.35602,-2.35661,-1.26944,-1.79501,-1.69274,-0.614831,-0.636448,0.353126,0.145272,-0.63246,-0.62986,-0.450856
0.356005,0.266224,-0.231128,2.73832,1.88147,1.53991,0.681773,0.369969,0.0518888,0.318687,0.149873,-0.935936
1.65141,0.30965,-1.70606,2.65367,-1.72314,2.0766,-0.139622,0.372777,0.316759,-0.542526,0.76827,0.339746
-2.15209,0.134039,0.00936707,-1.56685,1.99914,-2.6339,-0.404637,-0.814651,-0.0375914,-0.899156,0.0791153,-0.430418
-1.79829,-0.634213,2.21127,0.273409,-2.02969,0.675753,0.050196,-0.267128,-0.0251249,-0.795565,-0.334981,-0.504841
2.88838,-0.902883,0.198869,-0.871497,2.36648,-0.492146,-0.663263,0.0588836,0.677176,-0.609074,-0.47945,0.631788
-1.98662,0.310318,-0.379842,-1.60797,2.97284,1.0466,-0.259708,-0.858353,-0.00329164,0.445843,0.801557,0.398409
2.29596,0.310148,-0.391816,2.92226,1.14892,0.725958,-0.590806,0.502072,0.0818425,-0.835141,-0.0863639,-0.543213
-0.294922,0.310045,-1.50709,1.86267,-0.0476351,1.10852,0.500091,-0.0378428,0.250216,0.187433,-0.0791334,0.979085
0.445659,0.11008,0.0917421,-2.86527,-0.495484,2.44262,0.72017,0.464999,0.0478758,-0.96355,-0.0569362,-0.261398
1.76127,0.309925,-2.06168,-2.27444,3.03126,1.53029,-0.156575,0.235545,0.405354,-0.145902,0.733165,-0.664215
1.20839,-1.96609,1.24547,1.23797,-1.1825,-2.46246,-0.0721864,0.117487,0.657948,-0.692768,0.204272,-0.691625
0.52671,0.309749,-3.11473,1.85426,1.9737,0.431205,0.0415769,0.15044,0.034166,-0.535226,0.655507,0.532769
-0.879455,-2.00367,3.07209,-0.207388,2.40842,0.478825,0.0450679,0.11674,0.0694957,0.954403,-0.221622,-0.199997
1.1183,0.162977,0.0304585,1.54476,-2.44994,-0.940434,0.212681,0.687144,-0.0394318,-0.043208,-0.948758,-0.313037
-0.607291,-0.436034,0.617847,-2.58436,1.5901,-1.36122,0.747799,-0.386726,0.26769,0.657299,-0.203457,0.725647
-2.63548,-0.38125,3.11383,-1.14169,1.66835,-3.06997,0.105427,-0.0663605,0.0931938,-0.420361,0.901987,0.0985671
1.53499,-0.603769,2.09354,-3.08649,-3.0799,-3.05597,-0.0920305,0.479829,-0.0580572,-0.0574047,0.113396,-0.99189
0.171356,-0.49785,1.58296,-2.84001,0.836074,-0.0377803,0.621444,0.218315,-0.0374477,0.0309932,0.757872,-0.651667
1.15012,0.181486,-0.0482289,3.14178,-0.721754,-0.557091,0.234982,0.792521,0.0541431,0.798516,0.411621,0.43925
-2.81947,0.310171,2.81451,1.17932,-1.74044,-1.63203,-0.0597251,-0.135001,-0.00960464,-0.853724,-0.348509,0.386907
2.73777,-1.15063,0.477486,1.23871,1.05047,-0.999716,-0.437682,0.0683266,0.64183,0.438941,-0.697591,-0.566302
-0.037658,0.309697,-0.667327,0.361669,1.7459,-0.663614,0.775393,0.0800139,0.00229173,0.16386,0.770102,-0.616517
0.748144,0.310014,-0.438933,1.08916,-3.11065,1.80929,0.450677,0.567208,-0.0443328,0.479336,0.454862,0.750558
1.60164,-0.242365,0.67187,0.204146,-2.4281,2.48577,-0.131089,0.709455,-0.0484581,-0.514703,-0.137778,0.846226
-3.04012,-2.38222,-1.64372,3.14159,0.257022,1.15949,0.492201,-0.0595995,0.0183645,0.959449,-0.00446755,0.281846
-1.56662,-0.587392,1.80094,1.93405,0.528262,0.0460275,0.111202,-0.491042,0.0518545,0.507097,-0.860367,-0.0511912
2.65283,0.309477,2.83786,-0.775176,-1.79395,-2.35708,-0.00420439,-0.121389,0.0299639,0.0105687,-0.787331,0.616439
-1.06895,0.309703,-2.31581,-2.66224,-1.5898,-2.88136,0.165354,-0.0744526,0.319466,0.72376,0.689414,0.0296792
0.708657,0.237535,-0.349611,0.148448,0.122351,-2.43394,0.535908,0.603141,-0.0615641,0.614653,0.404728,-0.67705
1.59886,0.309714,-2.31533,-0.376791,1.67603,0.310605,-0.117656,0.301513,0.384033,-0.93857,-0.309384,-0.152864
-1.72367,0.310008,2.7998,-1.59115,-0.10936,0.378049,0.120338,0.0642572,-0.0578946,-0.149049,-0.301272,0.941817
1.52709,-0.507963,1.63332,0.542239,2.94927,2.7437,-0.0895523,0.450475,-0.0489493,0.196714,0.464969,0.863196
-2.88232,-1.33701,2.204,0.708959,-0.408889,-0.215796,-0.221046,-0.171556,0.204038,0.102924,0.429098,0.897375
1.01695,-2.23763,-2.86284,-2.61472,3.05474,1.31322,-0.103716,0.0398102,0.0469411,-0.504043,-0.773061,0.38512
2.42431,-0.585078,-1.91156,2.09251,-1.18433,-2.11286,-0.130582,-0.0309369,0.472653,-0.702691,-0.0211638,-0.71118
1.26923,-0.66066,1.60006,-1.72921,-0.683116,1.00973,0.0841826,0.638126,-0.0333013,0.055807,-0.951373,0.302944
2.36921,-1.36035,-2.78854,-1.75297,-1.31939,-0.962527,0.0355378,-0.187016,0.0853255,0.699494,0.0912318,-0.708791
-0.0228938,-1.78897,-2.29529,-2.13406,-0.435449,-1.18263,-0.326041,0.116644,0.0922541,-0.405997,-0.150398,-0.901414
-0.441997,0.30986,-1.75409,2.26821,-1.81202,-0.205252,0.39452,-0.0659413,0.284382,-0.398232,-0.863284,-0.310082
1.25188,-0.31592,-0.552948,-3.01295,2.90322,1.75034,0.08241,0.597703,0.590606,0.28828,0.738589,-0.60941
1.36541,0.309725,-2.11144,1.39548,-1.02356,0.247032,-0.0349851,0.367258,0.254512,0.69641,-0.7172,0.0252575
-2.00141,-1.284,2.79471,0.147146,-1.11234,1.10085,0.0785291,-0.0905306,0.113488,-0.747042,-0.653463,0.122124
2.50791,-2.01988,2.96305,0.351012,-2.84893,0.360715,-0.028187,-0.114735,0.128673,-0.310935,0.563437,-0.765414
-0.23514,-0.524086,1.67305,-2.87106,2.54658,0.399457,0.630437,-0.038796,-0.0417602,-0.365417,0.618547,0.695607
0.523258,-1.57282,-3.14158,-1.69831,-1.82717,-2.60035,-0.0440143,0.100619,0.0280518,-0.54332,0.643686,-0.538954
-2.96075,-1.90963,-0.00171617,-2.05195,-2.42163,-1.62903,0.355655,-0.0459327,0.924171,0.696739,0.0883788,0.711859
1.73248,0.309926,-2.09306,-1.16797,-1.25287,1.69187,-0.162462,0.318,0.435917,-0.0770071,-0.24056,-0.967575
3.12367,-0.889332,0.132766,0.574634,-0.1582,2.78814,-0.571953,-0.098918,0.595399,-0.851063,-0.132575,0.50805
2.33343,0.309628,2.7977,-1.32635,-2.01066,-2.97108,-0.0237918,-0.133098,-0.0340325,-0.590548,-0.67269,0.445805
-2.81912,0.309636,-1.46923,-1.94991,-0.409457,-2.94027,-0.500919,-0.28246,0.413809,0.969574,-0.0872952,0.228704
-0.461407,0.310157,-1.25204,2.26923,-0.84974,0.626445,0.535358,-0.144284,0.253829,0.123139,-0.740773,0.660372
0.391617,0.30971,3.06269,-2.87612,1.99211,-2.83084,-0.0621225,0.092437,-0.033872,-0.119431,-0.989327,-0.0834815
1.55021,-0.655008,2.15185,-3.14159,2.01225,2.89731,-0.0996496,0.462564,-0.0361307,0.872767,-0.228588,-0.431307
2.06559,-0.638529,2.12744,0.437909,1.03042,2.6102,-0.231219,0.198666,-0.0154801,0.498468,0.632991,-0.592327
-0.0817896,0.309215,-0.343902,1.73472,1.00091,-2.63564,0.709564,0.0513514,-0.0143719,-0.599777,-0.689781,-0.405548
-2.53971,-1.0397,0.677048,1.91763,1.84284,2.47544,-0.339909,-0.365905,0.593273,-0.935327,0.276259,0.221007
-0.457885,-0.108967,0.600037,-2.39948,-2.84721,-1.2012,0.817583,-0.281234,-0.0182432,0.640155,-0.432329,0.635054
1.98711,-0.486157,2.62148,-0.0580898,-0.182213,2.6938,-0.133444,0.0318893,0.00225374,-0.128615,-0.113038,-0.985231
-0.350131,0.249819,-0.38593,-0.33478,1.33264,2.08521,0.829641,-0.186766,-0.0470371,-0.43785,-0.349129,0.828491
-2.39879,-0.494535,0.4445,-0.119393,2.20845,-2.32382,-0.502031,-0.60917,0.217197,-0.166683,0.592918,-0.787823
0.536161,0.310524,3.02551,2.3803,1.59003,-1.54347,0.00497004,0.12992,-0.0447591,0.447884,0.297919,-0.842997
2.64228,-0.0721111,-0.0492556,-1.11454,-2.96279,-2.771,-0.844712,0.336387,0.13616,-0.115002,-0.126107,-0.985328
2.47806,-0.599482,0.525618,2.79832,2.49839,0.558789,-0.621634,0.347439,0.444431,0.00624909,-0.650384,-0.75958
1.08983,-0.57155,1.86382,-2.96485,0.364886,-0.285502,0.162057,0.546483,-0.0484587,-0.131797,0.487544,-0.863093
1.49116,-0.63754,2.40423,1.36592,2.62803,-2.68303,-0.0877761,0.27216,0.0520262,0.500946,0.7395,0.449658
2.86327,-2.18386,-2.76075,2.27666,0.794607,2.01162,0.0768278,-0.135471,0.13927,0.736076,0.106339,-0.668494
1.21726,-0.159721,0.67649,1.29352,2.09943,1.15531,0.129109,0.665106,-0.0145962,-0.0359764,0.909204,-0.414793
-1.33924,-0.913084,2.43308,-1.46553,-2.24353,-0.256008,0.169249,-0.242196,-0.0607525,-0.601466,-0.746081,-0.285661
2.94452,-1.46073,1.17779,0.824828,0.456258,-1.95325,-0.388643,-0.0337046,0.540008,0.21995,0.123757,-0.967629
0.0200543,-0.212803,0.552753,0.410677,1.47158,-1.52166,0.718321,0.123579,-0.0210869,-0.685675,0.0351344,-0.72706
2.56528,0.309803,-3.0301,2.17238,-2.25237,-2.05312,-0.140074,-0.0391409,0.0392022,-0.374082,-0.18648,-0.908454
-0.852146,-0.690261,2.31221,-3.14161,-2.75052,-1.86847,0.346938,-0.230856,-0.0368023,0.703617,-0.634615,-0.319667
-0.933632,0.310096,-1.30191,1.47603,-2.54602,-1.55258,0.429988,-0.39748,0.204022,-0.277174,0.357309,-0.891911
1.35584,0.310011,-1.45134,-1.57896,-3.06264,-0.882255,0.0227919,0.616095,0.402506,-0.00698126,-0.26691,0.963696
2.32239,0.309876,-0.933798,2.14655,-1.36547,0.0876824,-0.508932,0.384702,0.184164,0.65946,0.722654,0.207086
2.86071,0.145243,-0.84846,3.14176,-1.17212,-2.86825,-0.662974,0.0776715,0.353511,0.195695,-0.980013,-0.0357371
-1.68803,0.143772,-0.167199,0.414755,-1.98611,1.4098,0.0175598,-0.784092,-0.05004,-0.196698,-0.416123,0.887779
2.08492,-0.588104,1.57857,-2.18243,1.0528,2.58903,-0.41794,0.518046,-0.0380947,0.807078,0.0747788,0.585691
-0.120312,-1.89632,-1.13174,0.196979,-2.99171,-1.43698,-0.480028,0.167978,0.626404,0.173539,-0.0410468,0.983971
-0.369347,-0.608989,2.31247,0.0051156,-2.61367,-1.79011,0.228667,0.0285233,-0.0435247,-0.837957,0.441902,0.320236
3.03705,-2.17171,0.633638,-0.846328,-0.727545,-2.66984,0.150168,-0.125506,0.900536,0.108565,-0.607042,0.787219
-0.519605,0.310059,-1.73581,0.43006,1.38824,-0.379109,0.523667,-0.17381,0.296134,0.643558,0.684328,-0.342824
2.23728,-0.618463,2.45572,1.30422,-1.65739,1.901,-0.236008,0.123504,0.0518095,-0.271304,-0.17757,-0.945972
-2.19719,-0.398113,1.09929,0.393847,0.339412,-2.22648,-0.267611,-0.556016,-0.0424772,0.0942394,0.476496,-0.874111
1.4298,-0.194989,0.511274,0.369513,1.51932,-0.163212,-0.00550554,0.737895,-0.0237503,-0.995607,-0.002301,-0.0935998
0.0707625,0.310244,-0.822128,-2.75656,-2.77687,-0.222431,0.725152,0.160823,0.245432,-0.904864,-0.412916,0.103549
-0.107001,0.132234,0.110549,1.33657,-0.0370063,2.10928,0.715001,0.0329787,-0.060366,0.851214,-0.0723471,-0.519808
1.70198,-0.380548,1.23578,1.06076,0.96396,-1.60445,-0.181839,0.543748,-0.0169964,0.151274,-0.935216,0.320137
-0.733218,-0.0006146,0.38355,-2.08481,2.6497,-0.730847,0.728902,-0.509644,-0.0447708,0.66334,-0.124184,0.737942
-0.850404,-0.597926,1.92803,3.14161,1.39932,-2.88238,0.436074,-0.331344,-0.0299784,-0.577501,-0.785829,0.221282
-0.924356,-0.205865,0.84639,1.02606,0.0738454,2.11497,0.470407,-0.442177,-0.049327,0.452745,-0.66339,-0.595765
0.941567,0.309579,2.81554,-1.46537,-0.775324,-1.25312,-0.136314,-0.00179657,-0.0383737,-0.368437,-0.877641,0.306596
-2.87442,-1.71487,2.22852,-0.416897,-0.49858,0.223403,-0.233021,-0.176947,0.222813,0.678439,0.66915,0.303246
0.861537,0.309972,-1.78331,-0.717429,-1.01446,2.46368,0.255801,0.465647,0.404901,-0.989999,-0.137932,-0.0296227
-1.45349,0.309694,-2.55459,1.72592,2.74825,-0.572247,0.132613,-0.19269,0.183898,0.430348,-0.898645,-0.0850795
-2.91342,-0.919944,2.59449,-2.25471,-2.7984,1.79988,-0.237097,-0.167113,-0.0420284,0.711501,0.0867788,0.697306
-1.62292,0.284306,-0.253398,3.14159,0.329843,1.27098,0.0671664,-0.807523,0.0524331,0.0825179,-0.254413,-0.963569
2.85675,-0.385322,0.558916,2.11067,-1.44868,-2.24487,-0.710746,0.0943775,0.243092,0.440588,-0.774545,0.453831
2.25775,-1.65956,2.88474,0.92365,-0.735667,3.03372,-0.0944998,-0.0568991,0.195145,-0.317637,-0.664773,-0.676153
-1.07774,-0.604405,2.10858,0.0769103,-0.0588504,1.96827,0.229234,-0.19602,-0.0597307,0.45457,-0.797895,-0.39589
0.24731,-0.603708,2.10612,-3.06682,-3.12681,2.04285,0.430268,0.221209,-0.0615061,-0.867979,-0.212215,-0.448974
-1.65908,-0.538905,1.67825,0.773677,0.486225,-1.46462,0.069961,-0.447551,-0.0172736,0.129149,0.89737,0.421958
-2.83869,-2.2802,0.564298,1.56579,-0.912014,0.638523,0.33742,-0.0089073,0.706169,0.359574,0.777601,0.515794
1.68855,0.309891,-2.94177,2.75857,2.14216,-0.304091,-0.114316,0.0372349,0.0570501,-0.852699,0.376432,-0.36222
-0.03972,0.30968,-0.951321,2.23369,2.12794,0.247966,0.628234,0.0842696,0.196416,0.266974,0.812848,-0.517691
-2.17824,-0.919248,2.89157,-1.85918,1.63721,0.657253,0.0361187,-0.139273,-0.0280024,0.579459,-0.550361,0.601108
0.145041,-0.663131,2.02657,-3.1417,-2.06823,-0.0619278,0.487191,0.181471,-0.013567,0.0896263,-0.87334,0.478794
0.428833,-1.66332,1.63973,-1.43221,-1.31607,1.07495,0.361046,0.285091,0.510735,-0.615701,-0.78777,-0.0181757
-1.56226,0.309687,-3.00672,-1.09743,2.06816,-2.90823,0.109088,0.00776969,0.203511,-0.853043,-0.23553,0.465664
-1.38971,0.309683,-1.75219,3.14159,0.180341,-1.53331,0.172397,-0.335531,0.360773,-0.17103,0.971451,0.164414
0.310794,0.309707,-2.9485,0.95924,-3.03969,-1.55967,0.114353,0.151373,0.158919,0.945609,0.302543,0.119542
2.71097,-0.345272,1.15236,0.73162,3.01574,-1.41008,-0.569523,0.141506,-0.053348,0.883522,-0.427968,-0.190347
-0.467344,0.309873,-1.86902,2.50316,2.97037,1.07452,0.346171,-0.0524279,0.296268,0.918081,-0.372416,0.135769
-0.193327,-0.662917,2.03393,-3.1416,-0.996474,0.345391,0.517147,0.00997914,-0.0149518,-0.377863,-0.731,-0.568206
-0.422714,0.25535,-0.289513,-1.1011,0.571026,2.15461,0.855576,-0.265181,-0.0447245,-0.633672,-0.0416347,0.77248
1.96972,0.310232,-0.534891,2.96186,0.845403,-2.43378,-0.391848,0.648587,0.133814,0.803229,-0.441926,0.399405
1.1559,0.156183,-0.114307,-1.13755,-0.399742,1.03135,0.261245,0.863887,-0.0366676,-0.211851,-0.976893,-0.0282708
-0.213459,-0.998337,-3.01902,-2.07062,1.49787,2.6088,-0.0153206,0.115006,0.0522874,-0.0255363,-0.87352,0.486118
1.07197,-0.507157,1.60771,-2.86544,-0.394057,1.59266,0.21133,0.616082,-0.0358389,-0.478531,-0.860855,-0.173022
0.803407,-0.482304,1.29158,0.0782958,-2.97525,-1.48071,0.319791,0.48874,-0.0573745,-0.486636,-0.525943,-0.697545
1.72787,-0.448465,1.41133,-2.81153,-2.3847,1.3733,-0.217002,0.672367,-0.0225762,0.286704,-0.94891,-0.131802
-0.918288,-0.125828,0.411078,-0.466235,0.234523,-1.45617,0.581626,-0.581356,-0.0609869,0.0632491,-0.038993,-0.997236
-1.4379,-0.821197,2.54063,0.332485,-2.54839,-0.337106,0.127743,-0.131815,0.0561188,-0.609739,0.579637,-0.540591
0.257461,0.309936,2.80021,1.36243,-0.549899,1.6439,0.073394,0.132195,-0.0303168,-0.960879,-0.213533,-0.176397
-0.271493,-0.582374,2.69665,-3.14198,-0.0248126,-2.45045,0.253866,0.0426323,-0.0617336,0.91433,-0.234675,0.330044
0.267261,-0.65413,2.02501,-3.14162,-2.27406,-2.61886,0.461072,0.239415,-0.0178811,0.404738,0.796027,-0.45003
2.50173,-0.589228,0.307602,-1.90316,-0.0652082,-0.641858,-0.712923,0.394585,0.488884,-0.730769,0.609001,-0.308376
2.22279,-2.12164,2.47163,-3.14159,0.415716,-2.00042,-0.195057,0.0756386,0.405709,0.161756,0.0653269,0.984666
-2.47984,-0.720805,-2.89152,-2.4882,-0.25124,0.145582,0.104538,-0.0569276,0.098679,0.571541,0.756978,0.316741
1.24534,0.255743,-1.50928,3.06923,1.89422,0.245268,0.0378132,0.453429,0.377272,-0.820073,0.446467,-0.357976
2.1715,-2.27694,0.636369,-2.84859,2.22504,-3.11368,0.133465,-0.3879,0.824779,0.593607,0.536975,0.599407
1.44626,-0.556929,1.59884,0.376836,-1.42563,2.21559,-0.0505275,0.475091,-0.0391864,-0.490342,0.870823,0.0351131
-2.76776,-1.30009,2.80783,-0.570748,-1.20102,-0.109515,-0.0179497,-0.124289,0.051158,-0.0584208,0.972664,0.224748
0.0869346,-0.584665,2.39397,-0.121624,-2.71578,-0.945595,0.15762,0.123301,-0.0463826,-0.843206,-0.316151,-0.434802
-0.0471372,0.0157751,-0.0355358,-1.95093,-1.286,2.21522,0.908442,0.0664182,0.127055,-0.774024,0.613696,-0.155771
-3.0402,-0.32479,-0.441688,-2.79016,0.0778432,-2.08845,-0.632804,-0.174094,0.58346,0.793843,0.119444,0.596277
-0.47003,-1.36901,-1.4742,-2.53627,0.937005,-2.36073,-0.275179,0.262218,0.562287,-0.520219,-0.377703,-0.765972
0.632301,0.309793,-3.07632,-0.807188,-1.8484,2.43746,-0.0643885,0.0881355,0.189239,-0.06149,0.863612,-0.500393
0.760298,0.309806,-2.96265,-0.0919058,0.486938,0.645973,-0.0063612,0.144579,0.231053,0.0455409,0.558942,-0.827955
-1.58171,0.309787,2.8487,-1.66123,-2.48055,1.67996,0.110036,0.0806229,-0.0407317,0.0561339,-0.985714,0.158801
-1.43931,-0.577287,1.91219,-2.94485,0.137916,1.79458,0.179318,-0.523388,-0.0565779,-0.159114,0.970437,0.181479
0.79847,-1.8588,0.300332,-1.77388,2.7436,-1.98912,-0.17157,-0.0196963,0.981807,0.248447,0.0294034,0.968199
-2.7508,0.309695,-2.47974,-1.06592,2.40924,-2.43226,-0.119881,-0.167439,0.377765,-0.655892,0.2785,0.7016
1.64827,0.310316,2.81138,-1.18744,2.04138,-1.56755,-0.102945,-0.0841587,-0.0147729,0.0694994,-0.932609,0.354132
0.646803,-0.561379,2.73434,-3.1417,-3.11886,-2.86185,0.106274,0.217032,-0.0614525,-0.265834,-0.173376,-0.9483
1.91419,-0.570903,1.82907,-3.02009,2.2097,-0.957515,-0.295084,0.501072,-0.036431,-0.683418,0.539048,0.492308
2.6318,0.222368,-0.32023,0.0427726,0.724213,-3.10765,-0.760376,0.300063,-0.0607514,-0.330911,0.943633,0.00733164
0.919384,-0.313091,1.04485,2.38021,-0.259393,0.561711,0.333598,0.617566,0.0525754,0.677961,0.531166,-0.508165
-0.141087,0.309931,-1.23631,1.31726,0.707014,-2.68867,0.61367,0.0230857,0.185611,0.3786,-0.643707,-0.665059
-1.54744,-0.0121843,0.401738,1.37666,-2.82626,-2.49443,0.125352,-0.692243,-0.0362505,0.236981,0.449829,0.8611
-2.66415,-1.14199,0.732099,-0.278016,0.876399,2.42131,-0.479698,-0.371069,0.558869,-0.223477,0.534674,0.814974
-0.690775,-0.451566,1.38633,3.14163,-0.771062,-0.539618,0.602553,-0.356479,0.0152914,0.219341,-0.957014,-0.189771
2.27718,-0.635511,1.93164,2.33735,-3.09171,2.66593,-0.403108,0.304272,0.0473153,-0.401324,0.402052,-0.822978
0.83857,0.309779,-2.63835,0.916047,2.93499,-0.585378,0.0716794,0.243007,0.229598,0.323555,0.615688,0.718498
1.51841,-0.262754,0.175351,-2.10623,-1.29665,0.529012,-0.0630215,0.882554,0.289002,0.815602,-0.316723,-0.484232
2.56009,0.225688,3.02041,-2.99747,-2.4735,0.219074,-0.06064,-0.090759,-0.0567692,-0.33316,0.942611,0.02209
0.610792,-0.47601,1.43244,2.56036,-0.525183,-1.17905,0.460494,0.455632,0.0514511,0.639043,0.213717,0.738884
-1.41534,-0.598378,1.84061,1.89893,3.04361,-0.92559,0.181795,-0.45503,0.051946,-0.0345971,0.60071,0.798718
-1.94065,-1.08212,-2.36298,1.28704,1.25471,-1.41852,0.136474,0.0500612,0.399627,-0.172451,-0.843664,0.50842
-0.547056,0.309866,-1.3807,0.889149,-2.6654,-3.11644,0.577671,-0.224036,0.21071,-0.504063,0.843561,-0.185269
-1.09727,0.309756,-2.57403,0.129492,0.625419,-1.26986,0.203864,-0.158505,0.311854,0.581096,-0.753526,0.30745
-0.440049,-0.474953,1.44271,3.04252,0.180565,2.62938,0.655094,-0.187802,0.0215736,-0.906256,0.253681,0.338151
-0.120857,-0.494015,0.464641,-0.401614,1.49455,-0.623352,0.81309,0.0112031,0.216205,0.283918,0.781034,-0.556216
-0.960277,-1.21172,-3.11639,-1.21212,-0.144913,-0.401824,0.0540426,0.113154,0.0537036,-0.645081,0.690122,0.328028
-0.85608,0.309971,-1.69638,0.580159,-1.85885,-1.10039,0.439614,-0.340068,0.279604,0.15182,-0.838018,-0.524095
-0.911421,-0.639989,1.81278,-2.75116,-1.57819,0.891818,0.446228,-0.397532,-0.0179095,-0.973101,0.230376,-0.00125569
0.98459,-0.686618,-0.6838,1.27961,-1.61263,1.0671,0.138846,0.406387,0.648719,0.368917,-0.316189,0.874028
-1.91688,0.309865,-0.53395,3.14159,1.50305,3.02931,-0.157221,-0.757767,0.139011,-0.918839,0.37458,-0.124196
-0.297614,-0.579375,1.40016,-0.326354,0.365838,-0.105867,0.584698,-0.0651715,-0.0484691,-0.725079,0.594485,0.347632
-3.02925,-2.02977,0.646581,-1.83244,-0.617789,2.24958,0.1336,-0.0947702,0.949932,0.490734,-0.310614,-0.814063
-0.321393,-0.0629177,0.501339,1.43977,-1.00411,-0.515653,0.688293,-0.114117,-0.0219938,-0.543702,-0.592575,0.594343
2.17136,0.108859,-2.84541,-2.43775,-2.94655,2.66815,-0.0771899,-0.0804573,0.155371,-0.153066,-0.0817658,0.984828
-1.32961,0.309738,2.80838,-1.21908,-1.71325,2.97748,0.0876075,0.100807,-0.01908,0.996029,0.0392334,0.0799175
-2.26103,-0.62698,2.496,-0.182831,2.50597,-2.87154,-0.0017255,-0.173515,-0.025532,-0.329312,0.499801,0.801095
2.42179,-1.48211,-0.974545,-3.14166,-2.29872,1.03149,0.173185,-0.296995,0.687328,-0.354374,0.820558,0.448446
-0.997506,-1.66624,1.22701,1.19574,1.16312,1.68504,0.227053,-0.150446,0.610195,0.299771,-0.657265,0.691477
-1.99367,-1.67466,-2.9244,-1.81715,0.553519,-1.55247,0.130669,0.0243891,0.0283208,-0.0392979,-0.1108,-0.993065
-1.71765,-0.611405,-0.820101,0.608452,-2.61477,1.96539,0.0389297,-0.48276,0.657207,0.323317,0.864843,0.384073
-1.1456,0.309684,-2.41341,2.10889,1.81544,0.10373,0.183996,-0.141727,0.202841,0.978676,0.178122,0.102299
-1.90886,-0.622312,2.16003,3.00312,-2.7801,-0.717125,-0.0467926,-0.462202,-0.0389796,-0.426336,-0.408973,0.806833
0.823304,-0.165659,-0.771545,3.12682,-2.80308,-0.167573,0.310368,0.495398,0.530263,-0.218968,-0.717885,-0.660828
2.69877,-0.157004,0.518422,-0.985554,-3.09419,2.81472,-0.807552,0.262163,-0.0598937,0.84391,-0.449874,-0.292281
2.10409,-2.0669,-0.387024,-1.92767,1.01416,-0.0394117,0.208446,-0.5678,0.74264,-0.798793,-0.315722,0.512103
1.1272,0.0955116,0.138772,2.91892,-1.21846,1.56311,0.247212,0.774561,0.0522126,0.00266987,-0.0111827,-0.999934
1.53172,0.30998,-1.47397,-0.282031,-0.806158,-2.98331,-0.0835204,0.657629,0.307975,-0.702633,0.269137,0.65869
-1.58095,-0.435905,2.91811,-3.14177,0.853495,3.00406,0.107791,-0.134338,-0.0464976,-0.7508,-0.422958,0.507352
-0.117313,-0.658522,1.3589,3.02966,-2.28977,-0.635514,0.696626,0.027805,0.175161,-0.181515,-0.588369,0.787956
-2.54315,-1.58662,3.03808,1.45963,0.123535,-0.156676,0.0463294,-0.100519,0.216792,-0.690435,-0.618085,0.37586
-0.11601,-0.651536,2.18749,-3.14159,1.5667,-2.80419,0.455833,0.056769,-0.0418318,0.21926,-0.975545,0.0153941
-0.0208579,-0.611591,2.00757,-3.14159,0.922629,-0.699566,0.51156,0.0985022,-0.0366274,0.72698,0.594916,-0.342893
-0.631693,0.309687,-3.1416,-1.42755,0.436378,-0.615142,0.0209438,0.119924,0.120596,0.0464724,0.393716,0.918057
0.809513,-0.965395,-1.18086,0.837524,-2.39259,0.385807,0.00363449,0.162037,0.74318,0.327252,-0.571059,0.75286
-2.66999,-0.758905,1.10657,-0.0530214,0.178161,-1.00243,-0.529166,-0.392391,0.157402,0.712936,0.256508,-0.65263
1.35629,0.310114,-0.983229,2.92722,-2.85157,-1.01374,0.0291643,0.646633,0.26376,-0.0604762,-0.987867,0.143043
-0.0521556,-0.673772,2.10593,-0.00727966,-2.75653,0.853688,0.297979,0.0937432,-0.0479156,0.820255,-0.290013,-0.493025
-2.44158,0.30974,-0.924655,-0.272163,1.98928,-0.680688,-0.540443,-0.597927,0.12611,-0.0682732,-0.98591,-0.152707
-2.3722,0.309748,-1.73037,-0.924251,-0.0598865,0.704022,-0.305603,-0.44792,0.413612,-0.0813318,-0.0152593,-0.99657
0.730421,0.309669,2.83767,-0.780728,-0.254705,-0.587274,-0.112813,0.0454868,0.0295166,0.279861,-0.0309134,0.959543
2.63557,-0.62529,1.54993,-1.35753,-3.09251,-1.85113,-0.595622,0.205277,-0.061167,-0.13977,0.0619333,-0.988245
1.50646,-0.658853,2.40181,1.05711,-2.4471,-1.08082,-0.0936767,0.243673,0.0520808,0.259654,-0.654287,0.710273
2.69343,-0.0813188,0.43505,0.810736,-2.76829,1.63449,-0.682327,0.20695,-0.0496035,-0.815129,0.366155,0.448882
-0.0969469,-0.573264,1.79411,3.14162,1.49013,0.465144,0.588293,0.0524524,-0.0163584,-0.308588,0.925065,-0.221424
2.34597,-0.111051,-2.57045,0.619176,-1.27299,1.43681,-0.185997,0.0338753,0.355101,0.689731,-0.521499,-0.502305
2.58029,0.0949402,-0.0702606,0.0797028,1.26672,-2.41791,-0.739881,0.336283,-0.0549444,0.250083,0.68734,-0.681925
-1.60552,0.310532,2.82948,-0.946706,0.308199,-2.80809,0.111322,0.0606443,0.013861,-0.259,0.80041,-0.540613
-2.13162,-1.02559,-1.17627,-2.33826,2.0001,0.382823,0.147891,0.0302446,0.785472,0.553704,-0.704202,-0.444422
1.05593,-0.409352,1.31926,0.93605,-1.78218,0.51838,0.170692,0.523365,-0.0256282,0.949606,-0.0462835,-0.31001
1.31495,-1.52586,-2.78245,3.08797,-0.182119,1.01028,-0.117298,-0.0171076,0.120574,-0.153589,-0.96763,-0.200256
-0.623823,0.310143,2.99947,-0.84374,2.91883,0.334809,0.0303168,0.11266,0.0988985,-0.294659,0.469139,-0.832517
-1.29215,-2.14374,-2.91594,2.1572,3.07553,-1.37822,0.0844546,0.101626,0.169415,0.0250552,-0.0416418,0.998818
1.69813,-0.341987,1.04149,0.511216,3.01793,0.425624,-0.185978,0.593126,-0.0542089,-0.20095,0.684893,-0.700386
1.82131,-1.16583,2.69152,2.92073,0.122657,-0.085239,-0.174277,0.240766,0.11281,-0.202899,0.301165,-0.931736
-3.07507,-0.340421,2.95965,-3.14233,1.92329,0.441724,-0.100461,-0.116085,-0.0466393,-0.00026884,-0.850332,0.526246
-0.814809,-1.81037,-0.905174,-3.07196,-2.70054,-1.8414,-0.265681,0.440896,0.580867,-0.377253,0.566467,-0.732664
-2.63409,0.309711,-1.10754,2.83165,-1.88621,1.24325,-0.466075,-0.384071,0.282691,-0.850048,-0.122746,-0.512202
1.76467,0.309733,-0.867012,-0.160504,-1.33329,-1.38131,-0.261222,0.763915,0.0957733,0.0616223,0.636355,-0.768931
2.4164,0.309736,-2.24768,2.23355,1.14603,-0.837175,-0.249314,0.0751172,0.23518,-0.0451625,-0.77516,-0.630149
0.924832,-0.0585429,-2.86729,2.75019,2.94979,2.90102,-0.0524512,0.111745,0.104808,-0.442311,-0.894281,0.0679905
1.45815,0.309781,-3.12059,0.2538,2.7674,2.40776,-0.0987895,0.097741,0.165926,0.292973,0.175032,-0.939963
1.52946,-0.418555,1.06929,-1.82492,-1.50699,-2.12643,-0.0765066,0.791541,-0.012282,-0.493044,0.817682,-0.297159
1.98938,-0.665224,2.35481,1.70694,0.205034,-2.59702,-0.226449,0.240482,0.0535892,0.435403,-0.550256,0.712491
-3.13327,-1.86291,2.67285,1.93059,1.8792,-2.07855,-0.110219,-0.110071,0.299209,0.201411,0.46497,0.862112
1.1007,-0.50277,1.2286,0.0499831,0.667765,-1.85442,0.174248,0.583918,-0.033977,-0.0790016,-0.538041,-0.839208
2.20595,-1.07229,1.34911,-2.79843,-0.172098,0.766381,-0.464912,0.446815,0.432265,-0.00434751,0.213842,-0.976859
-0.0274357,-0.133423,0.604949,-1.98837,1.94429,2.43596,0.86785,0.085375,-0.0375871,-0.681741,-0.690282,-0.242365
0.0231963,0.309681,-2.55842,1.30065,0.234572,-2.7333,0.233057,0.114586,0.209945,0.847874,-0.193707,0.493546
-1.63817,-0.658267,2.2208,-3.14167,0.570883,-0.485948,0.0796786,-0.440447,-0.0422967,0.444874,-0.504324,-0.740097
-0.857976,-1.92714,-2.67616,-2.75397,-1.79385,-0.472006,0.0121049,0.152901,0.052437,-0.3343,-0.941464,-0.0434612
0.27446,-1.35196,-0.400654,1.99018,1.68575,-1.69959,-0.0304822,0.104811,0.797816,-0.203852,-0.189951,-0.960397
0.710264,-0.700651,2.44637,-3.14159,1.67514,3.08802,0.194061,0.310852,-0.0395735,0.593854,-0.799168,-0.0931037
1.62671,0.137044,0.0964514,1.40465,-0.190059,-0.994735,-0.148559,0.700978,-0.0532915,0.147498,-0.793713,0.590139
2.72341,-0.864896,-1.4994,-0.0523792,-0.927382,0.635271,-0.0981194,-0.0758388,0.758554,0.290757,0.575484,-0.764381
1.75387,-0.507119,1.39909,-1.8839,-3.12268,2.70788,-0.234219,0.66551,-0.0615083,0.137521,-0.837066,-0.529536
0.230052,-0.147824,0.702589,1.18317,-0.715228,-0.398273,0.618167,0.256877,-0.0391133,-0.121796,-0.649342,0.75068
0.455686,0.310075,-1.40157,2.22379,-3.03307,1.64907,0.400879,0.318019,0.267342,0.777147,0.390302,0.493667
-0.553328,-0.62026,1.90508,-2.89368,1.17701,2.32573,0.526198,-0.196735,-0.0365283,-0.960248,-0.150645,0.235012
0.450519,0.309693,-1.44534,-2.34806,0.0241943,2.71768,0.437133,0.332687,0.404494,-0.638934,-0.333544,-0.69319
2.73154,-2.01057,3.10182,0.372369,-1.70716,-2.32659,0.0427559,-0.137603,0.115589,0.401824,-0.915596,0.0148555
-0.917738,0.173775,-0.218293,0.0076636,2.54046,1.27688,0.58126,-0.58014,-0.0614534,0.253778,-0.0620598,0.96527
0.0182042,0.30965,-1.55397,1.67282,0.275383,-2.90036,0.489187,0.118074,0.245089,0.755389,-0.250333,-0.605574
-2.63916,0.175588,-0.00212837,1.62679,0.521805,-2.73067,-0.572022,-0.438849,-0.0312546,0.279285,0.674846,-0.683068
-1.46724,-0.626382,-0.20702,-2.66086,-3.01963,1.09453,0.168039,-0.560992,0.717479,-0.0678933,0.113679,-0.991195
0.492617,0.310618,-0.608398,-2.4276,-1.91985,1.01986,0.669043,0.482992,0.160914,-0.215156,-0.673787,-0.706908
1.22826,0.309749,-1.73591,1.98134,2.85639,3.00357,0.0353796,0.424182,0.267331,0.0155466,-0.786094,0.617912
-1.53589,-0.734125,2.89809,2.34675,-1.31133,0.786426,0.11568,-0.185071,0.0675982,-0.705255,0.632955,-0.319349
-2.10064,-1.03165,-2.42029,3.0212,-2.70111,-1.01466,0.152706,0.0447528,0.248077,-0.592742,-0.566646,-0.572337
-1.08956,-0.0178692,-1.29791,2.18868,0.876717,-1.75387,0.305676,-0.349574,0.415495,-0.438125,0.536721,-0.721094
-0.867833,-0.551769,2.74836,-3.14168,-0.0249271,1.81892,0.218317,-0.0888052,-0.06141,-0.41033,0.49371,0.766733
2.14955,0.309437,2.83166,-0.912857,1.3133,-1.20056,-0.0572662,-0.111905,0.0173805,0.0799139,-0.762003,0.642623
0.0749069,-0.735685,2.49592,-3.14162,-0.573416,-0.838342,0.325072,0.133853,-0.0286791,0.649872,-0.31502,-0.691685
0.456255,0.31009,2.83967,-0.711672,1.16471,-1.36217,-0.0918405,0.0765126,0.0348543,-0.595954,-0.0805366,0.79897
2.24312,-0.651827,-1.48271,-1.59162,1.06654,1.0813,-0.132752,-0.00849127,0.757469,-0.743392,0.272874,-0.610662
-1.86803,-0.474566,2.61136,-0.184401,1.40357,2.1429,0.08098,-0.108309,-0.012467,-0.729135,-0.557637,-0.39674
2.95186,-1.27089,-0.332448,-1.32936,0.331024,1.00453,-0.150629,-0.0822174,0.979824,-0.348448,-0.110634,-0.930776
0.220046,0.309662,-1.99874,0.638106,0.239285,1.14962,0.406196,0.2027,0.30214,-0.986646,-0.12139,0.108605
-1.07522,0.309773,-2.75916,0.551375,1.55975,-0.243946,0.187526,-0.117372,0.24037,0.963999,0.257202,0.06748
-0.0459253,-1.73269,0.712099,-3.12722,2.42096,0.226695,0.0615807,0.106435,0.893605,-0.172143,0.651567,-0.738801
-1.34541,0.309718,-0.807954,2.47744,-0.686108,0.68415,0.254441,-0.621328,0.184661,-0.295697,-0.907192,0.299276
2.65489,-0.297236,-1.30994,-0.912735,-1.16228,1.88476,-0.44634,0.112695,0.682564,0.445201,-0.556228,-0.701717
2.17931,-0.401874,1.29222,1.00378,0.86192,0.0894965,-0.402919,0.387383,-0.0194249,-0.786552,-0.193633,0.586381
0.173409,-0.321136,0.921081,-1.54413,0.276952,2.18141,0.772805,0.246183,-0.0536587,-0.308074,-0.213126,0.927183
1.45107,0.310185,-0.793115,0.545107,0.796502,-2.15738,-0.0192377,0.753923,0.0471188,0.432843,0.28487,-0.855275
1.2419,-2.18355,-2.05807,-2.74056,0.0494061,1.26737,-0.220043,-0.306811,0.0148049,-0.286087,-0.792571,0.538504
-2.06236,-0.446838,-0.729446,-0.65029,2.20569,1.94738,-0.199065,-0.603053,0.658873,0.137579,0.884254,-0.446281
-0.681862,-0.0656197,0.537913,1.09835,3.12599,-2.64588,0.595768,-0.343028,-0.0614333,-0.378057,0.289213,0.879448
2.36388,-0.523028,1.6207,0.853187,1.53381,1.59209,-0.403648,0.244301,-0.012599,-0.646389,0.666389,-0.371628
-2.21623,-1.07098,-2.58057,-2.47564,-1.05953,-2.98176,0.179446,0.0568499,0.177194,0.415633,-0.879376,-0.232266
0.48476,-1.19842,-0.595371,0.196433,1.86658,-2.3013,0.0929125,0.172298,0.870083,0.960793,-0.215354,-0.174642
1.30559,0.309859,-2.17484,-2.82414,-2.12623,1.39522,-0.0538566,0.218141,0.337166,0.400672,0.908977,-0.114989
-1.3316,-0.575461,1.76016,1.95627,-0.0825296,-2.03456,0.2255,-0.463987,0.051728,-0.0699251,0.442375,0.8941
0.173297,-2.37065,-1.68114,1.32523,0.637952,-1.90648,-0.518571,0.0200323,0.162186,0.170302,-0.169355,0.97073
-1.91345,-2.30075,-2.94867,-1.28137,1.01614,0.905695,0.122808,0.0194022,-0.0229249,0.664786,0.302157,0.683199
1.58863,0.0953791,-0.0282101,-1.01566,-2.56081,-0.153425,-0.125026,0.889252,-0.0328153,0.53135,0.615353,0.582244
0.326052,0.309681,-1.28059,-0.474947,1.16777,-2.41233,0.647238,0.334064,0.271605,0.880523,-0.426348,0.20714
1.1581,-1.19836,2.44068,-2.46623,-0.0494473,-0.796866,0.0484947,0.3829,0.0815644,0.206211,0.384838,-0.899654
1.83529,-0.593645,2.39719,-0.0520559,-1.46099,-2.17933,-0.149456,0.134303,-0.0377655,-0.334523,-0.938471,0.0858249
0.388054,-0.485934,1.46062,2.51524,-2.94136,-0.873249,0.540309,0.338786,0.0520165,-0.257211,-0.243164,0.935261
-0.0156127,-0.313372,2.71322,1.82744,-1.37874,-1.20312,0.200509,0.106033,-0.000685714,0.851885,-0.36618,0.374438
-2.78701,-0.17819,0.520171,-0.312431,2.43016,2.82252,-0.69828,-0.374912,-0.0616618,0.450221,0.827776,0.334795
-1.41599,0.173058,0.0244695,1.39873,3.08444,-1.79255,0.217115,-0.68335,-0.0585914,-0.161921,0.956073,0.24435
-0.982382,-0.611672,2.18604,-3.14175,0.0720316,-1.0577,0.335672,-0.306408,-0.0593615,0.512023,-0.703702,-0.492581
-1.11986,-0.598656,2.35182,2.83243,2.67312,-2.7982,0.261164,-0.288904,-0.0451154,-0.190803,-0.581517,-0.790843
1.80614,0.208562,-0.0662942,1.61284,-1.74097,0.749402,-0.271935,0.66598,-0.0371089,0.550783,0.797348,-0.246726
0.447305,-0.642664,1.55661,-0.900888,1.30702,-2.6364,0.47437,0.348632,-0.0613979,0.565412,-0.665753,-0.486911
1.94844,-0.729323,2.27668,-3.14162,-1.56412,0.720357,-0.256588,0.350815,-0.0175577,0.941721,-0.335769,-0.0204893
-0.539106,0.309822,-2.73872,-1.72363,-0.0427872,2.64867,0.0798801,0.0794041,0.266328,-0.0376838,0.0664529,-0.997078
-1.13235,-0.5324,1.61649,1.07792,0.982804,-1.949,0.298805,-0.38016,0.0109443,-0.654212,0.671535,0.347918
-1.18828,-0.618757,2.09467,3.0568,-0.385048,-2.04205,0.279114,-0.401316,-0.0379021,0.45735,-0.679891,0.573219
1.51927,-0.986403,-0.511167,0.955192,2.09315,-0.893793,-0.0929364,0.31723,0.753762,-0.507696,0.6971,-0.506258
-0.710646,-1.66381,0.545775,-3.14159,-0.97483,-0.317856,0.10683,0.0520656,0.906454,-0.549047,-0.56468,0.616185
0.402998,0.309751,-1.08835,1.55002,2.18993,-1.77929,0.525713,0.342784,0.167224,-0.640522,-0.456318,-0.617661
-0.830961,0.132424,2.77115,-1.26124,-0.239616,2.17413,0.0439949,0.113705,-0.0526739,0.626618,-0.486749,-0.608625
2.09666,0.309709,-1.794,1.21243,-1.33287,1.07844,-0.327354,0.346593,0.259236,0.569966,-0.066884,0.818941
0.669423,-0.477767,1.53718,-2.74382,0.413114,2.272,0.452502,0.497262,-0.0467657,-0.487113,-0.71574,0.500436
0.473023,-0.561954,1.67626,1.40923,2.59926,-2.02259,0.37552,0.314795,0.0406708,-0.0901183,-0.299251,0.949909
-0.182304,-0.168607,0.624518,0.822823,-2.35984,1.31961,0.689028,-0.016034,-0.0394746,0.930428,-0.349588,0.109968
-1.96621,-1.20417,-2.33614,-1.43254,1.35995,-0.304107,0.216512,0.235353,0.309253,0.992253,-0.0449038,0.115835
1.66691,-1.34109,-1.96051,1.15505,2.70058,-0.0950622,-0.0883909,-0.220578,0.492036,-0.383573,-0.449405,0.806788
-2.32907,-1.85125,-1.66858,2.63216,-3.10572,-0.937496,0.36033,0.221703,0.292957,-0.702061,-0.710352,-0.0500996
-0.0475138,0.309654,-1.07217,-1.74444,-1.30607,0.122864,0.748885,0.0736642,0.306812,0.0907989,-0.963288,-0.252648
-2.9327,0.309695,-2.87126,-0.631727,-1.63432,2.85195,-0.0475974,-0.121665,0.269127,0.124462,-0.951283,-0.282082
0.631098,-1.04452,2.87493,-3.09744,1.36361,-0.0907087,0.099582,0.207965,0.0492328,-0.554726,0.80171,-0.222577
-0.427659,-0.488641,1.38536,0.721648,2.09225,2.98783,0.523492,-0.11865,-0.0132916,-0.194872,-0.852855,0.484421
-1.21188,-0.0273099,0.227417,-1.38884,-1.73248,-1.47707,0.417309,-0.801584,-0.0124936,0.239994,-0.902663,-0.357216
0.741984,0.309741,-1.14496,2.86117,1.10107,-2.0693,0.355964,0.474398,0.292054,-0.363542,-0.911636,0.191721
1.83003,-0.0743712,-2.09719,-2.30646,-2.49333,1.73894,-0.133709,0.0783771,0.466286,-0.351433,0.930943,-0.099197
0.534157,0.240026,-1.40296,-0.493466,-0.141824,1.51377,0.514819,0.431339,0.356291,-0.847899,-0.510905,-0.141576
2.82245,-1.83983,-0.91954,2.96605,-2.25178,1.42643,0.437026,-0.259364,0.552537,-0.24192,0.197657,0.949951
1.10842,-0.608404,2.00699,-3.1416,2.35872,2.31389,0.129455,0.504426,-0.0381555,0.140132,-0.788607,-0.598717
-2.04916,0.309937,-2.1189,-0.106993,0.51126,1.75069,-0.0878205,-0.406478,0.372737,0.372775,0.909079,-0.186049
-0.159505,0.309941,3.06935,0.831835,-2.49638,-0.935447,0.122518,0.0908438,0.0973761,0.415243,-0.428274,0.802592
2.26811,-1.4893,0.0566136,2.05163,1.62464,2.9805,-0.105302,-0.044271,0.824172,0.723571,0.671101,0.161458
0.421916,-0.925852,2.42308,-1.38633,0.977265,1.78859,0.205134,0.211721,-0.056467,0.281505,-0.0699796,0.957005
1.12317,-0.803282,-3.0951,-2.27141,-0.178772,-2.30513,-0.0987411,0.0465247,0.0316494,0.139804,0.566483,-0.812128
0.00741424,0.309975,-1.84408,2.24003,1.04952,2.05105,0.356912,0.111799,0.279476,0.753391,-0.395068,0.525665
-1.09235,0.309524,2.82714,-0.987599,-0.870574,0.0494707,0.0661835,0.109466,0.00950086,-0.496978,-0.700672,0.511929
-1.88841,-1.64232,2.26194,-0.279258,-2.84875,2.41246,0.0233155,-0.278577,0.196061,0.345252,0.360863,0.86636
0.381021,0.31027,3.01854,3.14172,-0.288456,-0.144373,-0.0390275,0.101948,-0.0605843,-0.785453,-0.617911,0.0353446
-1.06287,-1.99578,-0.714277,-3.1417,0.673378,0.135676,-0.182391,0.55209,0.55444,0.225215,0.865848,0.446751
-0.372938,0.210796,2.82684,1.01571,0.651585,1.192,0.133164,0.0651066,0.017488,-0.434653,0.410875,-0.80141
0.765218,-0.172369,0.493335,-0.0893061,-1.76738,0.0524721,0.479156,0.611535,-0.053816,0.824022,-0.566523,0.00626445
-1.82866,0.309308,2.8419,-0.56178,-0.543347,-2.04096,0.114989,0.00798776,0.0441435,0.429923,0.711672,0.555599
0.244256,0.309593,2.8332,0.131119,0.995377,-2.08229,-0.00210713,0.111964,0.0539666,-0.0452601,-0.434499,0.899535
1.66418,-0.63961,2.13041,-3.14159,2.49937,-3.0094,-0.152191,0.45447,-0.0405981,0.573,0.249334,-0.780707
-0.189517,-0.709652,2.61045,2.33767,-1.77601,-0.148931,0.295068,0.0545402,0.0381879,-0.143051,-0.958391,0.24703
-1.34816,0.0111678,0.327158,-2.00977,1.9404,-2.62632,0.302785,-0.843112,-0.0362682,-0.676141,-0.688141,-0.263239
2.26056,-1.39624,0.907052,-1.53028,1.22765,1.52174,-0.405772,0.320354,0.73308,0.532507,-0.718072,-0.448117
-0.49641,0.310002,-2.52571,1.23433,0.421629,-1.04676,0.269724,-0.0219628,0.220362,0.507213,-0.041843,-0.860804
0.528202,0.310078,-0.535854,-1.43639,-0.0196937,2.59923,0.706167,0.538424,0.0559238,-0.519944,-0.283862,0.805655
2.01272,0.037969,0.310038,1.21587,0.0163975,3.10674,-0.397517,0.58497,-0.0613963,-0.00304736,0.0447567,-0.998993
0.767722,-0.641536,2.22325,0.337583,2.15645,2.81631,0.102097,0.250254,-0.0164146,0.893209,-0.235331,0.383141
-0.913553,-0.395996,1.17107,-2.43277,-1.80149,1.87787,0.554764,-0.540228,-0.0131781,-0.343532,0.926827,-0.15158
2.81671,0.221972,-0.288725,-1.03496,-2.27073,1.16207,-0.878638,0.180768,-0.0210305,0.763044,0.0637696,0.643193
2.07961,0.310187,-1.16981,-1.61991,2.85319,-3.10773,-0.445545,0.574689,0.331254,-0.130037,0.816638,-0.56231
2.5146,-1.28001,-0.775062,0.452575,0.0743831,-0.569039,-0.0914394,-0.0685377,0.846463,-0.494409,0.280897,-0.822591
-1.54626,-2.27985,2.02362,1.59116,-2.91289,-1.2795,0.109379,-0.00801019,0.489017,-0.0863347,0.864131,-0.495806
-2.3491,-1.9065,-2.79783,0.46548,-2.181,2.99447,0.237381,0.0853055,0.141363,0.304203,-0.846141,0.437614
1.2099,0.310125,-1.18323,2.01394,-1.67593,-0.877634,0.0993976,0.57247,0.220598,0.357481,-0.852403,-0.381597
2.38062,-0.879893,-2.21877,0.80297,0.889093,1.96067,-0.0389115,-0.11367,0.496288,0.819927,-0.373288,-0.434023
-2.14108,0.309856,-1.09264,-0.944894,-1.89174,2.46363,-0.327241,-0.712406,0.250993,0.935848,0.0901436,-0.340679
-1.93885,-0.210785,0.867026,0.910857,0.0151659,-0.66935,-0.12545,-0.628686,-0.0615981,0.235383,0.577346,0.781835
-0.784669,-0.640625,1.98527,2.63223,2.43419,0.494762,0.430135,-0.275259,0.0244262,-0.162611,0.970613,0.177392
-0.302076,-0.513507,1.27443,-1.80538,-2.19437,2.92091,0.735237,-0.114782,-0.0201064,-0.218326,0.897708,-0.382694
0.763348,-1.42076,2.20816,0.599306,-0.932355,0.769269,0.103207,0.249821,0.214141,0.836321,0.00176742,0.548237
0.732392,-0.116512,0.596466,2.66962,-2.27576,-2.51092,0.50017,0.596561,0.052095,-0.0186663,0.810463,0.585492
2.62109,-1.33249,0.43107,-2.40387,0.328989,1.60552,-0.339093,0.0685656,0.90314,-0.107606,0.0746107,-0.99139
2.38129,0.310047,-1.54486,3.14159,-0.65514,-0.682478,-0.397463,0.227371,0.361014,0.610293,0.0720675,0.788891
-1.49164,-0.339581,2.7289,-0.621347,2.29938,2.11846,0.11051,-0.0128189,-0.0187581,-0.315713,-0.933003,0.172712
2.5204,-1.49231,2.30376,1.44051,-2.8125,1.90277,-0.250426,0.0450063,0.287957,-0.816456,0.454817,-0.355727
0.886516,0.309885,-0.860872,1.72669,-0.0693832,1.03673,0.327308,0.573903,0.12848,0.40597,0.441827,0.799986
-0.628518,-1.2144,-2.80434,2.8443,-2.7529,-0.858149,0.0518883,0.0972215,0.149303,0.607854,-0.748151,0.266052
-2.57725,-1.99061,2.19419,-1.28876,0.390354,-1.67538,-0.190566,-0.249813,0.353772,-0.802489,-0.46098,-0.378825
-0.668479,-0.505827,1.64345,-2.70311,-3.12636,1.32911,0.562897,-0.30548,-0.0614384,-0.763209,0.598122,0.244465
1.07574,-0.383767,1.26302,0.902408,-0.491683,2.62243,0.166048,0.537303,-0.0340381,-0.206304,0.48069,-0.852277
0.691281,-0.617195,0.721696,1.48444,-2.11164,-0.29995,0.42508,0.493425,0.295929,0.287655,-0.825011,-0.486428
-2.30593,0.309838,2.78082,1.58391,0.131891,-1.61706,0.00879241,-0.15302,-0.0568156,-0.67284,-0.735052,0.0835801
2.71379,-1.56456,1.8394,-1.70931,1.01763,-1.70366,-0.476521,0.0973179,0.394833,-0.855335,0.513885,-0.0657599
-0.8057,0.311115,2.84117,0.56595,-0.0822117,1.99438,0.12304,0.0294526,0.0425971,-0.557741,0.629595,-0.540865
-0.0600548,-1.04527,2.87277,-0.161544,0.816492,2.8717,0.0259136,0.107789,0.0864059,0.160197,-0.713267,-0.68234
0.589892,-0.654403,2.45831,-3.14164,0.170061,0.123388,0.220726,0.279101,-0.0556503,-0.380658,-0.0526997,-0.923213
-0.432034,-2.34426,-2.4004,-2.87977,2.99947,1.83894,-0.128737,0.179553,-0.0203381,-0.922602,0.384072,-0.035984
0.442432,-0.176211,0.515191,-0.573181,2.7109,-2.85374,0.685559,0.445566,-0.0588372,-0.534968,-0.696422,-0.478337
-0.974278,0.309815,-2.94465,2.40355,-0.127444,-1.61304,0.137212,-0.00777055,0.0578315,0.156003,-0.220187,-0.962902
0.253547,-1.26068,-0.824828,-0.352839,-1.43417,-1.72398,-0.0295045,0.10511,0.907508,0.565424,0.302671,0.767259
-3.07058,0.310027,-1.61226,2.90083,-1.31364,1.49202,-0.405417,-0.138263,0.340318,-0.999957,0.00517737,-0.00769501
2.73731,0.309924,-2.51074,-0.48218,2.94158,-1.82261,-0.241111,-0.0155615,0.361354,-0.576003,0.300285,0.760296
0.434524,-0.606225,2.00119,3.14113,1.63206,2.84824,0.417621,0.314154,-0.0382917,0.153332,-0.982209,-0.108417
-2.23964,-2.14205,-2.20288,1.01331,-2.68692,0.380569,0.326586,0.237179,0.173563,0.144513,0.84042,-0.522312
1.39752,-2.33959,-0.181814,-2.69084,-0.502501,0.0480525,-0.227817,-0.66849,0.577236,0.40879,-0.454693,0.791293
0.661902,-0.620989,2.59712,-3.14166,-0.00549446,0.623856,0.152178,0.256941,-0.0613423,-0.673158,-0.530149,-0.515557
-2.87032,0.309706,-2.97605,3.01395,-0.875482,2.35409,0.00635977,-0.111524,0.0501162,-0.496827,-0.700558,0.512232
-0.416262,-1.51488,3.09397,-2.14398,1.48985,-1.53538,0.109226,0.0710527,0.0413126,0.501366,-0.18306,-0.845648
-2.18267,0.309783,-1.77765,-2.20221,1.58849,1.85108,-0.138892,-0.387955,0.431508,-0.50716,-0.241226,-0.827405
0.617829,-0.635804,2.11852,2.88966,-2.21187,-0.929184,0.316374,0.358731,-0.0176296,0.796199,-0.022634,0.604611
-1.43906,0.309835,-2.85333,-0.153109,-0.890136,-1.78967,0.124144,-0.105957,0.265873,0.206274,-0.272106,0.939899
1.72858,0.0802872,0.20042,1.50249,3.04057,-0.0480094,-0.219044,0.682059,-0.0336406,-0.0591984,-0.269048,-0.961306
-0.114724,-0.760437,-2.55568,-0.0502902,1.39811,2.79521,-0.0863155,0.119818,0.406243,-0.187408,-0.911152,-0.366988
0.407487,0.309411,2.83429,-0.856262,1.28587,-0.250445,-0.0972405,0.0769107,0.0227469,-0.375804,0.850446,0.368122
2.16396,-0.420494,-1.73124,2.0514,-3.05206,2.36738,-0.192345,0.0900512,0.496375,0.382198,-0.681298,0.624306
0.559139,-0.600283,2.05421,-3.05945,-3.14139,-1.63963,0.358355,0.352999,-0.057056,0.847212,0.53016,-0.0340971
-0.898651,-0.639809,2.42527,-3.14175,0.039011,-2.26108,0.303256,-0.205799,-0.0604925,0.534013,-0.710963,0.457561
0.185959,0.309663,-2.19425,1.34633,-2.90809,-0.931012,0.306324,0.168694,0.251475,0.919802,0.0324782,-0.391036
-2.49342,-0.318546,0.822629,0.394706,2.31768,2.37784,-0.47062,-0.493328,-0.0261206,-0.507941,0.280148,0.814563
0.498536,0.309701,2.79453,-1.35582,-2.37623,2.25009,-0.122765,0.0574429,-0.0382991,0.534764,0.78669,0.308457
0.482638,-0.517245,1.59163,1.85207,-1.87948,1.04327,0.424131,0.345457,0.0468798,0.253637,-0.408556,-0.876784
0.53239,-0.764296,-2.37662,3.14159,-3.1242,-2.75913,-0.129087,0.0506343,0.288887,-0.807631,-0.457076,-0.372578
2.12061,0.079889,0.0675949,0.765985,-3.07811,1.78356,-0.478017,0.571098,-0.0602302,-0.348463,0.542952,0.764053
0.782397,0.309745,-0.32349,1.72896,-2.13641,-1.77796,0.421866,0.573242,-0.0213747,-0.798006,-0.548383,0.249927
0.929275,0.239251,-0.347512,-0.162312,0.185283,0.830878,0.408126,0.728816,-0.0603792,-0.599774,-0.595441,0.534529
-3.12949,-0.659751,2.11175,1.8215,0.643579,0.29423,-0.3934,-0.113919,0.0539925,-0.713782,-0.582956,-0.388174
-1.60323,0.309626,2.7794,1.6314,-0.0122165,0.0721297,0.1056,-0.111211,-0.0617108,-0.00958151,0.0804349,-0.996714
1.00382,-0.720584,2.8765,-1.42441,0.952165,-2.3022,-0.0708634,0.0919312,-0.0278481,0.346795,-0.468458,-0.812577
1.97248,-0.122492,0.594452,2.99098,-2.90603,-1.36786,-0.413661,0.694641,0.0525628,-0.00495623,0.131984,0.99124
0.56564,-0.627078,2.14824,0.272156,0.497366,0.6156,0.170534,0.237548,-0.0323378,0.400402,0.71558,0.572385
-0.4052,0.153066,0.0352295,-2.10582,-0.321835,1.28805,0.86497,-0.25225,-0.0168989,-0.78214,0.239463,-0.575252
1.0282,0.309752,-0.747871,0.740952,-1.14336,-1.27962,0.284376,0.683009,0.0356733,0.0175619,-0.476816,-0.878828
-2.24139,-1.95125,0.448876,-2.22454,-2.16099,-1.61743,0.199424,0.0757717,0.953996,0.359868,0.391351,0.846959
-0.361088,-0.596847,2.29151,-0.125938,0.0158898,2.16773,0.233533,0.0284815,-0.0614161,0.771662,-0.300962,-0.560321
0.882184,0.115246,-0.0850539,-0.716066,0.915893,0.189142,0.471246,0.744355,-0.0447996,-0.971315,0.0456088,-0.233383
-0.466534,0.309612,-2.89464,-2.35621,-1.42962,-2.89486,0.0308396,0.106679,0.14541,0.247032,0.950537,-0.188293
-0.561887,-0.658696,2.09946,-3.14166,-2.55074,-2.24445,0.46503,-0.163794,-0.0273635,0.89783,-0.154592,-0.412313
-0.107513,0.310001,-2.26414,-0.771925,0.994684,2.84252,0.306239,0.0767318,0.409884,-0.677775,-0.732864,-0.0594186
-1.8294,-1.58742,0.751773,2.53983,1.16576,-2.46154,0.0640387,-0.184727,0.817632,-0.521057,0.824672,-0.220034
-1.57848,-0.615251,1.98111,3.01876,-2.73866,-2.97352,0.105176,-0.517326,-0.0191178,0.383123,-0.453309,-0.804815
-2.55166,-1.5034,0.410204,-2.32749,2.31978,0.310777,-0.0912165,-0.192417,0.95254,0.835765,-0.279618,-0.472557
1.94228,-1.20758,0.808315,1.3536,2.16659,-1.18774,-0.259672,0.365863,0.584191,-0.0575539,-0.704488,-0.707378
-2.80273,-0.352686,-1.28123,-0.397385,2.15592,0.129683,-0.396508,-0.255484,0.669494,0.613592,-0.660223,0.433139
1.41039,-0.355828,1.08039,0.84296,2.43845,-1.48909,-0.0123241,0.607205,-0.0230806,-0.211249,-0.975234,-0.0655202
-1.86119,0.107285,-0.612792,-1.40499,2.42006,-0.755309,-0.14023,-0.850444,0.265135,0.327861,-0.582469,0.743799
1.30624,0.310135,-0.505047,-2.60373,0.365642,0.683027,0.109417,0.821339,0.124564,-0.144802,0.526142,-0.837978
-1.11487,-1.89326,-0.690149,1.80749,2.87965,-0.0644264,-0.0786055,0.408192,0.63245,0.554804,-0.544428,0.629119
-1.91162,-0.290018,0.982392,1.58461,-1.37893,-1.82543,-0.110107,-0.637001,0.0217185,0.489582,0.640684,0.591468
2.42041,-1.71692,2.11752,1.558,0.506712,2.14216,-0.231054,0.0577984,0.392458,-0.277259,0.593199,-0.755806
0.0877075,-0.442302,-0.877076,-2.10817,0.669834,-0.551068,0.443676,0.148585,0.741792,0.444831,0.570105,0.690729
1.99018,-0.722075,-2.89042,2.86877,0.300006,1.27344,-0.113315,-0.0138865,0.122443,0.268385,-0.814625,0.514155
-1.60733,0.309678,-2.98029,-0.0865335,2.07055,3.08628,0.105763,-0.0946642,0.225367,-0.891217,-0.390523,-0.230704
2.02057,0.299704,3.02914,-3.14167,-2.01353,1.30532,-0.0996204,-0.0447079,-0.0562926,0.0874137,0.364226,0.927199
0.237799,-1.87577,-2.40851,2.33933,1.70509,2.54469,-0.222371,0.0584111,0.172289,-0.27606,-0.91028,-0.308516
-0.621995,-0.500256,1.60121,-2.79581,0.472145,-2.94064,0.587339,-0.286776,-0.0450228,-0.186447,-0.414671,0.890666
-1.31768,-0.779097,2.60712,-0.914833,-2.67496,-1.11205,0.137653,-0.0963036,-0.0494164,-0.310043,0.403103,-0.861035
0.767053,-0.615986,2.39875,0.139774,2.1244,-1.63996,0.0506065,0.200389,-0.0161519,-0.62445,-0.683602,0.377823
-0.831332,-1.52944,2.6651,2.65336,-1.4546,1.40694,0.24238,-0.103767,0.233596,-0.510543,0.319309,-0.798365
1.63669,-0.518319,1.55871,1.29404,-2.49858,-0.918776,-0.141786,0.490972,0.0268128,0.422967,-0.884044,0.198913
-2.90402,-0.351111,1.12151,1.62423,1.04291,-1.02032,-0.573258,-0.251119,0.031613,0.481226,-0.348417,0.80438
-0.881695,-0.602044,2.08644,0.0805431,0.0147231,0.698066,0.268305,-0.15402,-0.0614925,0.414527,-0.485434,0.769754
-1.87137,0.132083,-2.29241,2.42103,-2.82005,1.85697,0.0513129,-0.203121,0.267775,0.0886129,-0.0154397,0.995946
-0.273799,0.309939,-2.32789,2.31438,-0.620346,-1.6834,0.229277,0.04898,0.222697,-0.177591,0.117727,-0.977037
1.37633,0.309689,-0.505371,-0.889013,-1.42158,2.97138,0.0616554,0.877865,-0.00831676,-0.971942,0.108549,0.208676
2.45784,0.309888,-2.3663,0.951166,1.84232,1.63734,-0.306358,0.108847,0.263966,0.737844,-0.518627,0.431987
1.57413,0.31033,-0.666569,-1.03307,1.01363,-2.1641,-0.112038,0.865048,0.0790899,0.471641,0.870421,0.141147
2.22481,-0.594791,2.0042,-3.03439,2.96065,-2.16293,-0.396627,0.338,-0.0547254,-0.442439,0.742267,-0.503276
-1.1163,-0.363242,1.17285,0.593229,-0.060851,-1.76647,0.350289,-0.468278,-0.0596529,-0.399704,0.844973,-0.355327
1.08642,0.30995,2.81311,-1.16842,2.69557,2.94427,-0.13161,-0.0157197,-0.0122952,0.61327,0.257074,0.746869
-0.593431,0.309744,-1.95874,2.05921,-2.36965,1.169,0.339911,-0.097622,0.263867,0.364789,-0.575106,0.732244
-0.680036,0.309872,-2.64785,-2.0355,3.0268,-0.908808,0.102249,0.0576861,0.273398,-0.692004,0.650186,-0.313669
1.92523,0.0607651,-0.383025,1.67242,-3.06371,-2.82244,-0.346668,0.622283,0.166865,0.108868,-0.507058,0.855009
-2.90745,-0.0674395,-2.76245,1.90011,-1.22543,-3.0503,-0.0977691,-0.135531,0.181491,-0.0497846,-0.975192,0.215692
-0.766766,-2.09433,2.78515,-0.224196,-0.0566493,1.79615,0.109765,0.0458151,0.122774,0.468047,-0.433354,0.770153
0.765867,0.0783172,-0.0304724,0.444629,-1.42739,0.3354,0.479882,0.612926,-0.0462542,0.674279,-0.648187,0.353838
1.34902,0.310183,-0.798337,0.458242,-1.88857,0.617993,0.0593734,0.759527,0.0487913,0.807454,0.0611019,0.586758
0.358,0.309698,-1.00001,0.0891642,1.64153,-2.01804,0.674279,0.368801,0.13135,0.60518,-0.234193,-0.760862
1.36681,-0.406658,1.3273,-2.66589,2.38948,-0.579908,0.0391679,0.728149,-0.0385348,-0.471802,0.540387,0.696696
1.97322,0.310046,-1.84275,0.561909,-2.16867,-0.429227,-0.295392,0.415276,0.298012,0.443803,0.876301,0.187442
-0.996436,-0.48004,2.91017,-3.14166,1.92711,1.46869,0.168609,-0.0596428,-0.0423707,-0.258092,0.57465,0.776638
2.04001,0.309762,-1.7232,-2.20243,2.67094,-2.04661,-0.288636,0.327941,0.431212,0.204605,0.0557844,0.977254
2.08247,-2.16701,1.26881,1.33094,-2.54939,-3.02029,-0.0785435,-0.0830534,0.661729,-0.0921816,-0.967484,0.235535
0.35503,-0.828614,2.05466,-1.24102,-0.944116,0.592967,0.357026,0.248773,-0.0614278,-0.23031,-0.801765,0.55148
1.22819,-0.525844,1.68279,0.546112,-0.495967,-1.7297,0.042153,0.443088,-0.0441691,-0.405905,-0.913882,-0.0077347
-0.594377,0.3092,2.78097,1.58362,0.132639,1.87608,0.150347,0.0301231,-0.0566767,-0.821386,0.507208,0.260892
-2.66351,-0.208817,0.824351,1.09792,-1.13804,1.58437,-0.520101,-0.392436,-0.0357629,-0.87239,-0.46593,-0.1478
-1.32698,-0.331482,0.995856,-1.71678,-3.12427,0.263247,0.297331,-0.743098,-0.0612722,0.0446743,-0.248888,0.967501
-0.637323,-1.30429,-0.736468,1.7606,1.83597,-1.65343,0.0331811,0.111244,0.75792,0.15736,-0.215616,-0.963715
1.64682,-0.566489,1.36003,-0.581086,-1.76617,0.795324,-0.155451,0.603684,-0.0548893,0.663224,0.334766,0.669377
0.86268,-0.60516,2.13151,-3.09219,-3.12295,1.54285,0.217319,0.42162,-0.0613925,-0.649657,-0.759516,0.0328856
0.765461,-0.616753,2.0309,0.40269,-1.9266,1.39057,0.152296,0.297715,-0.029419,0.793474,0.529423,-0.300185
-0.425148,0.309817,-0.96387,-1.56828,1.73397,0.615473,0.7659,-0.226954,0.255628,-0.159185,0.956458,-0.24464
1.05384,-0.55385,1.71419,3.14161,0.868335,-1.73749,0.204015,0.579691,-0.00920863,0.535859,0.686304,0.491775
0.540571,0.309814,-1.76873,1.23617,-2.04732,0.499202,0.346359,0.335188,0.25707,0.647576,-0.521213,0.555862
-3.14159,-0.338737,-1.40999,0.395754,-2.49735,0.562966,-0.423836,-0.10915,0.595988,0.374965,0.507906,0.775521
-0.426435,0.309897,-2.46645,0.0839835,-0.834247,0.892557,0.291777,-0.0126719,0.331935,-0.62924,-0.224635,-0.74404
0.501968,-0.527927,1.48384,-2.29221,1.5151,-1.10458,0.548391,0.4255,-0.0391499,0.540605,0.808683,-0.231902
-0.291236,-1.88275,-1.93649,3.14159,-3.00438,0.365933,-0.329477,0.212712,0.173982,0.438713,-0.264847,0.858712
-1.03642,-0.0976016,2.7673,-0.716165,1.53959,-1.08931,0.0866988,0.0678146,-0.0123859,-0.0176506,0.938655,0.344405
0.442278,0.309697,-2.31989,2.45238,0.174097,-2.04914,0.131706,0.183142,0.229074,0.0611178,-0.0592797,-0.996369
-1.81244,-1.12185,-0.299994,-2.655,-0.569039,-1.12346,0.0661373,-0.187777,0.916136,-0.104441,0.550234,0.828453
0.936825,0.309842,-0.710019,-0.842513,0.312987,-1.56551,0.418887,0.754014,0.0818852,0.55847,0.762349,-0.32701
0.299678,0.229493,-0.718567,1.93089,1.74103,-3.12561,0.604343,0.300973,0.164586,0.254948,-0.952612,0.165926
3.12001,0.0313136,-3.05892,-2.30095,0.228417,0.0676611,0.0397909,-0.110034,0.0657694,0.501441,-0.236796,0.832156
0.972092,-0.224205,0.872114,-2.44351,2.12801,-0.561663,0.371621,0.738385,-0.0319816,-0.357024,0.751305,0.555045
-0.689262,-0.388326,2.70701,0.501224,2.97142,-0.565015,0.144014,0.0227566,0.0523063,-0.649089,0.72025,0.244791
2.49509,-0.611826,-1.05079,2.35057,-0.0726197,-0.602917,-0.266769,0.0645848,0.650739,0.829974,-0.551508,0.083553
2.72533,0.309953,-2.7025,2.26408,-2.67249,0.0271677,-0.16268,-0.0474212,0.132757,-0.622873,0.76948,0.141175
0.662092,-0.194363,0.789044,1.32983,2.13142,-2.8438,0.448018,0.487604,-0.0157268,0.419522,-0.699546,0.578478
-0.184583,-1.03484,-2.42176,-3.14162,-0.360118,0.934534,-0.104408,0.13053,0.243046,-0.803145,-0.063049,0.592438
-1.68509,-0.0545882,0.443408,-3.02717,-1.29129,-0.828342,0.013444,-0.839999,0.0465624,-0.704778,-0.441248,0.555507
-0.0324105,-0.634833,2.07922,-3.14159,2.02257,-1.91428,0.488827,0.0933586,-0.0359849,0.94229,-0.333695,-0.0271394
-1.41114,0.309969,-1.60838,-2.4944,1.40471,-2.8019,0.179765,-0.429785,0.41259,-0.969876,0.173964,0.170518
1.06656,-1.67634,-2.76195,-1.85119,1.76412,1.41321,-0.168207,-0.0789062,0.03954,-0.123274,0.0953693,0.987779
0.742641,0.309791,-1.24209,2.58206,1.32505,-2.62951,0.327085,0.448409,0.282034,0.199613,-0.964525,-0.172763
1.67101,-0.166194,0.729933,-2.28514,1.09795,-2.85746,-0.193065,0.829122,-0.0359315,0.829125,0.295998,0.474275
-1.99669,0.30017,-1.92221,0.989332,2.40221,2.26555,-0.0831546,-0.447496,0.278901,-0.0475755,0.939298,0.339789
2.86485,0.309709,-2.96018,-0.154417,-0.66579,2.50902,-0.116553,-0.0803626,0.233953,0.627653,-0.696142,-0.34848
-0.548913,-1.49528,-2.29779,3.14141,-2.60046,-0.443426,-0.132813,0.209176,0.199846,0.504357,-0.853885,0.128471
-2.62548,0.309723,-0.498223,-0.855401,-1.31391,2.48988,-0.704457,-0.525215,-0.0144717,0.74713,-0.46019,0.479606
-0.433813,0.0770059,-0.0317452,0.279932,-1.70162,-1.28951,0.758481,-0.231069,-0.0509729,-0.363053,-0.135138,-0.921917
-1.45761,0.217196,2.82995,-0.763072,-0.710324,0.958872,0.103136,0.0590902,0.022516,-0.270086,-0.940487,-0.206245
-0.24922,-2.32297,3.08362,-0.216573,1.57455,-2.10302,-0.0265954,0.119399,0.0480995,-0.558986,-0.381352,-0.736278
-1.05145,-0.458529,1.22135,-1.58349,2.99665,-1.13683,0.459003,-0.582955,-0.0582811,0.522948,-0.792361,-0.314149
-2.19963,0.311036,3.02237,2.39182,-2.69306,2.18813,0.0472953,-0.12054,-0.046428,0.717222,0.559352,0.415593
1.14002,-2.39397,-2.33773,-2.74583,0.361135,-2.88931,-0.1894,-0.150743,-0.048858,0.546889,0.37065,0.750687
0.77137,-0.392287,1.22244,-2.41812,2.07023,1.65018,0.463081,0.602508,-0.036231,-0.665598,-0.744274,-0.055087
1.04474,0.309792,-2.8872,2.50762,-1.98099,-0.968016,-0.0542682,0.123912,0.0749215,0.591701,-0.0163398,-0.805992
-2.35212,-0.734824,1.55894,-1.771,2.41595,-0.651866,-0.386277,-0.544435,0.0309149,-0.216848,-0.967749,0.128212
0.005712,0.309677,-1.4989,0.55705,2.43498,-1.35248,0.606146,0.112614,0.24732,0.708949,0.144673,-0.690261
1.69123,-0.718047,1.69976,-0.80287,1.26298,-2.46085,-0.170973,0.504271,-0.0505046,0.720832,0.207833,-0.661216
-1.77613,-0.237527,-2.14013,-0.72838,2.1833,1.96691,0.0797017,-0.152638,0.555098,-0.347573,-0.120552,-0.929871
-1.19871,0.309753,-0.821468,-1.90583,-0.72894,2.9621,0.395975,-0.714403,0.222588,0.367657,0.860601,0.352413
-0.553203,-0.976782,-2.12254,2.57081,-2.96887,-1.55946,-0.033099,0.148723,0.376196,0.436187,-0.271644,-0.857876
-1.17398,-0.346457,1.06882,0.99092,1.28309,-1.72486,0.332689,-0.511509,-0.0124237,-0.516132,0.850973,0.0972204
-0.972076,0.309808,-0.897052,1.5041,-2.90919,-1.60767,0.459978,-0.480528,0.119343,-0.452294,0.677999,-0.579438
0.635974,-0.508081,1.61577,-2.85253,0.737894,-1.04296,0.449855,0.467805,-0.0386211,0.535163,0.816288,-0.217426
-1.27146,0.310298,2.82514,0.00504224,-1.74344,0.0864183,0.10794,0.0203813,0.0516247,-0.988255,-0.125976,-0.0865008
-1.35946,-0.567532,1.76567,0.757146,-2.09062,2.20474,0.193448,-0.381354,-0.0122064,0.682466,-0.730324,-0.02946
0.557517,-0.969169,2.6035,-0.904993,1.64028,-2.89925,0.0717139,0.173341,-0.0224953,0.334034,-0.932985,-0.134017
-1.62963,-0.137106,0.423422,-0.0487382,-0.821816,-2.21369,0.0633938,-0.780095,-0.0555238,0.426062,-0.233828,-0.873954
-1.01712,-0.60555,2.27296,2.97444,0.231475,-1.14602,0.306329,-0.287953,-0.0526749,0.573186,-0.747409,-0.335912
0.430442,-0.671725,-1.94662,1.78939,2.79734,0.0208161,0.0114168,0.125348,0.485708,0.423128,0.56557,0.70788
2.24225,0.188603,3.02227,-3.14165,1.49533,1.56988,-0.0976542,-0.0525533,-0.057792,-0.0437052,0.0535253,0.99761
2.05715,-0.573024,2.7177,-3.14159,0.00872906,-0.145213,-0.201028,0.1467,-0.061214,0.186635,-0.37148,-0.909489
1.02191,-0.00143042,3.02822,0.0705667,-3.04277,2.95839,-0.076866,0.083519,0.139393,0.43145,0.891406,-0.138731
-2.37007,0.309796,2.84081,0.369014,1.10401,0.394926,0.0420751,-0.11134,0.0510953,0.399769,-0.761038,-0.510887
0.580098,0.309769,-2.51083,0.417577,-1.64309,0.32496,0.162753,0.237152,0.296469,0.244955,-0.969534,-0.000487375
-1.31939,0.309974,-2.00455,-0.341897,1.17465,-0.0370562,0.215397,-0.399875,0.391269,0.944248,0.0295799,-0.327904
-0.74107,0.309863,-2.75815,2.83948,-0.450952,0.0317792,0.123095,0.0353116,0.122744,-0.898653,0.231865,0.372373
-1.69175,0.247214,-3.13649,0.767771,3.08797,-1.16124,0.094729,-0.125251,0.132614,-0.0480259,-0.571986,0.818856
2.33275,0.0149404,0.30047,3.02404,1.9505,-0.0992767,-0.642598,0.515348,0.0539343,-0.432457,-0.885545,0.169677
-2.7202,0.309712,-0.8257,-2.97003,-2.60432,-3.06146,-0.606894,-0.391651,0.242251,-0.502205,-0.784175,0.364499
0.776753,-0.848038,-2.09612,-2.6939,0.326439,1.7752,-0.190924,-0.0346071,0.409219,0.575108,0.473984,0.666776
0.254336,-1.85214,2.41066,1.16999,-0.200399,1.47872,0.0898082,0.136125,0.304449,0.970071,0.233275,-0.0674135
-0.0291802,-0.60593,2.00656,3.14161,0.245241,-0.00966009,0.512017,0.0942515,-0.039349,0.180789,0.237605,-0.954389
-2.74119,0.309675,2.8182,-1.10982,-0.713136,-0.287942,0.109559,-0.0721518,-0.00480611,-0.29754,0.555213,0.776665
-1.28212,0.309909,2.80649,1.29093,1.58418,0.170434,0.13393,-0.0675763,-0.0219079,0.897463,0.439417,-0.0383633
-2.79809,-2.08968,0.659392,-0.792875,1.81026,-2.17505,0.112669,-0.0756225,0.904061,-0.878646,0.271903,0.392492
-0.426156,-0.4439,-2.73918,-3.14164,-1.24417,0.00451048,0.0413218,0.101112,0.160843,-0.683581,-0.729822,-0.00881787
-0.295156,-1.8449,1.02866,-0.658473,2.29124,2.98449,0.268886,0.0323322,0.774994,-0.424726,-0.646672,-0.633579
1.33319,-0.473579,1.5086,0.731327,-2.14464,2.46218,0.00822251,0.497673,-0.0359037,-0.47058,0.832579,0.292175
2.56476,-0.556609,1.34882,-0.618527,-2.52859,-1.36377,-0.579171,0.246618,-0.0587814,0.0674505,0.0972028,-0.992976
0.784962,0.309748,-1.55271,0.274298,0.268563,-0.832063,0.353726,0.507711,0.27736,0.0446133,0.297144,-0.95379
-2.96999,-2.35331,-0.607833,-0.999049,-3.0525,-1.93588,0.7622,0.0213202,0.525613,0.438066,0.0436796,0.897881
0.0415622,0.145862,2.79285,-1.09936,-2.54864,-3.11754,-0.0594631,0.106772,-0.0265353,0.173401,0.566341,0.805723
0.32662,0.252087,-0.231716,-1.34972,2.73027,-1.66301,0.81327,0.39074,-0.047469,0.908447,0.268864,-0.320055
0.08573,0.309959,2.9463,0.119565,2.19363,2.461,0.0275584,0.111921,0.0964693,0.347914,-0.603689,-0.717298
-2.48435,-0.419068,0.114727,3.14159,-2.07322,-2.87929,-0.514477,-0.53489,0.469939,0.227364,-0.893714,0.386757
0.402506,-0.217152,0.840833,1.3126,2.03049,2.59579,0.550718,0.353099,-0.0145318,0.870828,-0.461758,0.168633
-0.212839,0.310267,-0.692346,2.83285,-2.56851,2.05864,0.715436,-0.0429448,0.178601,0.90052,0.0654064,-0.429868
-0.182906,-0.594547,-1.50794,-1.01713,-2.53583,1.30783,0.172547,0.0790851,0.759944,-0.257868,-0.102824,-0.960693
1.47746,-0.419282,1.24886,-2.542,-1.43905,2.905,-0.0390809,0.753655,-0.013802,-0.98283,-0.159162,0.0933439
-1.95327,-0.615918,2.22453,-3.1415,3.12963,-2.49754,-0.0579727,-0.436564,-0.0608717,-0.221498,-0.524968,-0.821796
0.4902,-0.797851,-3.02277,3.14158,-1.14718,-3.10064,-0.00643258,0.120287,0.0733967,-0.124171,0.966161,0.226085
0.738246,0.309738,-2.88172,-1.21311,1.76703,2.03296,-0.0603892,0.0926229,0.246877,0.742994,0.0847705,-0.663908
0.438233,-0.670456,2.22995,0.747452,0.0512488,-2.62082,0.195722,0.212261,0.0245565,-0.841714,-0.44352,-0.307909
0.304332,-0.331866,-1.38374,-1.51678,-1.44264,-2.61946,0.288449,0.205006,0.710032,-0.405989,0.773541,0.486629
1.47447,-2.40042,-1.38114,-2.12883,0.0892611,2.98391,-0.172371,-0.649045,0.05371,0.181235,0.960314,-0.212019
2.68051,0.310114,-1.62974,0.843244,-2.63871,2.47502,-0.537203,0.145003,0.255294,0.633459,-0.737655,0.233657
0.843178,0.309779,2.83029,-0.93784,2.9443,-2.18128,-0.123994,0.0248925,0.0148717,-0.135271,-0.320834,0.937426
-1.68768,0.309668,-1.57637,1.6155,-0.924694,-0.01034,0.0512757,-0.499274,0.244946,-0.726553,0.658549,0.196046
1.42224,0.309771,2.81151,1.21724,1.02414,-1.34659,-0.0930409,0.11576,-0.0137961,-0.0472499,0.967482,0.248486
-2.95955,-2.23429,1.44536,2.41197,-1.8535,2.37763,0.0983277,-0.0928835,0.707276,-0.564229,-0.808956,0.165034
-0.491878,-0.647644,2.38747,-3.14159,-0.0781457,2.30243,0.374386,-0.0767666,-0.0570168,-0.523131,0.339465,0.781727
0.0305984,-0.948081,-0.818819,3.14159,-1.38103,-0.534248,0.0752364,0.111504,0.800675,-0.504962,-0.861053,0.0600185
-1.2731,-1.65014,-0.617647,-1.01941,-0.535596,-2.05091,0.0165848,0.318063,0.907239,0.0723326,0.567878,0.819929
2.88635,-0.749783,-1.5413,-2.20207,-2.07745,0.136711,0.0112251,-0.115734,0.694194,0.191155,0.845341,-0.498857
-0.34606,0.309985,-2.92096,3.14151,-1.35155,-0.871532,0.0544617,0.0963914,0.0763816,-0.690978,-0.418693,-0.589276
1.61997,0.181253,-0.160037,1.35642,1.07086,1.23498,-0.144279,0.711077,-0.013943,-0.332919,0.880957,0.336274
-0.175231,0.309882,-2.73983,1.05969,-0.532104,-1.49739,0.216422,0.0725307,0.196873,0.943472,-0.204825,-0.260591
-1.56829,-0.0826192,0.260227,-1.84455,0.971574,1.80498,0.111415,-0.903566,0.0640175,-0.19408,0.980292,0.036896
0.105566,0.119066,-0.121482,0.0475527,1.87839,0.253613,0.793959,0.193889,-0.0549301,0.205199,0.949486,0.237423
-2.39078,0.309896,-0.56118,2.88365,0.495423,1.20965,-0.465511,-0.583661,0.139724,-0.417284,-0.619124,-0.665251
0.986611,0.30957,-0.851154,-1.19949,-1.86558,2.17678,0.369027,0.756052,0.177925,-0.885917,-0.351744,-0.302368
-1.24758,-0.114349,0.574585,2.05337,-2.39717,-2.26411,0.331565,-0.646201,0.0400222,0.387871,0.20535,0.898547
0.583565,-0.661673,2.06535,2.33729,-2.42695,-0.102249,0.318684,0.341215,0.0416612,-0.11047,-0.854151,0.508156
3.00618,-0.938941,-2.72618,-1.93954,-0.88883,2.01766,0.132005,-0.128144,0.162321,-0.816235,-0.227377,0.531093
-0.34696,-2.39348,-1.38859,-0.567314,-1.87365,1.33725,-0.634813,0.345607,0.177474,0.757099,-0.508654,-0.409966
2.88112,-1.5336,-2.25436,1.59869,-2.60749,-2.41896,0.184665,-0.162178,0.332494,-0.980703,-0.133781,-0.142566
-0.150609,-0.235478,0.66801,0.370121,-1.10952,-0.0832015,0.709763,0.00268747,-0.0418678,-0.497681,-0.827076,0.261264
-1.66219,-1.34516,-2.48707,2.89789,0.148571,0.918078,0.120665,0.120652,0.197258,0.180416,0.98353,-0.0108765
1.41406,-0.563364,2.73762,-3.14204,3.08722,-0.693562,-0.0743028,0.229084,-0.0605245,0.108881,0.956723,0.269861
-0.0893048,0.310723,2.8417,-0.515022,2.05473,0.514354,-0.0234375,0.111685,0.0463347,-0.0477881,0.778002,-0.626441
-1.49108,0.309656,-1.96386,0.196296,3.06694,1.75357,0.145922,-0.455982,0.339873,-0.0929425,0.993255,-0.0693295
0.44892,-1.66671,2.63872,-0.183225,2.91776,-2.05338,0.0546442,0.147478,0.121498,-0.808776,-0.503942,-0.303189
-1.19464,-0.148474,0.463065,0.152772,-2.56886,-2.75726,0.377283,-0.658098,-0.0538436,0.149698,0.988597,0.0162906
1.09286,0.310027,-1.53486,1.98415,-1.97581,-2.31031,0.120448,0.469841,0.259856,-0.872519,-0.337746,-0.353042
0.429764,-0.419042,1.18272,-2.00771,2.32715,1.63379,0.646493,0.41638,-0.0395692,-0.852782,-0.441226,0.279432
1.1295,-0.774763,1.88583,-1.06655,-1.83927,0.0251696,0.103558,0.474784,-0.0596137,0.985156,-0.171142,0.0133405
-1.461,-2.34572,-0.405344,2.72365,-1.81342,-3.02911,0.0364512,0.665481,0.447515,0.932957,0.339838,-0.118746
-0.0229421,0.310064,2.80823,-1.4051,-1.02845,-0.447646,-0.0785769,0.110982,-0.0362245,-0.380052,-0.76359,0.522007
1.49829,-0.594124,-2.84019,0.650791,-0.572845,1.19719,-0.108155,0.0176605,0.302527,0.194478,-0.0532622,-0.97946
-0.610322,-0.0358946,0.416021,2.69129,2.85198,-1.16566,0.703657,-0.358939,0.0532884,-0.297065,0.345126,0.890304
0.736679,0.309557,-0.869579,-2.71324,2.69439,-2.824,0.46346,0.567727,0.261884,0.874606,0.238645,0.422033
2.69427,-2.34411,1.24708,-2.23663,3.09084,-1.56738,0.0753816,-0.157226,0.835245,0.175053,-0.084175,0.980954
1.6768,0.310102,-0.978845,-3.0157,0.0861094,-0.227472,-0.17875,0.64832,0.283706,-0.158926,0.701718,0.694503
2.69624,-1.61127,1.39948,-2.58198,-1.57345,-2.14322,-0.406693,0.0731808,0.68525,-0.493121,-0.364835,0.789764
0.27877,0.309683,-1.14088,0.400821,-2.60602,2.85733,0.651253,0.299937,0.163389,-0.968513,0.232312,-0.089522
0.411555,-0.82001,2.00246,-2.05738,-2.16729,0.418769,0.424772,0.304499,-0.023818,0.317842,-0.685952,0.654558
0.706081,0.309743,-0.86425,2.1442,2.65522,-0.137148,0.418912,0.500669,0.167931,-0.417043,0.252895,-0.872995
0.905805,-1.45793,-2.37761,-2.14706,-0.561068,-1.16042,-0.25971,-0.154317,0.170175,-0.199567,-0.59853,-0.775845
-2.91736,-0.808571,-2.67595,2.22574,-1.64521,0.0463734,0.0104791,-0.109563,0.235615,-0.200714,0.975963,0.0849127
-0.551261,0.310374,2.84185,0.559303,0.57541,-0.675683,0.111293,0.0597033,0.0432154,0.979383,-0.103716,0.173353
-1.66364,0.309556,-3.13991,-2.18703,-2.31182,-0.276522,0.114139,0.0485139,0.0513889,-0.70063,0.13092,-0.701411
3.08444,-1.49824,1.99161,2.23872,2.90457,-0.699904,-0.344276,-0.0896322,0.414096,0.926721,-0.232916,0.294852
-1.48468,0.309661,-1.39325,-1.63496,2.35292,-2.46117,0.1627,-0.615568,0.39256,-0.484208,-0.802446,0.348745
0.0390647,-0.473107,1.50581,-2.59297,-3.03726,-2.52242,0.669212,0.135389,-0.0550051,0.568048,0.107075,-0.816
0.906976,0.310031,-0.607146,-3.04637,-0.508481,0.221453,0.382795,0.666508,0.16706,0.915612,0.399614,-0.0443134
2.34573,-0.948571,0.614881,1.60592,3.10425,0.323148,-0.44731,0.300772,0.53514,-0.432662,0.391222,-0.812249
-2.01333,-0.66601,1.55207,-1.54172,-1.16796,-0.523342,-0.175418,-0.625058,-0.0271099,-0.735284,0.309097,-0.603171
-2.90777,-0.646761,2.16245,-3.14161,1.5821,2.30292,-0.417602,-0.211665,-0.0411733,0.567149,0.822185,-0.0485266
0.608896,-0.697864,2.55119,-3.1416,2.43231,-1.86253,0.189549,0.265233,-0.0408288,0.811704,0.337623,-0.4766
-0.564665,-0.912851,2.3789,-1.25534,-2.37794,-2.32975,0.295873,-0.0582188,-0.0572163,-0.284146,0.74336,-0.605539
3.00492,-1.52585,3.07411,2.77425,0.892539,0.595332,-0.129276,-0.0923984,0.157553,0.230419,-0.682464,-0.693649
2.37334,-0.815178,-2.50516,1.912,2.2915,2.97125,-0.0750132,-0.0792974,0.313445,0.710482,0.343153,-0.614379
0.539136,-0.387426,1.24871,1.08519,1.24641,2.25884,0.425376,0.381676,-0.0131381,0.861969,-0.185722,-0.471716
1.59998,-1.44761,0.155179,-0.716002,1.23781,-0.566587,-0.116275,0.242448,0.928201,-0.81465,0.579523,-0.0223254
-2.57208,-1.3829,-3.01442,-2.1882,2.62297,2.13719,0.0706297,-0.0843838,0.04338,0.442856,0.599376,0.666804
-2.72356,-0.375456,-1.84986,1.38357,2.85889,-0.081888,-0.163318,-0.191982,0.493141,-0.525563,-0.537675,0.659309
2.03671,-0.515728,1.67648,-2.73436,3.12469,-0.969703,-0.376378,0.505543,-0.0607121,-0.378322,0.731094,0.56778
-0.0667202,0.309912,-2.47312,0.825095,-1.3414,2.33142,0.284493,0.0903838,0.263128,-0.622493,0.714407,0.319569
-1.36946,0.309942,-1.65767,1.5716,-1.0221,-0.246866,0.201039,-0.439179,0.249776,-0.920094,0.370886,-0.125983
-0.52655,-0.602687,1.27449,-3.14159,-1.5135,0.326853,0.673908,-0.265486,0.160019,-0.61123,-0.738338,-0.285051
-0.53196,-0.0695503,0.284776,0.341494,-1.1804,0.321617,0.707894,-0.289982,-0.0454353,-0.565227,-0.68535,0.459145
3.10605,-1.42915,-0.657541,1.07526,-0.918358,1.76881,0.0493705,-0.110974,0.800876,0.761619,-0.18349,0.621504
2.61507,-1.70704,-2.88912,-1.18975,-3.00177,1.78289,0.0734174,-0.168923,0.0374302,-0.25953,0.116919,0.958632
1.50665,0.30967,-2.93199,3.14159,-0.0364846,-1.65727,-0.107819,0.0242314,0.0721218,-0.0300304,-0.418397,-0.907768
0.925235,0.310679,2.81422,-1.36916,0.545416,-0.780947,-0.135664,0.00130745,-0.0299078,-0.643438,-0.241829,0.726296
-2.33925,0.309912,2.80686,1.28281,1.40825,-1.18507,0.00711085,-0.149688,-0.0210646,-0.358792,-0.905347,0.227188
0.383319,0.0198916,-2.38715,2.51501,-0.315031,-0.383565,0.0802706,0.150061,0.261365,-0.752436,-0.613248,-0.240348
0.791459,-0.688936,2.17997,-2.99643,1.84356,-1.08229,0.241266,0.399514,-0.03785,0.303574,0.950346,0.0684476
0.966811,-0.320608,1.06351,0.625729,-3.1416,2.30331,0.250643,0.555439,-0.0612386,0.337395,0.488967,0.80441
0.494321,0.310097,-1.06471,-1.52225,0.21896,1.4049,0.619455,0.457849,0.289576,-0.585584,-0.274854,-0.762592
-2.26705,-0.700244,1.12289,-0.666048,2.92242,1.55887,-0.36875,-0.611327,0.110281,0.149305,0.174572,0.973259
1.83197,-1.68856,-1.72123,-0.0919418,-0.180365,0.0385037,0.0137235,-0.474049,0.495849,-0.0678836,0.948177,0.310407
0.708228,-0.668028,1.6507,-0.585014,-0.00529438,2.30995,0.319853,0.417649,-0.06119,0.68678,0.59289,0.420493
-2.652,-1.57244,2.70276,-1.89928,1.53882,-2.20618,-0.153737,-0.205601,0.0913302,-0.784917,0.253891,-0.565194
-1.6181,0.0627031,0.22788,1.24711,-0.23605,-0.908748,0.0756756,-0.709744,-0.0529893,-0.105394,0.81398,0.571252
0.00953376,-0.887391,2.25382,-1.41215,2.42175,-0.340074,0.351239,0.112504,-0.0599223,0.717397,0.628376,-0.300806
-1.88032,-0.571388,2.44869,-0.13019,0.379208,-2.19728,0.0595046,-0.172266,-0.0383682,0.0653062,0.916737,-0.394116
1.46806,-1.22084,1.95562,-0.488482,-1.64908,-3.01308,-0.0661484,0.42269,0.133631,-0.994422,-0.004501,-0.105381
-0.482548,0.23657,-0.315587,0.895108,-0.774661,-0.550035,0.701936,-0.244492,-0.044328,-0.983737,-0.157838,0.0857225
0.0818353,-0.473584,1.36627,0.512709,-0.857116,1.3028,0.520233,0.152185,-0.0380604,0.935878,-0.124092,0.329748
-1.76939,0.309092,2.80329,-1.27107,0.673816,-1.61869,0.122479,0.0553548,-0.0262868,0.162591,0.959302,0.230875
2.5671,-2.26143,-2.18148,-1.5423,-1.43523,-3.07533,0.278953,-0.310595,-0.0518044,-0.629135,-0.770456,-0.102892
0.208115,0.153384,-0.207277,-0.717449,-1.91449,-0.486925,0.836181,0.288135,-0.0225058,0.699977,-0.702623,-0.127879
2.53316,0.309589,-1.9189,1.95912,1.71722,0.984265,-0.355532,0.114637,0.262717,-0.609436,-0.242779,0.754749
1.56636,0.309779,-2.50665,-1.72667,-0.341283,-2.3756,-0.108668,0.10871,0.344609,-0.24552,-0.9693,0.0133315
1.39661,-0.107097,0.586332,-2.48376,1.28762,2.54813,0.0409411,0.862469,-0.00650053,0.67913,-0.733597,-0.0248434
-0.975951,-0.875631,3.09789,0.093445,-2.21643,1.05566,0.0706737,0.0903235,0.167784,-0.0800139,-0.583931,-0.807851
1.59605,0.309829,-0.601753,0.623489,1.48248,1.5012,-0.128047,0.746612,-0.0170291,-0.0773007,0.317085,0.945242
2.51928,-2.34097,-0.541115,3.11481,-2.1147,1.73057,0.502593,-0.494895,0.402775,-0.199271,-0.0245923,0.979636
0.85464,-2.26893,1.47953,-2.89776,-2.84814,-0.41165,-0.112564,0.036922,0.774107,-0.42866,-0.896348,-0.113183
1.59082,0.309804,-2.89358,-1.3808,0.599082,-2.69457,-0.10918,0.000395213,0.231585,0.524861,-0.813021,-0.252029
-0.979799,0.309843,2.92169,1.40918,1.57452,0.0956979,0.151094,-0.0292833,0.00158206,0.773329,0.633997,-0.00314992
-0.0206286,-0.490206,2.64709,1.71685,-1.86448,1.72386,0.223469,0.104563,0.0328598,-0.624683,0.158855,-0.76455
-0.333287,-0.228862,0.224286,2.92996,1.26908,-1.86238,0.778323,-0.15395,0.27982,-0.36281,-0.164861,0.917164
0.60018,-0.447779,1.46196,-2.64244,-3.02777,-2.72908,0.503493,0.476857,-0.0544352,0.31467,0.341441,-0.885664
-2.70287,-0.571943,-1.48262,-3.14162,0.18272,1.60819,-0.0361353,-0.137524,0.62241,-0.819204,-0.376882,0.432279
0.48273,-0.150988,0.68116,1.51298,-0.49795,0.0999541,0.546564,0.409678,-0.00220403,0.651603,-0.195056,0.733053
-2.76883,-0.574472,1.78133,-3.14167,-1.85784,-2.90168,-0.504937,-0.31465,-0.012759,0.0412962,-0.984163,-0.17239
-2.24433,-0.63197,2.48611,0.715643,-1.76747,-0.755583,-0.0282326,-0.210366,0.0432059,-0.251886,0.828788,0.499664
1.33393,0.246779,-0.412024,0.559254,1.24389,1.44093,0.0728689,0.767013,-0.0375356,-0.0389016,0.361485,0.931566
-0.0784295,-0.646597,1.98486,1.19914,-2.37425,-1.08809,0.383226,0.0793685,0.0414108,-0.80099,-0.260285,0.539134
-2.8798,-1.68733,0.356455,3.14162,-2.81572,1.07212,0.0747522,-0.092971,0.914785,-0.759607,-0.0450192,-0.648823
-2.75576,-2.29927,-0.589311,-0.494675,-1.99254,-0.112304,0.676045,0.156791,0.596375,0.0495799,0.998704,0.0114606
-0.763335,0.309891,2.80071,-1.54059,-2.90091,-1.47299,0.0162434,0.135523,-0.0526781,-0.735119,0.67116,-0.095626
-1.36123,0.10035,0.118984,2.1078,0.803316,2.3827,0.260056,-0.698042,0.0261907,-0.478567,-0.260013,-0.83867
-1.51849,0.309653,-1.44849,-2.13951,-1.66277,1.0738,0.138075,-0.549634,0.409636,-0.470128,-0.101168,-0.876781
0.314744,0.299326,-0.478543,0.610279,-2.4308,-0.279205,0.681765,0.336748,-0.0522332,0.714001,-0.427117,-0.554773
-0.209382,-0.59877,2.05154,-3.03927,0.0743112,1.56345,0.503835,0.00452403,-0.0593337,-0.977787,0.208333,-0.02303
1.248,-1.30224,-1.85706,0.671121,-0.477095,-2.32707,-0.173897,-0.175798,0.567133,-0.312108,0.0602833,0.948132
2.70801,-0.416271,1.16928,-1.99471,1.75634,-0.62924,-0.739593,0.222124,-0.0378162,-0.882982,-0.466836,-0.0490619
-0.998314,0.310132,-1.00726,0.0996369,-1.97195,-0.990363,0.502754,-0.578609,0.133033,-0.0736105,-0.817722,-0.570887
1.83967,-1.537,2.23618,-2.38579,-1.31542,-1.71739,-0.213769,0.364917,0.272407,-0.396161,0.905684,0.150974
-0.894932,-2.05632,-0.55278,1.39177,1.46056,2.31626,-0.194774,0.417388,0.631418,-0.941063,0.0958994,0.324351
2.67353,-0.191453,-0.554326,-1.26597,-1.20284,2.20173,-0.755133,0.25944,0.476587,0.484195,-0.861524,-0.152745
-1.93012,-1.68554,-0.384961,-0.302953,-1.63821,0.933975,0.162258,0.121559,0.923724,-0.348841,0.758528,-0.550405
-0.231407,-0.0352158,0.40629,1.98667,-1.86041,-1.70769,0.729214,-0.0596839,0.0289174,-0.623903,0.281377,0.729089
1.40386,0.275239,-0.279891,1.37638,-0.554849,2.74414,0.0100872,0.716756,-0.0432394,-0.3902,0.607694,-0.691702
-1.39114,-0.6927,2.11677,-3.14159,-1.70534,1.75082,0.192811,-0.45083,-0.0136266,0.00129653,0.985855,-0.167594
1.64708,0.309657,-0.516592,2.55666,2.0577,-1.39441,-0.1638,0.710893,0.106733,-0.0968462,-0.767916,0.633187
0.134768,0.309684,-0.798207,0.824091,2.44229,0.541108,0.698788,0.204897,0.054358,0.707709,0.652734,0.270345
2.22309,0.310048,-1.64108,2.67509,-0.881225,1.51589,-0.332978,0.256117,0.319242,-0.55217,0.79265,0.258483
0.639992,-0.608093,1.95113,3.06283,-2.35525,3.07198,0.358021,0.402638,-0.0215971,-0.304278,0.653716,-0.692871
1.8116,-0.60874,1.1109,-0.570587,-1.3989,-0.978808,-0.272691,0.652754,0.0489611,0.543104,0.0937403,-0.834417
0.819631,0.309751,-0.56943,-1.39646,-0.270808,-0.89689,0.519572,0.716349,0.0683956,0.688345,0.492562,-0.532506
0.780623,0.309873,-1.01977,0.655036,-2.87383,2.04217,0.425809,0.575391,0.120704,-0.42993,-0.256737,0.86559
2.67615,0.31024,-0.65957,1.44635,-0.145904,-0.727941,-0.664735,0.211718,0.0504824,0.878926,-0.319979,0.353699
1.33422,-1.48735,0.703466,1.64152,-3.06308,-2.42569,-0.04948,0.260475,0.7277,-0.289194,-0.947051,0.139505
-2.14841,-0.957995,-3.09293,0.669118,-3.01938,-1.13502,0.10183,-0.0436607,0.219238,0.296847,0.549697,0.780842
-1.31278,0.309798,2.81966,-1.09097,1.7816,2.75305,0.0871805,0.0974086,-0.0024959,-0.766453,-0.642298,0.0020571
-1.25448,-0.658894,2.26755,-3.14159,-0.238644,-1.19927,0.233069,-0.361191,-0.046189,0.203927,-0.898919,-0.38776
-2.54296,-1.69107,-1.64732,2.89222,1.55145,-2.02312,0.387678,0.132322,0.34901,-0.573166,0.137984,-0.807739
-0.387665,-1.51152,-0.0156434,0.31054,0.71995,-2.62626,0.162602,0.0515037,0.872463,0.421102,-0.791652,0.442673
-1.86648,0.309705,-1.6602,-2.20231,0.652522,-2.04631,-0.0274916,-0.464824,0.429158,-0.0651922,0.739901,0.669549
-1.743,0.309772,-3.05533,-0.169815,3.14159,2.88464,0.0965496,-0.0818667,0.203155,-0.151743,-0.872429,-0.464587
-2.00927,-0.647784,0.622819,2.10356,1.10288,-2.07145,-0.17643,-0.633334,0.401428,-0.0177232,0.971251,0.237398
-2.64388,-2.19129,0.77553,-2.39319,1.50162,-1.74896,0.26749,0.021117,0.896825,0.459259,0.450743,0.765449
0.395723,-0.931555,-2.64612,2.01525,1.60556,3.12324,-0.0488525,0.0978832,0.263768,0.36798,-0.92919,-0.0345964
-1.657,-0.313082,0.371852,2.3526,1.3487,1.08156,0.0456528,-0.739455,0.267533,0.399371,-0.702908,-0.588577
2.01163,-0.616678,2.15377,0.158851,-2.67746,-2.45672,-0.212228,0.194019,-0.0452649,-0.0826365,-0.637378,0.766107
0.946889,-0.364719,-2.069,1.59575,-2.93292,-0.103316,0.0103713,0.201241,0.432481,0.592321,0.470167,0.654292
-0.150688,0.310029,-2.44099,0.584749,2.47495,-2.11102,0.304034,0.064237,0.289472,0.790054,-0.441643,-0.425166
1.44291,0.280378,-1.63965,-0.972236,-1.03644,-0.71352,-0.0369262,0.56867,0.420316,0.739669,0.650534,0.172322
-0.93996,-0.151677,-0.753943,-0.472506,-1.47216,1.43032,0.533525,-0.545403,0.443876,-0.687278,0.704735,0.176062
2.37507,-0.397917,-0.655411,-2.86102,-0.0402233,-0.768846,-0.450106,0.281898,0.662509,-0.000680205,0.0407773,0.999168
1.23155,-0.558089,1.5809,-2.41151,1.85259,0.649526,0.116023,0.656772,-0.0377307,-0.905955,-0.268526,0.327322
2.06761,-0.838493,-0.366663,3.08942,2.4259,-1.07263,-0.255318,0.241913,0.800711,0.175673,-0.981803,-0.0721295
2.6238,-0.349112,0.117304,1.88455,-2.11953,2.94209,-0.650785,0.245094,0.332398,-0.621908,-0.608167,0.49332
0.0643685,0.149999,-0.143987,-0.479822,-3.11275,1.16208,0.846865,0.163963,-0.0609333,-0.064321,-0.0156308,0.997807
0.0596701,0.309775,-2.91429,-3.14164,0.192112,-2.23209,0.0127816,0.110108,0.0789597,0.121023,-0.110237,-0.98651
1.88023,-0.143192,0.589837,1.1844,1.73142,0.732194,-0.311022,0.614411,-0.0139221,-0.900291,0.405217,-0.158981
-1.08845,0.310059,2.81357,-1.17307,1.56053,2.77932,0.0617404,0.117392,-0.0124721,-0.677332,-0.722177,-0.140293
3.01633,-1.45527,2.19308,-0.966119,1.32823,0.654437,-0.371464,-0.0632368,0.155278,0.224637,-0.804533,0.549786
0.830767,-0.521309,1.59771,3.14162,-2.87835,1.61907,0.349598,0.544721,0.000445062,-0.587246,-0.624482,-0.514941
3.12195,-0.613473,1.8758,0.992488,-1.71316,-0.607357,-0.395302,-0.101403,0.0199111,0.53181,0.802558,0.270329
-3.12071,0.310072,-2.07591,-2.99346,-1.53023,0.325584,-0.231833,-0.114016,0.339854,-0.337409,0.939843,0.0533844
-2.07779,-0.356181,-2.97805,-1.33497,1.35327,-1.14672,0.134862,0.0180152,0.166345,0.791505,0.597593,0.128071
-1.30197,-0.793743,1.70519,-0.738976,1.3523,2.6545,0.243886,-0.474311,-0.0111007,-0.760248,-0.488501,0.428241
1.7301,-0.670527,2.11731,-3.14166,-2.46788,-2.94338,-0.183184,0.452095,-0.0242691,-0.649968,0.189529,-0.735948
0.134537,0.140566,0.0794586,-1.94296,-0.268178,1.85909,0.874411,0.228501,-0.04165,-0.990372,-0.0580279,0.125684
-0.665025,-0.0592188,0.456683,1.14365,-0.686698,-0.948777,0.611354,-0.340708,-0.0403298,-0.877716,0.218845,0.426288
2.61517,-0.677956,-0.204032,3.11555,0.0999537,-0.863929,-0.492096,0.159724,0.716776,0.141921,-0.157428,0.977279
0.493702,-0.60562,2.64366,-3.14149,-0.02252,-1.0303,0.174792,0.218016,-0.0617486,0.475501,0.242734,-0.845564
-0.305472,-1.25522,-0.95639,-0.302729,-1.0989,-3.00088,-0.0120418,0.118246,0.884236,-0.00380706,0.925912,0.37772
-2.66819,0.217515,2.77453,1.714,0.0317598,2.96187,-0.0586069,-0.152659,-0.0603981,0.150406,0.11215,0.982243
0.933619,0.309777,-0.489393,2.76245,0.401372,0.429896,0.352833,0.660161,0.10993,0.268105,0.959157,0.0902072
1.65084,-0.647061,2.20041,-3.14166,2.67387,-0.635123,-0.144029,0.43043,-0.0451645,-0.408201,0.54972,0.728821
-2.50932,0.309722,-1.3112,2.65175,-0.847342,2.23279,-0.356482,-0.396467,0.297516,-0.335932,-0.817242,-0.468258
2.47497,-0.616462,1.87896,1.68915,-0.439243,0.868829,-0.41952,0.191186,0.0540653,-0.394552,0.659823,-0.639502
0.480856,-0.582988,1.95056,-2.93453,-3.12506,0.820709,0.418183,0.341277,-0.0614117,-0.641122,-0.347181,0.684418
-1.03824,-1.76885,-3.06472,3.14159,1.24906,-1.72334,0.123356,0.00566642,0.12792,0.371022,-0.913451,0.167183
0.158174,-0.538258,1.53157,0.405331,-1.27308,-0.928286,0.462535,0.184307,-0.0378245,-0.718415,-0.694681,0.0360253
-0.986204,-0.601109,1.90186,3.04916,-1.07114,-1.01748,0.391039,-0.393128,-0.0149518,0.103612,-0.992408,0.0662611
-1.28663,-2.13959,-0.62608,-1.0793,1.84479,-1.23187,-0.078858,0.659326,0.663433,0.116981,0.741132,0.661089
0.58775,-1.51744,-0.801328,-2.23438,2.09398,-1.69903,-0.341449,-0.0963484,0.81611,-0.745055,-0.629551,0.220358
1.58782,0.309693,-3.09154,-0.996624,-2.41127,0.361013,-0.108817,-0.0205033,0.173812,0.629981,-0.33957,-0.698438
-1.98003,0.309997,2.84125,0.369776,-1.9408,-0.426234,0.0812097,-0.0870712,0.0512141,-0.718046,0.477889,0.505996
-0.661783,-1.91958,-1.4436,-0.318306,-1.83139,1.06935,-0.38777,0.440418,0.483552,-0.0136341,-0.57813,-0.815831
2.45909,0.236752,-0.552947,0.0557045,0.605347,-0.439948,-0.697656,0.426403,0.0199907,0.148004,-0.78378,-0.603144
2.4022,0.309749,-2.20692,2.08279,-2.61723,-0.83916,-0.266801,0.0955919,0.23813,-0.0931162,0.537616,-0.838033
-0.0773684,0.30989,-2.65803,-3.02081,2.61965,-1.02336,0.0629378,0.104598,0.181369,-0.379684,0.289715,-0.878582
0.617588,-0.56366,1.70207,2.13415,0.510422,0.845199,0.373771,0.39936,0.0539192,0.200629,0.540145,-0.817307
2.58972,0.309925,2.79597,-1.34068,-2.16197,-1.98127,0.0109967,-0.134949,-0.0361715,0.555807,-0.731277,0.395363
2.9413,-0.372437,-2.52614,0.860817,-0.485973,-1.03359,-0.119379,-0.0871404,0.380807,-0.903897,0.427402,-0.017279
-1.01691,0.309777,-1.39289,-0.767671,-2.06016,-2.95112,0.450266,-0.520522,0.332277,0.899889,0.192638,-0.391269
-2.28717,-0.926159,-2.01205,-2.603,3.01911,2.12915,0.208882,0.0736891,0.43833,-0.170641,-0.0974183,0.980506
-0.450792,0.310019,-2.16765,-2.24635,2.9953,-2.54301,0.242064,0.00409696,0.389824,-0.0481627,-0.110479,0.992711
-0.634892,0.309593,-2.81778,-3.11779,-2.96481,-2.33027,0.0895439,0.0696061,0.11691,-0.716935,0.678518,-0.160055
0.285755,-0.584416,1.84919,3.14163,2.67337,0.0651841,0.509297,0.263392,-0.0218772,-0.443903,0.338962,0.829491
2.92528,-0.233503,-0.750044,-1.32451,0.266226,0.87901,-0.707965,0.0438244,0.577664,0.116717,-0.197484,-0.973333
0.259626,0.309653,-1.26022,0.205958,-1.03425,-2.75243,0.645537,0.284403,0.209239,0.380492,0.923852,0.0415039
-1.28879,-0.716304,2.12003,-0.106417,-2.59513,-0.514353,0.186833,-0.252634,-0.0441378,-0.510468,0.136112,-0.849056
-0.503962,0.100726,-0.0900644,-0.859304,-1.20822,-0.161568,0.828643,-0.332315,-0.0203229,-0.542544,-0.754636,-0.369013
-2.53973,-0.657173,3.12241,2.84498,-1.92739,0.239328,-0.0278961,-0.151579,0.0499796,-0.511272,0.753275,0.413735
-0.250153,-1.09243,1.27999,0.876085,-1.04909,3.01815,0.509785,-0.0175963,0.347343,0.550002,0.747484,-0.372512
1.07885,0.095015,-0.0799815,0.744237,1.02314,2.34586,0.258115,0.712734,-0.0257116,0.883691,0.384209,0.267345
-2.10992,0.309906,-2.07189,-2.91093,0.623083,-2.78158,-0.0273049,-0.258252,0.348385,-0.272558,0.608191,-0.745531
-0.992908,-0.529584,2.59626,1.14178,0.475181,1.72702,0.193287,-0.0965684,0.0532927,-0.171078,0.132022,-0.976372
-2.83104,0.310153,2.81513,1.17063,2.73335,2.19775,-0.060989,-0.134207,-0.00866017,0.426585,0.381515,-0.820043
0.0550499,0.310046,2.83961,-0.705036,2.5383,2.76681,-0.0541894,0.106329,0.0352319,0.850385,-0.481916,0.211191
-0.658754,-0.0198971,-2.11631,2.92932,-2.41476,-3.12104,0.183308,-0.00386836,0.362408,-0.0194212,0.855199,0.517936
0.596952,0.309935,2.79816,-1.43547,-2.62901,2.0509,-0.128711,0.0444937,-0.0439789,0.636263,0.706332,0.310267
-2.2239,0.309643,-2.93924,-3.08413,-1.6321,-1.84199,0.079514,-0.0757006,0.0721103,0.536409,0.261064,-0.802566
-1.26683,-2.12747,-2.26887,1.90748,-2.61448,0.555132,0.0176503,0.308405,0.152363,-0.678357,0.734222,0.0273813
1.05988,-0.186521,0.62683,-1.58168,2.11087,1.1727,0.324585,0.802258,-0.0386202,-0.659262,-0.496102,0.565027
1.4685,0.309952,-2.47027,-1.90767,-2.29032,-2.781,-0.097244,0.12157,0.342429,-0.691049,0.159764,0.70493
0.448846,-0.485,1.37863,-2.46528,-1.56939,0.746288,0.598092,0.409211,-0.0183205,-0.293075,-0.956088,-0.00161792
-1.69066,0.309757,-1.03837,3.14164,-2.11169,-2.85907,0.0325082,-0.642912,0.291403,0.795433,-0.280466,0.537238
2.9525,-0.568194,2.80334,-3.14216,0.481754,-3.01981,-0.208047,-0.0713143,-0.0492829,-0.539803,0.571559,0.618007
0.605995,-0.167977,0.183547,-3.10441,0.836518,2.48033,0.608704,0.554612,0.248626,-0.126978,-0.800757,-0.585376
0.299573,0.00216111,0.332357,2.70031,-0.370047,0.0827636,0.718228,0.336076,0.0535705,0.997466,-0.0691357,0.0168134
1.99916,-1.36056,2.04386,1.61932,-0.419708,2.50003,-0.233235,0.247991,0.320399,-0.278831,-0.175332,-0.944199
-2.40391,0.309746,-2.04745,-2.73931,2.45031,1.60028,-0.109796,-0.247282,0.368484,-0.735874,-0.643399,-0.211016
-1.49141,-1.53064,0.739134,1.10613,-2.9194,-2.22317,0.129696,-0.253949,0.702864,0.0692052,0.817057,-0.572388
1.60436,-0.411852,-2.70185,-2.42646,0.447669,-1.47147,-0.106851,-0.0702929,0.200525,-0.0181005,-0.740034,-0.672326
