Fabiaho/6DOF-Inverse-Kinematic/project files/arm_poses_5000.csv
Shoulder_Pan,Shoulder_Lift,Elbow,Wrist_1,Wrist_2,Wrist_3,TCP_X,TCP_Y,TCP_Z,Orientation_X,Orientation_Y,Orientation_Z
-2.9282,-2.3105,-0.0209941,0.248708,-1.2175,3.14159,0.486751,-0.00620871,0.73359,0.36436,-0.88106,0.301622
1.04231,-0.568155,1.75973,0.801243,2.85608,-1.34825,0.116052,0.415229,-0.00777039,-0.546066,-0.811942,0.206304
1.91101,-2.743,-1.23274,0.312331,-0.651185,-1.97469,0.131479,-0.698544,0.0456171,0.0188077,-0.767016,0.641353
-1.0076,-1.4229,-2.73981,-2.96897,2.25658,2.12841,0.0542382,0.118542,0.112477,-0.804454,0.506988,0.309544
-0.672791,-2.73874,-1.01221,-3.1416,2.15949,-0.855837,-0.446949,0.495695,-0.0463353,0.911243,-0.0289373,-0.410851
0.264453,-2.64863,-0.924401,2.7053,1.54679,-2.90258,-0.664136,-0.0667634,0.0650573,0.442756,-0.886378,-0.13528
-2.83093,0.309818,-1.7693,2.94944,-2.29852,1.59851,-0.303686,-0.212139,0.341762,-0.940914,-0.323825,0.0990891
-2.82529,0.309672,-1.84874,1.46463,0.861449,-2.34599,-0.36927,-0.235705,0.257307,-0.647692,0.346777,-0.67841
-3.04931,-0.725788,0.770258,0.349064,-0.530889,1.44186,-0.660534,-0.170747,0.266389,-0.282685,0.039215,0.958411
-1.51947,-1.55667,-1.21954,0.225973,-0.440889,-0.775855,0.0932271,0.31278,0.732848,-0.256696,-0.940767,0.221506
-1.75156,-0.613147,1.9642,0.561035,2.19911,-0.210682,0.0455453,-0.357914,-0.0174153,0.848259,0.240869,-0.471634
-2.57801,-0.553497,-1.87249,2.86214,0.263068,2.84079,0.0367284,-0.105908,0.484124,-0.945121,-0.303463,-0.121061
-1.45161,-0.529678,1.72599,-2.76641,-3.13965,-2.1107,0.180302,-0.587624,-0.0612399,0.10294,-0.851193,-0.514659
-0.85548,-2.3787,0.0468092,-0.488555,0.223986,-0.134604,-0.27693,0.485168,0.756671,0.79523,-0.579699,-0.177647
-1.09548,0.30985,-1.03588,-0.639768,1.93425,2.03136,0.458921,-0.653151,0.20072,-0.785445,0.618313,0.0276545
-0.417099,0.305576,-0.38767,1.58724,1.1989,-3.04087,0.685846,-0.184512,-0.0127437,-0.44555,-0.816416,-0.367355
-0.410276,0.309931,-3.06688,-2.84138,0.724298,-0.129828,0.0263788,0.107554,0.0334149,-0.340495,0.864596,0.369509
-0.891267,0.0111447,-0.570136,2.20202,1.79642,0.019778,0.501624,-0.447225,0.299276,0.760256,0.609593,-0.224515
-2.14909,-1.05788,2.70821,-1.12855,2.77381,0.810222,0.0202258,-0.168704,-0.0135967,-0.294625,-0.90481,0.307433
-1.43373,-0.532723,1.73815,0.362512,0.0178136,-0.555858,0.164365,-0.392832,-0.0616203,-0.0574395,0.527192,0.847803
3.08296,-1.26106,0.448458,2.12904,-1.74278,-0.757764,-0.313524,-0.090934,0.754922,0.674754,0.677282,-0.293251
2.03703,0.0791172,-0.0235522,-0.554647,-2.74121,-2.35062,-0.484369,0.719695,-0.0493198,-0.142215,-0.32708,-0.934234
1.55223,-0.372019,0.971427,-1.27987,2.63641,-0.536877,-0.0946645,0.781238,-0.0512141,-0.398986,0.913839,0.0755605
1.01227,-0.280899,0.303571,-1.88656,-0.723993,2.75462,0.379664,0.813534,0.225431,-0.817871,-0.151309,0.555151
1.10229,0.309559,-0.961246,2.21729,2.41645,2.21682,0.183486,0.604274,0.197106,0.715757,0.530042,0.454695
0.972236,-0.0672101,0.474753,3.00143,1.27109,2.66575,0.365756,0.729996,0.0535185,0.490821,-0.787627,-0.372476
1.10425,0.309757,-1.14477,-0.394557,0.829317,-2.8725,0.243123,0.7254,0.21871,0.845643,0.0985671,0.524568
0.0892226,-0.639628,2.47504,-3.142,-3.11229,1.1142,0.318725,0.138099,-0.060474,-0.747188,-0.0798123,0.659803
3.01165,-0.34106,2.90783,-3.14169,-3.10066,-2.74429,-0.135885,-0.0923207,-0.0613787,0.553176,-0.110346,-0.825724
0.609895,-0.754662,1.3237,2.6282,1.22841,-2.83972,0.466453,0.459097,0.263453,0.26634,-0.911066,0.314678
-0.336557,-0.603467,2.07014,0.157099,-0.178343,-1.91031,0.315613,0.00521491,-0.0547669,-0.88564,0.372446,-0.277355
-0.383352,0.310332,-0.642023,1.55847,2.00463,-3.08834,0.677463,-0.155532,0.055185,-0.516673,-0.768612,0.377208
-1.31579,-1.24231,-1.64804,0.862159,2.05363,2.14747,0.0657874,0.180333,0.63075,-0.628818,0.497791,-0.597321
2.22672,0.209355,-0.113755,2.62109,0.171418,0.87696,-0.554387,0.541392,0.0496234,-0.629871,0.639582,-0.440678
2.19372,0.309808,-3.11955,2.86847,1.99581,-0.314725,-0.105196,-0.0406443,-0.00710686,-0.921326,-0.202265,-0.332035
2.17344,-1.8896,-1.15649,0.888121,0.341263,-1.20244,0.162239,-0.428372,0.582587,-0.646067,0.726413,0.234354
-0.0630503,0.309867,-2.77966,-0.560067,0.191469,-3.03225,0.114958,0.10211,0.297756,-0.967628,-0.128452,0.217249
2.6277,-0.474191,-0.12543,-0.533576,-2.04508,-1.59268,-0.739579,0.292137,0.464471,-0.794474,0.426105,-0.432718
-1.48793,-0.968824,2.03735,-0.729608,1.79124,-0.173761,0.141721,-0.387634,0.0063837,0.969863,-0.0655907,-0.234656
-2.56391,-0.620741,0.571039,2.28205,-2.36376,-1.58849,-0.495641,-0.453381,0.41399,0.661194,0.416189,0.624187
-0.0321158,0.309738,2.84302,0.896659,-1.65639,-3.04596,0.0906101,0.106295,0.0222484,0.159415,0.987177,-0.00830506
-0.0315436,0.310226,2.83491,-1.30986,2.09398,3.00285,-0.0754123,0.111584,-0.0144503,0.23566,-0.86577,0.441482
0.114558,0.309788,2.79524,-1.34935,3.10768,1.2457,-0.0922061,0.0992608,-0.037347,0.865829,0.110525,-0.487979
2.49173,-1.68921,-1.91502,2.45085,-2.09499,-0.773667,0.18451,-0.277318,0.297747,-0.249408,0.967397,0.0440274
2.31857,-0.504064,1.59584,-2.87222,-0.149246,1.98433,-0.518982,0.39907,-0.0339733,0.62148,-0.757969,0.198104
-1.74231,-0.391374,-0.774837,0.828522,2.43345,-1.75017,0.00879449,-0.588765,0.522557,-0.148158,-0.175412,-0.973283
-1.63743,0.30989,-1.05701,1.5426,-2.01969,1.08698,0.0672972,-0.630811,0.15985,-0.469654,-0.743898,0.475438
-1.35085,-0.646446,1.66231,-1.79594,-2.99347,1.07807,0.24015,-0.573921,-0.0555108,-0.130764,0.264952,0.955354
-1.78334,-0.655756,2.21074,-3.14162,1.57068,-2.07856,0.0143644,-0.450865,-0.0423955,-0.659595,-0.751493,0.0138967
-2.16203,-1.11714,2.02961,-1.83394,0.436232,2.7197,-0.188975,-0.477313,0.103665,-0.416928,0.0705479,0.906198
-0.390436,-0.812835,-3.06625,0.306564,-2.08351,-0.388415,0.00667874,0.115284,0.220045,-0.834696,-0.528608,0.154454
0.572963,0.309732,-0.684556,2.17209,0.531136,1.39237,0.51018,0.45904,0.124476,0.785979,0.614064,-0.0718485
-0.42917,-0.657655,3.10841,-0.315106,-1.98551,-0.915534,0.00367945,0.118352,0.149675,-0.960574,-0.173761,0.217035
0.782646,-0.606965,2.01783,3.1416,0.569176,-3.12404,0.2811,0.433495,-0.0406018,0.297163,-0.464436,0.834262
1.25729,0.158752,-0.00111646,2.13415,-0.405083,2.16495,0.123129,0.733736,0.022877,-0.122656,0.337037,-0.933467
1.20036,0.309842,-2.8917,2.12548,-2.91147,-0.0161347,-0.0604455,0.14586,0.0828803,0.531537,0.738662,0.414544
-0.433119,-0.554813,2.5971,1.52179,2.77556,-1.22495,0.247214,0.00594182,0.0499174,0.139013,0.0693944,0.987856
-2.9563,-0.913819,-2.98913,2.27848,-2.3349,0.787516,-0.0488129,-0.1202,0.160155,0.627357,0.635916,0.449483
-0.404843,0.31001,-0.413267,3.01067,-1.76033,0.42681,0.753449,-0.204114,0.0920023,-0.417162,-0.793851,-0.442466
-0.434136,0.273153,-0.185758,1.46923,-3.1416,2.77959,0.685834,-0.197667,-0.061071,0.309236,-0.143384,0.940114
-0.691353,-1.76224,1.0452,-2.02729,2.88036,1.74516,0.263277,-0.0762087,0.851443,-0.203045,0.109882,-0.972985
0.569401,-0.732352,2.58737,-3.14165,-0.566141,-2.82056,0.191207,0.251993,-0.0297262,0.169799,0.713016,0.680277
-0.135373,-0.709161,2.47758,-3.14172,1.13631,-1.98657,0.349966,0.0624902,-0.0372688,0.872423,-0.488584,-0.0127854
1.08009,-0.31565,0.799808,-1.45638,-1.64766,3.02451,0.294568,0.782936,-0.0148167,-0.939103,0.343625,0.00282196
1.45486,0.309709,-1.32738,0.0992241,-1.76585,-1.85701,-0.0290558,0.694082,0.23593,-0.190763,0.756261,-0.625842
0.960654,-0.634808,2.0757,0.509057,1.3414,2.75738,0.0853556,0.312582,-0.0127182,0.894722,-0.295859,-0.334575
-2.86586,-2.12941,0.873134,3.09488,1.76361,-0.222182,0.217524,-0.0518881,0.84761,0.51271,-0.849858,-0.121939
-1.94044,-0.612525,2.01106,3.14166,1.82714,0.043295,-0.0818328,-0.513327,-0.0367207,0.932229,-0.268918,0.242143
-0.940361,-0.610428,-1.39056,2.32766,-2.70942,2.648,0.17912,-0.060286,0.599643,-0.0588954,0.706412,0.705347
-0.142351,0.309725,-1.40853,3.14168,-0.297108,-2.12183,0.50926,0.0372779,0.352024,-0.95473,0.291676,-0.0584422
2.4697,-2.03705,-0.964628,-0.508985,2.30818,-2.57205,0.412303,-0.467385,0.61177,0.126976,0.695519,0.707199
2.77061,0.0171397,0.143258,-0.858194,-2.9524,2.33741,-0.853152,0.214751,-0.0532981,0.870569,-0.478625,0.114134
0.40158,-0.213088,0.496206,-0.318105,-1.0741,2.29702,0.689396,0.41134,-0.0251299,0.0388184,0.650748,0.758301
0.722263,0.30974,-1.04432,-0.935013,1.99466,0.0104294,0.520631,0.60419,0.231867,-0.640774,0.650196,0.408232
1.10797,-0.0864517,0.311134,0.0255284,-1.65149,2.16838,0.251642,0.748791,-0.0532395,-0.430044,0.394234,0.812184
1.26034,0.309701,-2.06719,1.85869,1.68898,-0.0789933,-0.0054368,0.340343,0.250898,-0.909312,0.406181,-0.0903825
0.610013,0.309567,-0.540957,1.07884,-1.92453,-1.45123,0.524042,0.499441,-0.0130092,-0.523493,-0.502403,-0.688147
-0.556602,-0.492743,1.50602,3.14161,0.777398,1.55472,0.619987,-0.257218,0.00742737,-0.709296,0.454622,-0.538719
-1.83902,-0.966147,-1.78665,-0.254002,1.27981,-2.21371,0.134043,0.0758431,0.681289,-0.537121,0.21285,0.816208
1.00977,-0.297971,-0.825554,1.50237,1.05131,-2.76416,0.195381,0.516073,0.479657,0.83888,-0.18172,-0.513088
-0.0668175,-0.607194,1.99008,-3.14155,0.980953,2.11159,0.521429,0.0745016,-0.0360186,-0.922265,-0.367066,0.121202
-0.250102,0.204154,-0.0960807,1.46803,-2.41559,-1.57585,0.716365,-0.0703411,-0.038812,-0.968012,0.250739,0.00907845
-1.16262,-0.917026,2.59977,1.40661,-1.52768,2.03767,0.183428,-0.149162,0.131249,0.423555,0.15348,-0.892774
-0.279358,-0.631589,2.06772,0.493009,2.08901,2.2843,0.325234,0.0202559,-0.0154118,0.633115,-0.773104,0.0384285
0.826688,-1.9623,-1.36071,1.99231,-0.106758,-0.386894,-0.38919,-0.261582,0.388724,0.17252,0.0416974,-0.984123
3.06552,-1.25771,1.4808,0.859762,-1.87742,-2.86501,-0.436876,-0.0761661,0.362345,0.306533,-0.943152,0.128459
1.54301,-1.89846,0.548626,1.06507,1.10115,-0.491182,-0.109781,-0.0211779,0.783423,-0.79296,-0.228546,-0.564784
-0.550424,-1.79371,2.66937,-2.22049,1.29117,0.409159,0.269759,-0.0374834,0.181204,0.0824243,0.98405,-0.157646
-1.70195,-0.384255,0.967677,-0.405083,-0.0904289,0.783235,0.016068,-0.712806,-0.0607549,0.0110187,0.572859,0.81958
-2.7109,-0.759512,2.46804,-2.94495,-2.78205,-1.09775,-0.26679,-0.242699,-0.0377974,-0.958192,-0.263839,0.110713
-2.80103,-0.606061,2.13107,-3.08746,-3.12651,2.3972,-0.398922,-0.257166,-0.0613752,0.64808,0.217892,-0.729737
-0.323808,-2.10946,-2.21643,-0.474936,1.60175,-0.421918,-0.401515,0.24989,0.0823038,-0.0942102,0.993474,-0.0642936
-1.85677,0.27761,-0.270696,-1.47072,2.43883,-2.51603,-0.14778,-0.889516,-0.0401354,-0.648258,-0.347388,-0.677557
-1.33399,-0.696189,2.12809,-3.14165,-1.05238,-2.21124,0.217338,-0.435306,-0.0136509,0.681226,-0.610305,0.404302
-0.0162575,-0.0329336,0.398202,3.14169,0.618729,-2.90106,0.826625,0.0957244,0.0514439,-0.662897,-0.552599,0.505175
-1.69997,-1.42744,-3.07093,-0.88915,0.06988,0.738687,0.120668,0.0816141,0.0673422,0.0428675,-0.070752,0.996572
0.0862598,-0.146812,0.696367,1.24445,2.65047,-2.31353,0.650753,0.165831,-0.0325937,-0.556679,-0.368284,0.744631
-0.452025,-1.52334,2.8532,2.563,-1.44805,-3.05223,0.208124,0.0202811,0.201934,0.406393,0.901557,0.14846
-1.3189,-0.398341,1.25633,2.28127,1.52079,0.38282,0.267217,-0.600364,0.0519126,0.908992,0.185162,-0.373429
-1.22753,0.309709,-1.74497,-0.0983124,-1.86173,-2.34475,0.288691,-0.483404,0.344757,0.868548,-0.440576,-0.226973
-1.22722,0.309799,-1.41683,1.7066,-2.17188,-0.953938,0.280232,-0.459262,0.232268,-0.513272,0.0183805,-0.858029
-2.74785,-1.0546,1.18306,-0.908096,-1.30962,2.99115,-0.572542,-0.356052,0.34122,0.296088,-0.911316,0.28607
-0.101056,-2.27199,2.96955,-0.823305,0.215347,-0.501294,0.0491323,0.104728,0.0680265,-0.766739,0.266104,-0.584208
-0.11303,-0.0103386,3.00542,-3.14228,1.68486,-2.83543,0.0627987,0.102722,-0.0573379,-0.169584,-0.934136,-0.314057
0.264086,0.309545,3.0223,-3.1394,2.87788,-2.54358,-0.0270181,0.105764,-0.0590337,-0.803717,-0.440493,-0.400006
-0.0169352,-0.172706,2.74503,-0.660234,0.582805,-1.13978,0.000945426,0.10915,-0.0175558,-0.735387,0.242429,0.632799
0.791988,-0.627732,-1.87056,1.32166,-1.59515,-0.624246,0.00486392,0.160317,0.537703,0.961755,-0.180279,-0.206223
-0.0206659,0.309985,-1.46928,1.68104,-0.490106,1.93915,0.516611,0.0984956,0.236964,0.74373,0.154163,0.650461
-0.0200725,0.180355,-0.22536,0.543409,-0.594671,-2.04306,0.766751,0.0937793,-0.0525651,-0.0895984,0.256701,-0.962329
-0.403071,-2.10507,-0.687816,0.644417,2.77153,2.74464,-0.422421,0.298788,0.640642,0.00313486,-0.363948,-0.931414
-0.121634,0.309623,-1.39007,-0.0345725,0.0263708,-0.59131,0.682762,0.0265036,0.264032,0.136905,0.00531895,-0.99057
0.891389,-0.654796,2.42862,1.8429,1.80353,-0.352831,0.104407,0.302981,0.0479555,-0.731945,0.546979,0.406289
-0.127449,-0.994553,-1.50925,-1.60878,-2.21931,-2.45974,-0.146508,0.128817,0.732512,-0.174777,0.646238,0.742852
1.20332,-0.815216,-2.30081,-1.50541,1.97099,1.83723,-0.171902,-0.142724,0.417131,0.574803,0.818163,0.0145329
2.55015,-0.338446,0.826602,-1.30062,-1.55441,-2.71168,-0.738282,0.364382,-0.0187882,-0.766445,-0.580074,-0.27582
2.16169,0.137178,0.0548085,-2.27743,0.80101,-2.86777,-0.585599,0.676989,0.00278528,0.626699,0.306711,0.716364
-0.255931,-0.601318,2.82045,-3.14214,1.12195,-2.55532,0.210533,0.0577348,-0.0401778,0.447839,-0.89295,-0.0456136
1.41462,-0.498968,2.95432,-3.14233,-2.15639,-1.11712,-0.0876389,0.145152,-0.0291938,0.478607,0.691303,-0.541327
1.1116,-1.82256,1.21379,-1.50412,-1.62908,-0.0914387,0.033791,0.314601,0.773907,0.912552,-0.397339,0.0967988
2.23037,0.217113,-0.890947,3.14088,-2.02356,-1.29072,-0.492176,0.456602,0.316289,0.622107,-0.396631,0.675031
1.46481,-0.554604,2.48981,2.56305,-2.68399,-1.61423,-0.0753219,0.323771,-0.0334124,0.0850756,0.981022,0.174237
0.141187,0.310407,2.8275,0.0377786,-2.08514,-0.669109,0.000152135,0.110269,0.0524919,-0.264794,-0.727389,0.633079
-1.15954,0.309915,2.83616,-0.816305,-0.855282,-2.64295,0.0775955,0.0951173,0.0264361,0.310371,0.94645,-0.0888925
-1.15242,0.309958,2.86077,-1.4344,1.70353,2.91143,0.0669527,0.118078,-0.0134531,-0.781785,-0.617091,0.0895063
-1.15038,0.30983,2.78966,-1.57413,0.0033108,1.79187,0.0663038,0.119126,-0.0612323,0.401199,-0.89917,-0.174736
0.0771627,-0.335973,2.65811,-0.629865,0.245304,2.8498,0.0309977,0.111872,-0.0459015,0.190382,-0.218561,-0.957071
0.548223,0.0472916,2.75573,-1.23069,0.0254371,2.30484,-0.0911154,0.0722516,-0.0610694,0.641666,0.371879,-0.670799
0.0618508,0.309418,2.83259,0.128287,1.52373,-0.556653,0.0179216,0.110469,0.053776,0.0547986,0.853107,0.518851
-0.0928223,0.309989,2.81679,1.14721,-1.83579,-1.1255,0.107929,0.0995748,-0.00611843,0.727407,-0.485204,0.485238
1.00996,0.0728081,2.81337,0.170114,-2.30255,-0.41736,-0.0731292,0.0887832,0.0534491,0.233871,-0.906375,0.351837
-1.3781,-1.04292,-1.42123,0.580295,-2.84499,-2.32344,0.10684,0.022389,0.731319,0.367632,-0.840899,-0.397159
-0.271788,0.0483327,0.230176,-2.59077,-0.846573,0.518271,0.868755,-0.128799,0.0247109,-0.152156,-0.633042,-0.759017
2.0837,-1.35118,-2.34626,-2.47888,-0.802249,2.51098,0.0279176,-0.272006,0.202866,-0.810711,0.256246,0.526389
2.48243,-0.490983,1.54623,-2.7572,1.57175,-0.792034,-0.590176,0.319172,-0.0393443,-0.987955,-0.123111,0.0937501
2.02029,0.310216,-0.643605,1.09145,-1.47804,-3.06037,-0.406936,0.592311,0.0190526,-0.898729,-0.421079,-0.122386
-1.56523,-0.324814,3.00239,-2.33639,1.71599,-2.60785,0.109261,-0.0197242,-0.0399534,-0.853439,0.282865,-0.437755
1.07218,-0.867215,2.72447,-1.14041,0.694028,2.90098,-0.0471129,0.141723,-0.0343875,0.889583,0.334709,-0.310824
1.5035,-1.18623,-0.146939,-1.72881,1.65606,0.404646,-0.0914656,0.266054,0.958696,-0.921182,-0.0475057,-0.386221
1.05593,0.309873,-1.2609,2.45726,2.93485,0.856347,0.169992,0.522126,0.272749,0.274539,0.758381,-0.591174
-3.03026,-0.123888,-3.06854,3.14165,0.434349,2.33807,-0.0224617,-0.112341,0.0272174,-0.621159,0.224503,0.750839
-1.07659,-0.671221,2.32644,2.19163,1.93852,3.05224,0.267361,-0.266103,0.0347025,-0.716334,-0.62995,-0.300048
0.0260632,-0.394826,2.95592,0.38644,-1.54232,-2.20837,0.0431941,0.110313,0.130382,-0.187037,0.590334,0.78519
-2.15369,-1.90265,-2.48686,1.25157,2.44789,2.2996,0.23566,0.159141,0.21364,-0.635856,-0.190842,-0.747841
1.09773,-0.441282,-1.97657,2.6686,2.16433,-1.72304,-0.0666931,0.109262,0.438732,-0.0372654,-0.348748,-0.936475
-0.505606,-0.422677,1.318,2.23971,-1.63267,0.340649,0.605997,-0.210723,0.0520263,-0.504703,-0.795866,-0.334474
-0.505663,0.309884,-2.5869,1.64677,-0.150053,-2.98868,0.233075,-0.00428465,0.181521,0.840782,-0.296642,0.452868
0.35492,-1.72891,2.81951,1.96742,-0.828683,1.44718,0.0618201,0.139316,0.255289,0.18712,-0.027566,-0.98195
-0.713523,-1.60392,2.07444,-1.61324,-1.792,-2.63803,0.390239,-0.193453,0.296809,0.830893,0.410956,-0.375142
0.25377,0.309767,-2.14296,-1.92585,2.20639,-1.74855,0.212871,0.167972,0.4156,-0.433022,-0.259307,0.86328
0.145631,0.309984,-1.4026,-2.43071,-1.8086,-0.00264456,0.528324,0.187807,0.395605,-0.0762378,-0.993434,-0.0853007
-0.110129,-2.36563,1.59375,-0.916805,3.00262,-0.0832905,0.0832992,0.100604,0.671552,-0.0180876,0.140884,0.989861
-2.15909,-0.0619055,0.0691309,-2.73944,-0.200228,-1.5604,-0.383172,-0.77109,0.199447,-0.22778,-0.337734,0.913265
2.50079,-2.36853,1.43693,-0.306457,-1.81478,-0.326971,-0.0806844,-0.0759887,0.669844,0.246157,0.962816,0.11132
1.32103,-0.0424548,0.42024,2.45333,2.6158,1.91389,0.0821612,0.763678,0.0526351,0.303198,0.505502,-0.807798
1.17185,0.310037,-2.77648,-0.533603,1.37303,0.697999,-0.0571146,0.145505,0.298359,-0.669536,0.345576,-0.657495
1.03507,-0.523549,1.61251,0.713151,0.698923,0.333286,0.139789,0.449305,-0.0242509,-0.275599,0.726792,0.629141
0.0464786,0.309594,-2.57176,-2.66194,1.643,1.9314,0.057023,0.11192,0.241962,0.924811,-0.309285,0.221511
-0.0662407,0.152587,-0.173946,-0.612399,1.23112,-2.56371,0.873593,0.0514378,-0.0433314,0.494883,-0.824327,-0.27491
-1.85233,-2.16148,-1.92166,-1.1263,-0.37517,1.57791,0.257866,0.498738,0.0798919,-0.242577,-0.848122,0.471005
0.167991,-0.541886,2.80845,0.880693,0.357237,-1.03412,0.0933827,0.126545,0.101927,0.447162,0.257176,0.856683
-2.63939,-2.04223,-2.74435,0.144802,-1.56314,-0.818048,0.278997,0.0286898,0.0833067,0.308712,0.949463,0.0567103
-2.35601,0.309682,-3.03112,-0.358727,-1.4292,3.0434,0.0401064,-0.114268,0.21411,0.800144,-0.593135,-0.0892252
-2.43898,0.24351,-0.350673,-0.379988,2.67186,2.35257,-0.575681,-0.630493,-0.0549977,0.471104,0.816796,0.333025
-1.93208,-2.4063,-1.39623,2.72561,-2.22703,2.04428,0.293513,0.467965,0.0885998,0.661573,0.72871,0.176928
-2.38106,0.309585,-2.54015,0.870771,-0.062658,-0.339327,-0.110895,-0.256174,0.249783,-0.133696,-0.0457038,-0.989968
2.97688,-0.955465,-1.36479,-0.298651,-1.9247,-1.54796,-0.0429097,-0.103515,0.805369,-0.482052,0.101835,0.870204
1.20289,-0.338402,1.08558,1.89964,-2.81164,-1.83776,0.129676,0.639894,0.0469891,-0.165489,-0.191681,0.967405
-0.0548289,0.284515,-1.08074,1.35719,0.562074,-2.27069,0.636936,0.0743567,0.170069,0.0356744,-0.345761,-0.937644
-0.0345384,0.309646,-1.98435,-1.12337,-2.38888,-0.688958,0.399515,0.095411,0.438907,-0.334372,-0.516455,0.788333
-0.449516,0.197008,-0.244897,1.21457,1.3647,-2.72299,0.697301,-0.21523,-0.0124688,-0.659008,-0.675022,-0.331744
-1.99966,-0.174487,-0.456759,1.3021,1.87661,2.10114,-0.181997,-0.660503,0.320289,-0.612072,-0.178627,0.770364
1.06309,-0.21371,0.796142,2.06694,0.198363,-2.2803,0.244052,0.66318,0.0469502,-0.335773,-0.867594,0.366792
0.959107,0.31009,-0.619274,-1.97726,-2.59206,-0.502103,0.398646,0.758401,0.140928,0.301737,-0.367083,0.879889
0.960933,0.309798,-2.48509,0.554703,-1.61725,-2.50415,0.0688166,0.28906,0.28704,-0.316529,0.948552,-0.00765006
0.843315,-2.19845,-3.07552,-2.84914,-0.27365,1.72601,-0.0479071,0.110333,0.126317,-0.690865,-0.713087,-0.119218
1.41426,-0.457003,-1.52704,-1.88259,2.63372,0.0772638,-0.0827014,0.176144,0.706769,-0.57261,-0.51793,-0.635505
2.28424,-0.565961,1.76696,-3.12633,-1.01474,-2.41883,-0.468167,0.374121,-0.01582,-0.797662,-0.051745,0.600881
1.85507,-0.291049,0.7259,-1.10706,-2.1231,2.99227,-0.335256,0.758215,-0.0281883,-0.668225,-0.714675,-0.206673
1.41491,0.309924,-2.80112,-2.0204,-1.68325,0.734119,-0.107852,0.0167808,0.215924,0.828128,0.517561,-0.215252
0.190729,-1.55822,-2.7837,1.68665,1.46408,-1.34231,-0.111449,0.0896477,0.232163,0.425225,0.311471,0.849806
-0.489051,0.309793,-1.61392,-0.513032,-0.717677,2.53251,0.580881,-0.185483,0.361061,-0.369433,0.807597,0.459682
1.32673,-1.73062,2.79232,0.442588,-1.22893,2.47006,-0.0988835,0.0546125,0.159945,-0.561473,0.797568,-0.220528
2.84056,-0.618917,-0.524414,-0.4936,-2.84087,-3.11302,-0.608459,0.0746198,0.698934,-0.17528,-0.255615,-0.950757
2.52101,0.309788,-2.04862,0.419747,2.81221,-1.90167,-0.413972,0.161738,0.322747,-0.621769,0.573605,-0.533274
2.11425,-1.50845,0.36609,1.99655,-1.46069,1.76819,-0.154479,0.0446193,0.807961,-0.556502,0.544186,0.627827
0.951392,0.309732,-2.53369,2.26404,1.22081,0.896407,0.00553278,0.195771,0.176556,-0.583626,0.191825,0.78904
1.15485,-1.59956,-2.86925,-0.886263,1.14839,1.82467,-0.17362,-0.122921,0.0765843,0.547557,0.672655,0.497712
-1.98601,-0.659096,2.12239,1.57887,1.88193,1.98942,-0.0488398,-0.381376,0.0536267,-0.440637,-0.0401941,-0.896785
-2.67478,-1.33167,-0.449036,2.17402,-2.38046,-2.98145,0.0646123,-0.0896652,0.798283,0.95059,-0.283435,0.126661
-1.52543,0.10745,0.112746,2.97066,0.467558,-2.10843,0.145768,-0.804206,0.0524401,-0.24936,0.403399,0.880391
-1.71134,-0.643296,1.67229,-0.184723,-2.87989,-1.75188,0.0420141,-0.482218,-0.054857,0.165321,0.835908,-0.52338
0.644028,-2.02983,2.81948,-1.45018,-1.23287,-1.12557,0.051172,0.174913,0.116882,0.596597,-0.060143,-0.800284
2.2322,0.130828,-0.137988,0.23151,-1.02073,1.27658,-0.572938,0.558384,-0.0557536,0.155088,0.203233,0.96677
0.391024,-1.05845,2.00216,1.10546,-0.715601,-0.179281,0.286129,0.236019,0.185538,0.415735,-0.526873,0.741329
0.914406,-1.496,2.41071,2.28926,2.84267,1.75618,0.0825378,0.286003,0.296623,0.112898,0.0576079,-0.991935
-0.612798,-1.70956,1.68422,1.52196,1.58209,1.51104,0.25825,-0.048145,0.512995,0.848726,-0.523728,0.0732997
0.413467,-0.606257,1.71333,0.483203,1.5612,0.157918,0.349977,0.27275,-0.01766,-0.252616,0.967545,0.00640754
1.86851,-1.84985,-0.0721386,-3.14159,2.23856,0.422252,-0.00435842,-0.3579,0.833466,-0.854608,0.343546,-0.389387
-0.336472,-0.618485,2.24846,-3.14159,-0.019399,-2.92158,0.43018,-0.0348309,-0.0615872,0.266372,-0.0731148,0.961093
0.550064,-1.12437,-2.12752,0.0686445,-2.44259,-1.89292,-0.236351,-0.016892,0.523897,0.0662515,0.279578,0.957834
-1.04192,-0.565245,1.77149,-3.0987,-2.29223,0.0660362,0.391194,-0.453057,-0.0197511,-0.783571,-0.144106,0.604359
-0.637366,-0.212142,2.97982,-2.64117,0.456475,1.5884,0.0957996,0.0648795,-0.0585213,0.109364,-0.0906358,0.989861
-1.27742,-2.10938,-2.41955,0.902033,-0.391013,-0.392273,0.00798566,0.351008,0.152047,-0.170177,-0.654498,0.736663
-0.622032,0.309801,-1.53367,1.49007,1.80486,-2.61192,0.480706,-0.210351,0.237154,-0.754083,-0.492246,-0.434802
-0.620258,0.309904,-2.99507,0.706812,-2.43742,1.69317,0.177003,0.00770247,0.169946,-0.665548,0.57252,-0.478818
-1.14874,-0.588076,1.90252,-3.07231,0.867825,-1.76555,0.323258,-0.453428,-0.0368969,0.250666,-0.918642,0.30539
-0.184797,0.15435,-0.117313,-0.937469,0.473505,-3.08891,0.891065,-0.0555258,-0.0495074,0.499633,-0.55666,0.663699
-3.08687,-1.40754,0.204979,1.26331,-0.860596,-1.24415,-0.198251,-0.120173,0.779988,0.252606,0.257491,-0.932678
0.211064,-0.552176,2.44661,2.76139,-3.02895,-0.507279,0.301368,0.176197,-0.0544464,0.446836,-0.00474321,0.894603
0.639457,-0.643524,2.24561,2.72639,-1.70979,-2.14598,0.268255,0.335527,-0.01244,0.325447,0.913429,0.244399
0.798928,-0.598608,1.9348,3.1416,0.275364,0.0348798,0.294471,0.459042,-0.0308596,-0.0624544,0.325426,-0.943503
0.566762,-0.617469,-0.95761,1.51907,-1.63253,1.52506,0.236791,0.280075,0.632968,-0.0203046,-0.0670105,0.997546
-0.0862258,0.309923,-2.95826,1.49188,1.91904,-0.377834,0.154759,0.0961797,0.107165,0.538896,0.830348,0.141825
-2.43851,-1.04309,0.412219,1.21539,-2.90705,0.437275,-0.294473,-0.392669,0.608777,-0.874942,-0.465596,-0.133027
-1.49295,-0.694375,2.43382,-3.14159,2.49869,-2.14789,0.136354,-0.344501,-0.0414534,-0.267553,-0.776028,-0.571136
-0.354836,-0.482753,1.13355,-1.25952,-1.16376,-2.09672,0.734289,-0.155667,-0.0288281,0.77679,0.203808,-0.595868
-0.47404,-0.656838,1.59111,-0.951948,-2.30711,1.09232,0.558214,-0.163719,-0.0613992,0.105377,-0.4375,0.893023
-0.906108,0.0520318,0.216004,2.19842,-2.78255,1.00491,0.544522,-0.5179,0.0370588,-0.0645744,-0.223032,-0.97267
0.927637,-0.155263,-2.16093,3.14159,-0.984936,-0.414502,-0.036792,0.132909,0.378917,0.226951,-0.968889,0.098728
-0.984788,-0.662031,2.39524,0.762824,2.56897,1.22316,0.209757,-0.118636,0.0389293,0.340139,-0.178645,-0.92325
-2.45386,-1.87849,-1.90371,2.57596,-0.261447,0.555414,0.34341,0.14086,0.226011,0.467372,0.668191,-0.578865
-3.04326,-1.15625,0.981338,0.117099,-1.0971,-2.80869,-0.549477,-0.163886,0.451931,-0.364556,-0.881079,-0.301328
-2.00465,-0.987286,-2.91461,-0.703477,0.227498,2.00289,0.159649,0.084945,0.18363,-0.446931,-0.740001,-0.502644
-2.57183,-2.08165,-0.0316249,-0.247961,2.98885,0.954232,0.348288,0.0934966,0.863098,0.872764,0.454634,-0.177736
1.94159,-1.43368,1.26136,-1.0514,-2.98303,1.2321,-0.295065,0.457729,0.54523,0.329849,-0.703637,0.62936
0.182188,-0.775412,2.27949,-2.4414,3.10635,-2.13221,0.379449,0.180893,-0.0607416,0.364635,0.0481052,-0.929907
-0.401056,-0.946962,-2.68363,3.14159,-1.80765,-1.22193,-0.00669427,0.121396,0.166296,0.341883,-0.5059,-0.791948
-1.41608,-0.311755,-0.750034,2.91333,2.65488,-0.15098,0.185625,-0.481867,0.588267,0.397297,0.453267,-0.797938
-1.17153,-0.498429,1.3886,0.246425,-2.85171,0.867287,0.308253,-0.449809,-0.0523376,0.199947,-0.949558,-0.241579
0.685786,-2.38115,-1.84607,2.62971,-0.489449,-2.59994,-0.37578,-0.166457,0.0376323,0.128112,0.625352,0.769755
-1.39794,-0.630711,2.15376,-3.1416,2.7469,2.52751,0.186039,-0.43092,-0.0474951,-0.40239,0.477438,-0.781112
-2.00132,-0.62961,2.28165,-3.14175,3.06368,-1.68017,-0.0702597,-0.41452,-0.0592108,-0.417531,-0.888794,-0.18898
-1.94948,-0.61348,2.1979,-3.14165,3.07643,-0.735393,-0.0600656,-0.446204,-0.0596597,-0.206846,-0.650473,0.730821
-0.556054,0.30989,-2.27344,2.5471,-2.90031,-0.765356,0.229587,-0.0141698,0.242951,0.0811585,-0.253314,-0.963974
-0.914147,-0.545546,1.68309,3.1415,-2.58776,3.12028,0.461209,-0.419592,-0.00657859,0.622645,0.0535196,-0.780672
2.32401,-2.35276,-1.77368,0.204225,0.342866,-0.396779,0.319144,-0.499953,0.131139,-0.462296,0.0397256,0.885836
-0.239404,-2.07796,-2.6294,3.14159,0.757209,-0.683297,-0.0846206,0.133009,0.0679415,0.736898,0.368457,-0.566764
1.63974,0.310128,-2.04731,-1.08434,0.676429,2.13951,-0.134348,0.361142,0.436133,0.38206,-0.63894,-0.667673
1.55551,0.309941,-2.67662,3.14167,-1.98166,0.742942,-0.108247,0.0599267,0.166351,0.685555,0.673076,0.277458
1.68555,0.00487371,0.0880139,0.483326,1.37663,-0.873989,-0.195911,0.746461,-0.0286621,-0.565837,-0.590352,-0.575598
1.31773,0.192398,-0.240543,0.817643,-1.93941,-0.30986,0.0803796,0.746759,-0.0412123,0.8687,-0.189207,-0.457779
1.14126,-0.543015,1.31796,-1.8134,-1.49846,2.48842,0.202968,0.7052,-0.0137237,-0.926057,-0.1197,0.357898
0.110078,-1.36433,-0.349327,2.05631,-1.78929,1.48797,-0.0125066,0.108432,0.804239,0.358469,-0.0416347,0.932613
0.387144,-0.608246,1.83206,2.27035,-0.204969,3.1416,0.435537,0.295451,0.0519702,-0.927681,-0.15843,0.338094
0.295132,0.310151,-0.798203,2.87558,-0.526805,0.764814,0.624954,0.304075,0.212368,0.994,-0.0769639,-0.0777183
0.481144,0.120764,0.0789742,1.34884,-1.61796,2.90076,0.58041,0.426142,-0.0419713,-0.238458,0.969809,0.0510692
0.543326,0.30973,-0.540088,0.008469,1.37832,-1.31669,0.634782,0.510896,-0.0431498,0.014619,0.297077,-0.954742
0.533056,0.309931,-1.9876,1.68743,1.17834,3.11266,0.256297,0.277956,0.254904,0.798819,-0.601044,0.0251943
0.550066,0.0440429,0.255237,-2.33859,-2.30164,2.66408,0.696418,0.555078,-0.00246148,-0.467051,0.489353,-0.736476
2.33951,-0.720458,2.05943,0.800813,-2.47484,-2.71641,-0.30772,0.161159,0.0387825,-0.431506,-0.364213,0.825319
1.74945,-0.520454,1.55739,2.79776,0.549923,-0.898047,-0.219155,0.599397,0.035643,-0.481911,0.836068,0.262208
1.5397,0.30135,-0.440067,1.07713,-1.40455,1.874,-0.0867713,0.72103,-0.0386923,-0.269479,0.807801,0.524251
1.58152,0.309694,-1.17206,0.481867,-2.78881,2.546,-0.116595,0.693938,0.16962,-0.276035,-0.932634,0.232375
0.393742,-0.718436,2.45207,-0.36994,-0.934704,2.07851,0.109334,0.163616,-0.0376268,0.694548,0.712042,-0.102956
0.219043,-0.551766,1.70647,3.14162,0.339723,1.15596,0.568826,0.238451,-0.0085863,-0.69637,-0.0174308,-0.717471
-0.964232,-0.60855,2.44264,0.152207,3.11563,-1.42657,0.180897,-0.0692516,-0.00840414,-0.546125,0.793675,0.268006
1.48296,-2.03579,0.459044,1.18162,-1.14769,0.595655,-0.122456,-0.146303,0.77392,0.705414,-0.593827,0.38699
2.45386,-2.0711,2.89585,0.943324,-1.27853,-0.63688,-0.0457619,-0.103665,0.192562,0.904214,0.253503,0.343704
2.9968,-0.555733,1.78775,0.474438,2.86436,0.109448,-0.409208,-0.0506367,-0.0437797,-0.0183966,-0.272255,-0.962049
2.85046,-0.544171,1.65699,2.02272,0.719674,-1.78745,-0.54522,0.0494263,0.0520045,0.201186,0.0876329,0.975625
1.37434,-0.856115,3.04184,1.94433,-0.287866,-2.90527,-0.0814219,0.150077,0.141822,-0.332612,-0.257172,0.907321
1.89235,0.309766,2.78809,-1.41197,-0.417693,-1.05423,-0.077916,-0.111465,-0.046677,0.446686,-0.706988,0.548306
1.965,0.309738,2.79662,-1.33644,-1.85976,-0.429715,-0.0700483,-0.115796,-0.0354805,0.981089,-0.0896886,-0.171522
1.94277,0.310055,2.85976,-1.43863,1.53398,3.06462,-0.0723209,-0.11494,-0.0143264,0.902768,0.427382,-0.0485123
-0.941066,0.309823,2.81886,1.12245,1.01031,-1.73228,0.14552,-0.01436,-0.00335862,0.388057,-0.763767,0.515822
-0.941247,0.310264,2.82007,1.10493,2.0475,-0.240268,0.145079,-0.0137846,-0.00154888,0.701506,0.502681,0.505175
-0.940876,0.310079,2.82048,1.09916,0.10161,-2.05396,0.144955,-0.0135536,-0.000919357,0.297601,-0.488233,0.820404
-0.940776,0.310266,2.8214,1.08577,1.66985,-1.69627,0.144618,-0.013075,0.000466543,0.417221,-0.783578,0.460361
-0.846738,-0.576634,2.5557,0.323485,-1.26914,-2.29989,0.167968,-0.0251778,0.0241024,0.0213614,0.936114,0.351048
-0.717966,-0.647948,2.35559,1.43457,0.722743,1.10993,0.286762,-0.105554,0.0517351,0.444302,0.00248885,-0.895874
-0.661434,-0.654163,2.31426,1.47958,0.80358,2.4073,0.305435,-0.0994319,0.0517324,-0.733808,-0.105947,-0.671045
1.10547,0.114063,2.77962,-1.15761,2.81858,2.02529,-0.1206,0.00305979,-0.0398898,0.552932,0.790694,0.26281
0.539166,0.309913,2.84064,-0.400131,1.42769,0.508015,-0.0762648,0.0815651,0.0505592,-0.185987,0.896466,-0.40219
-0.904054,-2.23227,2.26395,-3.14159,2.2454,1.91442,0.168632,-0.0377853,0.506701,-0.0951332,-0.304561,-0.94773
0.11393,-2.29355,2.45898,-1.29218,-0.486169,1.41274,0.177599,0.130184,0.302648,-0.93702,-0.181244,0.298571
0.302358,-0.581047,1.75924,1.07232,1.49026,-2.40255,0.379626,0.23275,0.0195295,-0.316418,-0.870424,0.377149
2.4915,-1.77987,-0.432637,-2.50012,-0.344954,2.19618,0.266394,-0.339672,0.819104,-0.765287,0.333205,-0.550736
0.732014,0.310056,-0.8226,-2.15112,-2.63925,3.1095,0.514758,0.609277,0.235888,0.245963,0.867981,-0.431407
2.54102,-0.758474,2.34931,-3.14167,-1.99918,-1.23531,-0.387789,0.133324,-0.0125804,-0.611877,0.782119,0.117888
1.12555,-0.664569,2.1205,1.9049,-1.95976,2.92019,0.073805,0.408095,0.0539841,-0.679749,0.671588,-0.294807
0.977837,-0.614209,1.87808,2.00905,-2.18113,2.20567,0.176724,0.457583,0.0540071,-0.27364,0.463608,-0.842727
-0.832635,-0.981731,-3.0448,1.43893,2.82892,-2.62589,0.105968,0.0457173,0.219469,0.450351,-0.892707,-0.0160861
1.12523,0.308691,-0.576565,1.85933,1.90319,0.624566,0.198248,0.668357,0.0658157,-0.442349,0.853082,-0.276728
1.36239,0.0622007,0.194496,2.46418,2.79201,0.014407,0.0514779,0.770951,0.0495499,-0.511262,-0.762329,-0.396819
1.29973,0.0815456,0.159692,3.0649,1.39778,2.49316,0.114395,0.819268,0.0542019,0.693731,-0.435957,-0.573305
1.1852,0.309982,-2.93999,-1.88489,1.01788,1.57497,-0.112455,0.013165,0.170116,0.371925,0.906824,-0.19835
2.70486,-1.6095,0.90348,-2.58021,-2.28594,-1.74442,-0.289374,0.014623,0.861997,-0.0281043,-0.130823,0.991007
1.25951,-0.167315,0.467093,0.427415,2.13694,-2.08644,0.119956,0.729205,-0.0266053,0.15851,-0.866095,-0.474083
1.15217,0.309634,-1.50304,-0.598882,-0.0930569,-3.1121,0.161116,0.630632,0.345097,-0.162045,-0.135719,0.977406
2.87734,-0.943277,3.09002,-0.763816,-1.03029,2.0694,0.0265908,-0.12027,0.0865415,-0.984305,-0.158443,-0.077709
2.15719,-0.672618,2.15902,2.30963,0.404479,3.03142,-0.325048,0.292027,0.0381895,0.764001,-0.443138,0.468968
2.04762,-0.567979,1.77159,3.14162,-2.51007,-2.03767,-0.366581,0.471808,-0.0143472,-0.678466,0.734398,-0.0185226
1.65286,0.309963,-1.53699,0.81758,1.2662,-0.574506,-0.155889,0.563748,0.241998,-0.796925,-0.0802128,-0.598729
1.56796,0.30985,-0.399172,-1.40315,-1.10385,-0.728703,-0.106621,0.890114,-0.0128463,0.667981,0.635688,-0.386913
-2.23759,-0.0339384,-2.6946,-1.13745,0.836208,0.772639,0.0840569,-0.0696839,0.331918,-0.0908125,-0.974605,-0.204689
2.08344,-2.2331,-1.09659,-0.0640499,-1.27559,0.345223,0.233646,-0.637664,0.442615,0.613123,0.746183,-0.259405
0.711397,-0.448484,0.20362,2.17653,0.614464,2.56442,0.43999,0.523356,0.40195,0.518988,-0.190489,-0.833286
0.890266,-0.0834006,0.562795,1.23933,-2.5619,-0.698048,0.341728,0.595599,-0.0424089,-0.133266,-0.831557,-0.539215
-1.17857,0.309849,2.93054,-0.460034,1.18779,-1.92603,0.0935879,0.0593049,0.0868035,-0.471254,0.295238,0.831116
-1.17626,0.309384,2.84235,0.484214,-0.949886,-0.984966,0.122866,-0.0111276,0.0470553,-0.154345,-0.799226,0.580874
-3.13277,-2.27545,1.28863,1.34153,2.59183,1.30189,0.0928689,-0.108335,0.651427,-0.546014,-0.143635,0.825371
-1.51373,-0.588669,1.41386,-1.31354,1.48734,0.764736,0.146844,-0.656675,-0.0466198,0.696327,0.418344,0.583196
-1.22846,0.081555,0.187029,1.63327,-0.55044,0.0897476,0.341913,-0.634294,-0.0187882,-0.369654,-0.514628,0.773637
0.754143,-0.562698,-0.960091,-0.216759,2.06046,0.79847,0.269,0.402444,0.723579,-0.976453,-0.0723572,0.203234
1.70083,-0.323202,1.07424,1.35021,-2.57823,1.80627,-0.187078,0.588792,0.00435558,-0.245243,0.914487,-0.321823
0.161117,-1.06736,-1.95214,2.39355,-0.201061,-2.93757,-0.144681,0.0870677,0.432497,0.853336,0.336823,0.397955
-0.814199,0.310016,-1.66807,1.46346,2.91111,-0.619747,0.407221,-0.272374,0.248785,0.63427,-0.400998,-0.660986
-2.13593,0.309645,-1.72729,0.942353,0.65102,-1.02158,-0.179837,-0.487417,0.263152,0.255869,-0.187209,-0.948411
-2.07514,-0.496023,1.60339,-2.74731,0.229944,-2.07382,-0.215423,-0.616164,-0.0529085,-0.502889,-0.683725,0.528794
-0.175834,-0.556416,-1.92498,-0.0810706,-0.569836,0.539925,0.12037,0.0894733,0.633393,0.237176,-0.512135,-0.825509
-0.235335,-0.450712,1.47513,-2.59399,-3.11914,1.54338,0.687698,-0.0526508,-0.0609675,-0.972181,0.232474,0.0286286
0.158841,0.309684,-2.0997,-2.04493,0.749312,1.40841,0.238465,0.148741,0.415296,0.695243,0.222896,-0.68334
0.073205,0.309908,-2.95382,-0.31247,-1.03279,1.47519,0.0693273,0.114527,0.239835,-0.128877,-0.0916496,-0.987416
-0.716802,-0.761849,-3.06781,-2.56701,1.82208,-0.538044,0.0831891,0.0722853,0.0393824,0.750122,0.449564,-0.484984
-1.58075,0.309869,-2.76205,-0.510329,1.57161,-0.663386,0.107961,-0.120031,0.302202,0.786787,-0.116893,0.606055
-1.57581,0.309713,-1.92128,-1.17099,-0.570305,1.808,0.107031,-0.42259,0.440164,0.129509,0.526075,-0.840519
-1.77176,-2.30643,-0.289922,2.5879,2.32348,-1.82135,0.230667,0.585512,0.513042,-0.14512,0.194176,-0.970173
1.78542,-1.70505,-3.13898,-2.15393,1.46948,-1.16204,-0.118709,0.0320936,0.0499951,-0.507982,0.473771,-0.719371
-1.09273,-0.568935,2.72264,-3.14125,3.14163,2.40006,0.19865,-0.146129,-0.0614814,-0.446189,0.861165,-0.243538
0.100844,-0.83721,1.95563,-1.53289,-1.68318,-0.173778,0.480626,0.158341,-0.0345898,0.268401,-0.956564,-0.113782
0.560577,-0.874634,2.1139,-2.0854,-1.48162,-1.5711,0.34095,0.342907,-0.0183674,0.633982,0.398339,-0.662867
0.358837,-0.0891737,0.557723,1.4079,0.783041,-0.934039,0.601187,0.342066,-0.0216476,-0.746487,0.167992,0.643844
-1.66266,-0.546532,2.53782,-0.0440373,1.86766,-1.20573,0.0981451,-0.124476,-0.0132407,0.423167,0.871938,0.24628
0.072887,-1.39288,-1.94377,1.98069,-1.36212,-0.990753,-0.224493,0.0930489,0.411246,0.829942,-0.476999,-0.289254
1.34501,-0.0291638,0.407609,1.72733,-1.10658,0.550814,0.0520984,0.714357,0.00488007,0.886928,0.457813,0.0613652
1.39133,0.30966,-1.69366,-1.55222,-1.34995,1.11504,-0.0186947,0.508434,0.437735,0.406713,-0.163955,-0.898723
1.32169,0.310363,-0.406646,-1.47518,-1.21021,1.60052,0.113582,0.889223,-0.0028659,-0.273383,-0.961855,0.0098237
-2.19417,-0.0324817,0.164329,-0.690975,-1.73594,-1.29279,-0.415661,-0.765074,-0.0288425,-0.539891,-0.287162,-0.791237
-2.21228,-0.375838,1.10493,-2.05239,1.61776,1.92586,-0.379069,-0.689961,-0.0393462,0.268124,0.939344,0.213874
-1.63702,0.309741,-0.891128,-0.346677,-2.29429,0.330551,0.0554157,-0.813794,0.118299,-0.715012,-0.0683477,0.695764
0.613183,-0.437591,2.85528,-3.14171,-3.1153,-1.82062,0.0629412,0.177754,-0.061444,0.369749,0.268129,-0.889602
-0.990146,0.309491,2.99425,-2.53693,-0.810437,-2.9534,0.0649466,0.0999835,-0.0451185,0.791374,0.0913704,-0.604466
-0.932311,0.309876,2.78378,-1.44769,0.145046,-0.0543688,0.0391202,0.130435,-0.05213,0.127815,0.0699493,0.989328
-2.59272,-2.21037,2.4143,1.50178,3.01027,3.12858,0.025663,-0.112249,0.363451,-0.193069,0.0354047,0.980546
2.31946,-2.27335,-0.948838,1.46787,-0.970141,-2.72709,0.30974,-0.493735,0.399211,-0.758454,-0.29304,0.58213
-1.93704,-0.621186,2.09125,0.308717,0.442017,-2.00714,-0.00281379,-0.312133,-0.0342084,0.177014,0.966351,-0.186631
-1.91182,0.0931669,0.135026,3.07323,-0.650797,1.86644,-0.171488,-0.809568,0.0543302,0.2938,0.300111,-0.907532
-1.78803,0.309704,-0.703756,-1.53022,-1.55227,0.0526226,-0.0778599,-0.859179,0.142991,-0.965722,0.25713,-0.0355612
-1.76553,0.30971,-0.714281,-0.929087,-2.77825,-3.00257,-0.0588184,-0.862281,0.0917902,0.361336,0.0130975,-0.932344
-0.754501,0.0554017,-1.9515,2.68585,-2.04725,1.24949,0.243628,-0.0792152,0.370667,0.373041,-0.735841,0.565135
-2.79743,-0.987932,-0.794976,1.1822,1.34147,2.15057,-0.156006,-0.171867,0.749366,0.168416,0.627093,0.76052
-0.638903,-1.86255,-1.43602,0.196673,1.13079,-1.65436,-0.341035,0.389305,0.529453,-0.0417972,-0.0630179,0.997137
-0.984324,0.309843,-0.740659,-2.15354,0.511759,1.43474,0.539864,-0.615261,0.203712,-0.179097,0.389561,-0.903419
-0.961889,0.309801,-1.15847,-0.342826,-2.41359,-2.04444,0.519633,-0.554384,0.218887,0.649663,-0.40107,-0.645817
1.75426,-0.3244,2.73731,0.306894,0.0544799,-3.09165,-0.120352,0.0503326,0.0497844,0.223195,-0.904771,-0.362731
-1.47955,-1.35904,-0.383742,1.73036,-1.05921,-1.39507,0.110826,-0.0133324,0.796486,-0.158488,0.0591577,-0.985587
-0.719648,-1.29534,1.63398,2.20186,1.53028,2.4891,0.396853,-0.202681,0.445886,-0.285021,-0.805888,-0.518948
-2.24681,-1.05542,0.427333,0.914989,-2.78531,-1.99718,-0.227744,-0.458385,0.59866,0.506342,0.400726,-0.763568
-1.89102,0.309833,-2.02766,-0.564934,-0.0267656,0.770255,-0.0282748,-0.432015,0.409432,0.000157938,0.0614984,-0.998107
2.26055,-1.91281,2.14213,0.111013,-2.80508,-1.61315,-0.216461,0.0908768,0.311158,0.225411,-0.295223,-0.928457
0.0194621,-1.96846,2.84922,-2.27108,-3.05665,-0.887035,0.176061,0.112598,0.161495,0.876468,-0.0365444,0.480071
-2.34668,-2.31793,-0.870647,-0.859789,-3.03045,-0.877966,0.606786,0.462593,0.440864,0.647788,0.761387,-0.0257005
-0.877347,-0.497799,1.55088,0.867294,0.634773,1.61783,0.38987,-0.29831,-0.0163355,0.570141,-0.72958,-0.377693
0.733198,-0.729781,1.17127,2.35477,3.09418,-1.41258,0.40202,0.508994,0.293967,-0.363419,-0.31728,0.875934
-1.04079,0.30974,3.00907,-1.03991,2.3763,-0.658851,0.0672671,0.101104,0.0903255,0.0500247,0.998136,-0.0349692
-1.68769,-1.3602,2.0843,0.893605,1.04236,-0.539614,0.0748001,-0.298895,0.249357,0.793323,0.403184,0.45616
-3.01599,-0.192249,-0.343976,2.17817,2.1837,0.433835,-0.641082,-0.190965,0.37749,-0.286193,-0.784234,-0.550518
2.44081,-0.679095,-1.35078,-2.53385,-0.122514,0.802934,-0.118756,-0.0426179,0.721753,-0.56711,0.589486,0.575232
3.13345,-0.628576,2.25363,-3.14161,-3.07708,-2.83066,-0.417882,-0.10575,-0.0577482,-0.254481,-0.059303,-0.965258
0.391317,0.309584,3.02612,-2.85369,-1.01842,1.24066,-0.0637828,0.0917591,-0.0485269,0.371307,-0.145325,0.917067
0.252545,-0.659318,2.23657,1.55994,0.454191,3.04002,0.295139,0.188888,0.0519119,-0.756125,-0.645894,-0.105333
0.447676,-0.567751,1.7701,3.14159,0.970609,2.67727,0.482714,0.352877,-0.0141386,-0.221156,-0.924717,0.30982
-1.5935,0.310042,2.77955,1.62706,3.14161,2.02244,0.106678,-0.110116,-0.0613002,0.0204751,0.901352,-0.432603
2.23221,0.310013,2.80982,1.24298,-2.15514,-1.98497,-0.148483,0.0130595,-0.0166123,-0.83987,0.532543,0.104959
2.11729,0.310029,2.78337,1.54304,-0.150587,-2.29662,-0.149027,0.0349645,-0.0522183,-0.446782,0.542881,0.711102
2.11081,0.310628,2.83907,0.689415,0.720096,1.79897,-0.131263,0.00667998,0.0349776,0.516642,-0.571724,-0.637348
2.11173,0.310315,2.84084,0.62081,0.115664,-2.74085,-0.128716,0.00230817,0.03959,0.353141,-0.381518,0.854246
2.10613,0.310168,2.83971,0.312782,-0.611091,-3.04095,-0.115485,-0.0192523,0.0525053,-0.112722,-0.928997,0.352502
2.23803,0.309442,2.80092,1.35873,1.40773,-1.85671,-0.15048,0.0146372,-0.0297121,-0.350777,0.894999,0.275559
-2.4218,-2.23105,2.2173,0.553515,-2.16571,3.04096,0.00961242,-0.13673,0.34904,0.86406,-0.338312,0.372754
-2.89468,-2.30664,2.15889,-1.7925,-3.02972,2.68349,-0.158506,-0.152515,0.496119,0.11229,-0.0749601,-0.990844
-0.924759,0.309806,-1.30196,-1.44017,0.973708,-0.00299768,0.497089,-0.477992,0.359806,0.918346,0.155633,-0.363895
-1.41351,-0.795993,1.19245,2.30316,2.32835,-2.55889,0.20471,-0.593926,0.326932,-0.55477,-0.37478,0.742812
-0.974304,-0.384643,1.20311,3.04945,-1.64755,-2.08166,0.497479,-0.538359,0.0330104,0.744489,-0.228636,0.627266
-1.22943,-0.486294,1.56415,0.59823,0.211983,0.474254,0.259269,-0.403724,-0.0478191,0.359014,-0.451403,0.816912
-2.227,-0.0764941,-2.30647,1.18107,-0.981955,0.360883,-0.0522285,-0.246728,0.357346,-0.301183,0.884079,-0.357343
-0.93887,-0.62474,1.89061,1.41838,-0.481007,2.29453,0.336576,-0.274979,0.0485036,0.131534,0.338991,-0.931549
-2.81615,-2.12698,-1.70607,0.981568,-1.52713,0.932737,0.50814,0.056273,0.290673,0.00384523,0.629334,-0.777125
0.334616,-0.362546,1.18447,-2.79385,1.52782,2.43611,0.674029,0.349913,-0.0104628,-0.3261,-0.918642,-0.223058
-2.37114,-0.620175,-0.301775,-2.60921,2.86581,-0.551285,-0.316456,-0.459244,0.736255,0.84841,0.500187,0.173243
-1.8532,0.309864,-1.88312,1.07807,2.21872,2.71005,-0.0202306,-0.46141,0.268532,-0.505745,0.855956,0.107525
1.53131,-1.29132,0.0484128,0.955776,1.89944,0.633291,-0.098391,0.274463,0.778247,-0.759113,0.11198,0.641254
2.96876,-1.36763,1.30561,-3.0633,1.62329,-2.75899,-0.490425,-0.0251836,0.624369,0.105391,0.92203,0.372495
1.87321,-0.20213,-0.414843,2.24641,2.13601,2.75334,-0.295338,0.580161,0.406971,0.624944,0.621296,0.472691
0.653421,-0.645351,1.991,2.07756,1.01166,-1.29961,0.293652,0.362292,0.0533587,0.182935,0.426051,0.886011
0.528165,-0.566259,1.72837,1.97815,-2.28039,-2.51029,0.389315,0.353517,0.0518669,0.144981,0.793612,0.590899
0.9521,-0.628227,2.19051,2.93007,-0.426622,2.31654,0.166017,0.421386,-0.0326411,-0.722684,-0.530977,0.442483
0.754611,-0.607533,1.99527,3.12229,-0.437148,2.8557,0.299024,0.430977,-0.0349057,-0.606764,-0.0129889,0.794776
1.69343,-1.17325,0.699854,-2.69614,-1.50753,-1.05501,-0.170843,0.493823,0.754457,0.487694,0.0670389,0.870437
0.814775,0.309776,-2.54346,1.66698,0.955503,1.97227,0.0675297,0.230722,0.188924,0.0237128,-0.440007,0.897681
0.804779,0.31004,-0.952779,0.626766,1.74038,2.23543,0.42065,0.594722,0.0999654,0.357243,-0.505522,0.785382
1.89351,-0.436472,1.12277,-0.142994,-0.0873376,0.680525,-0.30638,0.572032,-0.0607554,0.171335,-0.298588,0.938877
1.00076,-0.553365,1.44663,0.148808,-0.841337,3.01,0.191831,0.501512,-0.0408365,-0.381223,0.774824,-0.504299
1.52142,0.309688,-2.0938,-0.148546,-0.832512,3.04033,-0.0887662,0.415151,0.376502,-0.751305,-0.294854,0.590425
1.43025,0.309943,-2.36011,-0.0516446,-0.675216,0.451396,-0.0652863,0.317728,0.355501,0.554048,-0.0990405,-0.826572
0.85533,-2.29625,-0.715993,-0.788,-1.19652,1.03052,-0.56051,-0.478552,0.532587,0.803224,0.194361,-0.563076
-1.03907,0.309851,-0.669459,1.10182,1.34566,2.45025,0.453022,-0.554861,0.0278502,-0.36451,-0.861441,0.353626
1.57142,0.309553,-1.38032,3.00627,3.06475,-1.37217,-0.109467,0.504372,0.337675,-0.0145287,-0.986041,0.165865
1.65907,-0.335668,1.095,2.2935,-1.35185,-0.865507,-0.168442,0.665129,0.0533926,0.623901,0.128248,0.770908
1.58825,0.0259166,0.336062,1.20167,0.0174594,-2.95965,-0.121301,0.695029,-0.0614368,0.0202035,-0.173581,-0.984612
1.52196,0.304454,-0.393612,1.03391,-0.103453,-2.42556,-0.0738962,0.723918,-0.0587781,-0.0823173,-0.0883074,-0.992686
1.81819,0.308041,-0.603689,-1.02639,0.837499,-1.58174,-0.319352,0.818687,0.0512848,-0.229887,0.943392,-0.239088
0.993081,-0.58665,1.48863,-1.66584,-0.218942,-0.055222,0.270432,0.614699,-0.0516683,-0.181864,-0.676081,-0.714031
1.34331,-0.228599,0.12728,0.415959,-1.75953,3.12943,0.0684238,0.779543,0.135141,-0.996249,0.0513815,0.0696204
1.64582,0.309747,-1.13402,-2.2468,3.14042,2.51225,-0.159645,0.667731,0.341958,-0.0563825,0.762848,-0.644115
1.53339,0.310002,-1.70022,-1.11902,-3.00015,-1.91714,-0.0892095,0.53484,0.421729,-0.0168884,0.828243,0.560114
1.44705,0.309934,-2.55452,-2.40887,-0.597285,2.30448,-0.100228,0.0784902,0.271638,-0.286214,0.749879,-0.596458
0.436519,-0.139326,0.430805,0.191713,-2.12577,2.4438,0.635891,0.41711,-0.0483532,-0.328825,0.565241,0.756556
0.905305,-0.438397,1.33371,1.63209,2.00751,-1.09195,0.269498,0.520111,0.0408051,-0.74257,-0.269828,0.613011
1.15749,0.309743,-1.04192,-1.61507,2.19432,1.37955,0.206905,0.74353,0.288154,-0.453866,-0.65067,-0.608797
0.836692,0.268466,-0.19611,1.74816,0.574366,1.03651,0.39413,0.599718,-0.0285394,0.424046,0.882924,0.201569
0.334146,0.272615,-2.86542,2.92746,0.588281,-2.35579,0.00536054,0.117401,0.0899481,0.433817,-0.264597,-0.861273
0.39369,-0.407945,1.07224,0.0789299,-2.80148,-0.453598,0.544474,0.344353,-0.0537477,0.417382,-0.151328,-0.896042
-0.853959,-0.608938,2.07819,3.14162,0.0678023,-0.482722,0.399313,-0.292064,-0.0483798,0.407484,-0.376235,-0.832108
-0.920186,-0.587004,1.86121,3.14161,1.16789,0.662386,0.42543,-0.378705,-0.0229104,0.275698,0.835452,-0.475405
-0.914738,-0.600669,2.35559,-0.0386287,0.302999,-0.248587,0.199428,-0.0801265,-0.042531,0.162491,0.263039,0.951003
-0.255265,-2.2182,0.628036,0.116039,2.69189,0.87182,-0.136656,0.148467,0.811201,-0.612498,0.448903,0.65064
0.954334,-0.502547,-0.63108,-1.72991,-2.9222,1.12573,0.237309,0.523699,0.740239,-0.300392,-0.585993,-0.75258
1.66834,0.207817,-0.31134,-0.657569,-2.17048,0.0608887,-0.193485,0.856515,-0.0265285,0.784432,0.444437,0.432598
1.5309,0.310001,-1.50193,1.76058,-2.64283,-0.0214301,-0.0891658,0.50281,0.244187,0.506896,0.708617,-0.490835
0.772122,-0.626187,2.47081,1.45129,1.42249,-0.537912,0.104995,0.254596,0.0541233,-0.446302,0.750925,0.48675
0.492468,-0.642806,2.16705,2.80542,-1.42946,-1.01787,0.3416,0.30716,-0.0125552,0.965788,-0.0718568,0.249178
0.0925118,-0.605667,1.99854,3.14161,-0.00232826,-2.58434,0.499708,0.15598,-0.0381921,0.368549,0.0361772,0.928904
-1.12355,-0.552662,2.43895,2.83697,-0.013937,-0.241212,0.243151,-0.254543,-0.0616539,0.0865395,-0.21171,-0.973494
-0.653492,-0.623617,2.15028,2.99622,1.33763,2.23214,0.427824,-0.190123,-0.0366894,-0.999872,0.0130095,-0.00929016
-0.442803,-0.594107,1.90651,3.14176,-0.207186,-0.650684,0.538227,-0.134432,-0.0279963,0.638699,-0.484023,-0.598151
0.00954515,0.309681,-2.12575,1.08254,1.80173,-3.14151,0.371844,0.112704,0.269841,-0.160661,-0.975032,-0.153301
1.02842,0.154304,0.0076298,-3.1416,-0.225181,1.95395,0.330979,0.760651,0.0540106,-0.334312,-0.393007,-0.85661
0.80982,-0.159256,0.6667,-2.20255,-0.727012,-2.17068,0.51153,0.69542,-0.0223198,0.257042,0.814003,0.520892
-1.26628,-0.47582,1.37495,-2.58242,-1.85081,1.40535,0.318787,-0.650271,-0.012584,-0.446391,0.892438,-0.0654998
1.42745,-0.889426,-1.4529,-3.14171,0.999554,-2.63283,-0.118551,-0.0572949,0.634441,0.724316,-0.124607,-0.678115
0.568675,0.309988,-1.6525,-0.947044,2.12471,-0.1055,0.417087,0.396098,0.40391,-0.678888,0.569838,0.463029
0.560628,0.310052,-1.25891,1.60062,1.10143,-2.20363,0.429664,0.398632,0.203041,0.046336,-0.593719,-0.803337
0.544723,0.310117,-1.09129,-1.6055,-2.95183,-2.57035,0.583283,0.481013,0.304585,0.749251,0.639481,-0.1723
0.87152,0.145043,-0.0450479,1.15184,-0.716465,-0.198371,0.380517,0.622006,-0.041107,0.22306,-0.735065,0.640253
1.19419,-1.85814,0.935913,-1.69218,1.70654,-1.05547,-0.0411465,0.192751,0.891136,-0.314266,0.533067,0.785542
-1.56456,-0.655888,2.30178,1.49348,1.50156,0.268485,0.111065,-0.306489,0.0518562,0.962265,-0.0612836,-0.265122
2.25842,-0.944765,1.19225,-0.0842206,-2.98765,-0.659657,-0.474012,0.405146,0.244081,-0.332165,0.595315,-0.731619
-0.600976,0.309837,3.09397,-0.39728,-2.78749,2.22417,0.0725852,0.0825753,0.155041,0.673346,-0.206072,-0.710027
-2.40565,-1.01996,-0.960772,-0.292424,2.21535,1.00255,-0.0292831,-0.173783,0.872192,0.920461,0.253256,-0.297679
0.458648,-1.43839,-0.456192,-1.02791,0.223832,-1.93235,-0.0914677,0.076567,0.974694,-0.084819,-0.129447,0.987952
-0.13961,0.309987,-0.705642,-1.53525,-0.723115,-1.01142,0.862137,-0.0109284,0.144044,0.875472,-0.477621,-0.0736713
-0.15907,0.140838,-0.0753254,-1.17411,1.6521,-0.883891,0.902885,-0.0342997,-0.0383841,0.806137,0.51081,-0.29869
-0.0617856,0.309672,-2.38514,-1.81705,0.748303,1.32958,0.156993,0.0996464,0.372185,0.799073,0.113413,-0.59044
-0.799825,-0.891331,1.19375,-2.24096,0.0486281,-2.97253,0.586856,-0.447401,0.336974,-0.171612,0.107874,0.979241
0.248145,-0.674387,2.06233,-3.1416,-1.5683,0.564332,0.454349,0.227716,-0.0139629,-0.30193,-0.948141,-0.0993302
-0.453475,0.309786,-2.93307,0.768251,3.11139,-0.366242,0.187054,0.0302617,0.180464,0.0860972,-0.0105893,0.99623
-0.62314,-0.119158,0.37952,0.00984398,-1.51149,-0.447708,0.693647,-0.364084,-0.0525117,-0.660793,-0.633244,-0.402931
-1.19789,-0.669473,2.26148,-3.14173,0.621779,-2.4177,0.25451,-0.350969,-0.0412539,-0.160502,-0.7876,0.594916
-2.74069,-0.378988,2.892,-3.14218,0.0689704,1.53188,-0.0801032,-0.152502,-0.0607685,0.571344,0.239254,0.785063
-2.9,-0.532701,2.85634,-3.14223,2.44901,-1.18189,-0.136072,-0.145944,-0.0459138,-0.791704,-0.444439,-0.419141
0.267942,0.097969,0.0366236,-1.372,-2.73983,-1.2534,0.840052,0.34382,-0.03602,0.988663,0.144871,-0.039472
0.507315,0.309717,-2.59608,1.4489,2.4102,1.38212,0.137309,0.2012,0.192309,-0.617048,-0.199658,0.761176
0.50272,0.310054,-1.50814,2.18587,2.46616,1.64336,0.357992,0.3214,0.272699,0.724142,0.346435,0.596323
-1.86418,-0.650487,2.04076,2.60515,1.07489,2.66518,-0.0343201,-0.491041,0.0228469,-0.567881,0.822927,0.0173985
1.64669,-0.994476,2.64484,1.82293,-2.12133,-1.08161,-0.126369,0.222306,0.143992,0.395151,0.085238,0.914653
1.12983,-0.654926,2.13621,1.65447,0.781179,-2.44999,0.0598846,0.382618,0.0519955,0.255429,-0.72944,0.634566
0.965992,-0.611772,1.89356,1.85869,-0.150493,-2.82242,0.171543,0.44014,0.0519122,-0.651082,-0.691585,0.312735
-0.136292,0.269427,2.78946,-1.34524,-0.547469,1.73132,-0.0594026,0.118318,-0.0428957,0.960082,-0.0476903,-0.275622
-1.08104,-2.34576,-2.76449,0.049147,0.809037,0.370813,-0.0139187,0.258144,-0.00115455,0.651966,0.210697,0.728387
0.644238,-0.507515,1.6228,-2.82217,-2.8635,0.0949859,0.444376,0.470307,-0.0437009,-0.0148423,-0.352938,0.935529
0.408569,-1.54098,1.18343,-2.2111,2.15927,-1.42719,0.352547,0.271569,0.730786,0.383812,0.295878,0.874725
-1.84286,-1.01414,-1.05743,0.636124,1.13151,-0.315986,0.0701984,-0.15456,0.78131,0.760518,-0.475212,-0.442476
-0.891575,-0.0440183,0.27859,0.502522,-0.376761,0.405582,0.551341,-0.509128,-0.0533898,-0.493857,0.0735259,0.866429
-0.602742,0.148801,0.0166533,-2.54366,0.458975,2.52439,0.780741,-0.404784,0.0299323,-0.969582,0.228663,0.0873119
-0.329212,0.0539251,0.0775193,-1.37813,-1.03725,2.09163,0.889767,-0.188639,-0.0153013,-0.563302,0.645207,0.516138
-0.143716,0.147717,-0.185344,-0.876863,-1.72936,1.04984,0.893815,-0.0190607,-0.0163916,-0.703,-0.39485,0.591511
2.04338,0.309549,-1.37869,-0.0642589,-3.1267,1.70139,-0.406337,0.55504,0.263518,0.432206,-0.849693,0.302027
2.13184,0.186557,-0.157192,-1.41144,-2.30091,2.05807,-0.572701,0.706223,-0.018942,0.197573,-0.9701,-0.140968
3.07768,-0.44104,-1.77127,2.09202,3.07842,-1.64923,-0.167606,-0.0986465,0.490884,-0.041601,0.00761867,-0.999105
1.87828,-0.212836,0.6025,-0.0331514,0.148596,-1.22761,-0.329583,0.677233,-0.0587726,0.14638,-0.625545,-0.766333
-2.02043,-1.96187,0.552299,-2.37047,0.506613,-2.58864,0.165862,0.0925532,0.94524,0.0238695,0.99948,-0.0216941
-0.21238,-0.665393,-1.13477,2.13788,1.59873,2.94619,0.231997,0.0616328,0.644214,-0.169076,-0.966667,0.192273
-0.877336,0.309986,-0.798467,3.08371,-0.912274,-2.5468,0.532623,-0.47005,0.224463,0.040861,0.975668,0.215411
-1.46152,-0.038643,-2.926,1.3213,-2.56267,-3.06569,0.123,-0.120261,0.181485,0.557143,-0.0758223,-0.826948
-1.16179,-0.271954,0.845799,-1.79704,0.701645,2.2101,0.429359,-0.7161,-0.041861,-0.591684,0.396691,0.701816
-1.06108,-0.621586,1.66345,-2.20491,2.23964,-2.39969,0.40283,-0.496948,-0.039534,-0.290619,-0.665412,-0.687581
-2.43278,-0.690685,-2.99385,-2.04527,-2.75469,0.93718,0.115073,-0.0451102,0.0767293,-0.821057,-0.409754,0.397451
2.15708,-0.350285,-0.276192,0.271749,-1.63956,-2.92144,-0.505781,0.564218,0.376221,-0.818152,-0.527835,-0.228073
-0.216897,0.30973,3.06573,2.38824,-1.86151,2.684,0.0920369,0.0914872,-0.031645,-0.247211,0.934574,0.255849
2.55725,-2.11546,0.920458,3.11292,-0.1054,1.39668,0.0776163,-0.182199,0.849739,-0.811295,0.55844,-0.173047
-0.649831,-0.608367,-1.28217,1.28217,2.88946,2.65412,0.288615,-0.0822385,0.62676,-0.905483,0.411281,-0.104637
-0.52876,-1.46732,1.70703,-2.6471,-2.56014,1.95186,0.476717,-0.152109,0.489024,-0.234736,0.373721,-0.897347
-1.44636,0.309933,-1.72842,0.506777,0.680563,2.56783,0.175216,-0.521372,0.289282,-0.528028,-0.0364594,0.848444
-2.82069,-0.341862,1.17109,-2.50004,-0.204817,2.37083,-0.686325,-0.343153,-0.04816,0.77039,0.102317,0.62931
-1.98526,-0.569598,1.88469,-2.88172,-3.12356,-0.54444,-0.122286,-0.548999,-0.0615314,-0.224125,-0.47113,0.853114
1.04232,0.0779302,0.0383936,3.14159,1.52297,-2.85825,0.321367,0.766876,0.104557,0.821566,-0.494914,0.283002
0.940931,-0.505436,1.23699,-0.124734,-1.1357,1.10714,0.270974,0.557055,-0.044845,0.536953,0.048158,0.842236
1.675,-0.047222,0.429932,2.42022,-2.71378,-1.24222,-0.187294,0.741495,0.0520148,0.194668,-0.574251,0.795198
1.4784,0.309973,-1.97189,1.73168,-1.94759,2.22172,-0.0752421,0.370978,0.255723,-0.576416,-0.114253,0.80913
-1.8743,-2.23341,-1.10673,-0.769175,0.510888,-2.11141,0.320524,0.65824,0.400538,0.0469972,0.992073,0.116543
1.34798,-0.486883,1.32633,-1.75797,-0.0241255,0.00299095,0.0510589,0.719306,-0.0613868,-0.111087,-0.599461,-0.792657
-3.14133,0.145898,-0.860494,1.76626,-2.10313,0.326545,-0.634566,-0.109314,0.23746,-0.517222,0.81596,-0.258246
-1.18432,-1.48639,2.04848,-2.22033,0.343261,0.487404,0.275247,-0.386799,0.311864,0.126971,0.476913,-0.869731
0.195963,-0.607138,2.10966,-3.13457,-3.02164,-2.92621,0.440025,0.198629,-0.0539129,0.244707,0.167755,-0.954975
0.827701,0.309757,-1.60166,2.05253,0.130631,0.00851721,0.222394,0.403381,0.268137,-0.57786,-0.436419,0.689649
0.82585,0.309846,-2.5207,0.199824,0.471843,1.00829,0.0933931,0.262276,0.314516,-0.559759,-0.249421,-0.790227
3.07134,-1.85299,2.75092,3.02171,-1.99519,-1.69365,-0.199736,-0.0953648,0.258013,-0.73857,-0.0599789,0.671503
1.75697,-0.60009,2.34893,-0.0504728,-2.66076,1.45502,-0.141951,0.163953,-0.0448432,-0.127447,0.965292,-0.227967
1.56498,-0.612828,2.25939,0.0360673,0.231602,-0.178072,-0.107846,0.224542,-0.0469499,-0.226306,-0.0678078,0.971693
0.616325,0.30975,3.09743,1.49121,-0.276085,1.59118,0.034252,0.158024,0.0450625,-0.802019,-0.561323,0.204161
0.618251,0.311075,2.83876,0.284046,-0.104167,1.55993,-0.0309635,0.11192,0.052943,-0.225702,-0.161923,-0.960645
0.2092,0.310023,2.81243,1.2081,-1.71005,-0.99913,0.0755371,0.12762,-0.0127383,0.847317,-0.367849,0.383067
-1.02261,-1.59397,0.850293,1.96212,-3.10148,2.29821,0.192178,-0.105286,0.746932,0.268593,-0.388707,0.881343
0.884358,-0.418821,-0.152648,-1.78906,2.40666,-0.833408,0.412985,0.676249,0.541372,-0.242944,0.414843,0.87686
-2.34584,-0.484595,2.86522,-3.14259,0.425289,-2.61309,-0.0321316,-0.188789,-0.0518368,-0.89635,-0.405938,0.178245
-1.36327,-0.622464,2.58703,-3.14173,-0.0160696,-1.56606,0.164953,-0.253659,-0.0615831,0.189829,-0.901932,-0.387921
-0.943396,-1.33421,0.0814654,-2.25711,-2.46343,-1.06181,0.198847,-0.0882862,0.963201,-0.639863,0.361633,0.678083
-2.88031,-0.826466,2.92308,1.59413,-0.526871,2.78193,-0.107492,-0.141728,0.143235,0.965748,-0.228956,0.122103
1.64256,-1.44799,2.59267,-0.186301,0.114126,-0.441993,-0.118675,0.128568,0.0993751,-0.040556,-0.871382,0.488925
2.6194,0.309642,-0.746452,0.137494,-1.46169,0.824794,-0.737526,0.298494,0.0351543,0.585412,0.441523,0.679963
1.93796,-0.45967,1.36275,0.596504,-2.22412,-1.51193,-0.291898,0.45489,-0.0370325,0.40013,-0.910226,-0.1067
1.72437,0.309944,-1.77629,-0.887359,0.133031,0.320658,-0.186298,0.49001,0.416405,-0.19171,0.415613,-0.889108
1.76294,0.309703,-0.982047,1.57643,0.312941,-1.41168,-0.228837,0.60471,0.145399,0.118094,-0.86248,-0.492119
1.68602,0.265552,-0.388681,0.877042,-2.10535,-0.537239,-0.192885,0.717175,-0.0432047,0.737962,0.0539817,-0.67268
0.667991,-0.310259,1.0754,1.0401,0.268599,-0.761061,0.399955,0.454592,-0.0307872,-0.518345,-0.164195,0.839261
0.408385,0.310076,-1.3226,-1.76871,1.22784,-2.57127,0.549428,0.356674,0.380744,0.246441,-0.7571,0.605035
1.79748,-1.64148,2.72288,2.08743,1.45994,-0.309933,-0.141634,0.128409,0.261506,-0.947831,-0.102011,0.302012
-0.32616,-0.932011,-2.86135,-0.828997,0.563146,-2.5273,-0.109694,0.152327,0.200933,-0.742417,-0.209415,-0.636367
-0.0803464,0.0822773,-2.52968,0.821506,2.54471,0.281957,0.224658,0.0914138,0.310391,-0.277196,0.563936,0.777906
2.24025,-2.15432,0.3092,-0.137198,-2.98993,-1.78575,0.0718254,-0.266651,0.859277,-0.633272,0.748294,0.197542
-2.77496,-1.69425,-0.680067,1.48981,-0.489053,0.469662,0.283208,-0.00816931,0.723238,0.642345,0.695406,-0.322185
3.06485,-2.05053,-2.91927,0.428823,-0.555034,2.23385,0.180633,-0.123361,0.103002,-0.710184,-0.270717,-0.649885
0.767076,0.168006,-0.081518,-1.41497,1.68852,1.92983,0.573408,0.704381,-0.0385018,-0.4193,-0.888885,0.184584
0.607442,-0.509612,1.61614,-2.87105,0.97115,-2.52337,0.462813,0.454639,-0.036018,0.778283,-0.278302,0.562871
1.35663,0.309728,-2.86478,0.418068,-2.17977,0.222988,-0.0730833,0.177557,0.227496,0.678387,-0.644791,0.352186
0.911563,-0.645965,1.93201,-2.79661,2.23943,-2.36273,0.246951,0.496897,-0.0371565,0.854665,0.191213,-0.482685
-1.07536,-1.94254,1.44034,1.32707,3.10155,-1.87052,0.153039,-0.0536104,0.609708,-0.439191,0.787862,-0.431723
-0.705325,-0.361707,1.14273,2.75034,0.0235382,2.1787,0.612906,-0.378494,0.050958,-0.648341,0.534364,-0.542318
-1.44057,-2.35783,0.522744,-2.53607,-0.883566,-2.10621,0.0442463,0.502674,0.799491,0.271729,0.96222,-0.0171885
1.17533,-0.859833,-1.824,-3.07423,-2.98267,2.34117,-0.147716,-0.0705131,0.502648,-0.192315,-0.174596,0.965677
-0.200467,-0.524617,1.42038,-1.81791,-3.1225,0.051515,0.696345,-0.0301138,-0.0613703,0.547113,-0.130624,0.826804
-0.429409,-0.117878,0.546125,-2.00713,-2.44253,0.916786,0.839663,-0.264437,-0.0229862,-0.887987,-0.0239682,0.459244
-0.652703,0.310064,-1.28034,3.1416,-3.02596,-3.12672,0.50188,-0.246285,0.33659,0.506195,-0.241767,0.827838
-0.646192,0.309851,-0.733939,-2.04637,2.88038,-1.05354,0.721296,-0.407296,0.195098,0.209753,0.00175743,0.977753
-0.650745,0.309981,-1.21332,2.90876,-1.10452,-1.32253,0.513021,-0.253418,0.307445,-0.795491,0.329797,0.508358
-0.648683,0.309876,-2.50901,1.15377,1.82795,1.77857,0.270002,-0.0677245,0.229416,-0.816056,0.368324,0.445409
-0.647093,0.309877,-2.49126,-2.48077,-1.5295,-0.551303,0.133884,0.0356408,0.285686,-0.929083,-0.364736,0.0614206
-0.643768,0.309931,-1.87278,-0.145321,2.18053,-2.39591,0.466733,-0.21378,0.364736,0.222161,-0.919671,-0.323806
-0.645537,0.309811,-2.8406,0.828164,-0.206613,1.42476,0.207266,-0.0194637,0.196993,-0.786424,0.554952,-0.271229
2.55388,-1.52956,1.23568,-0.578628,1.598,2.34389,-0.447873,0.167237,0.56657,0.85347,0.270223,0.44561
1.23157,0.124554,0.0675874,2.13524,1.37894,1.34391,0.142617,0.73218,0.0264277,0.0373355,0.769414,-0.637658
-2.18692,-1.02581,1.91706,-2.12111,-1.05526,2.76051,-0.232233,-0.516865,0.115825,0.773241,-0.30552,0.555658
-2.78828,0.0562865,0.212196,-2.59325,0.872396,2.8279,-0.779922,-0.403964,0.0259894,0.351791,0.906197,0.234629
-1.90018,-2.34396,0.794837,1.81867,2.77038,0.266522,0.204695,0.261368,0.694258,0.0281556,-0.999499,0.0144742
-2.16839,0.309827,-1.70251,-2.82274,-2.80247,2.21686,-0.129797,-0.384701,0.390749,-0.381644,-0.916695,0.118403
-2.20978,0.310091,-0.592322,-1.02342,-1.32957,0.0410007,-0.432904,-0.765698,0.0439105,-0.717916,0.660583,-0.219607
-1.75097,0.309606,-2.35818,-0.0634555,0.0802864,2.56326,0.0526282,-0.320169,0.356757,0.0949431,0.896012,0.433762
-1.65971,0.309732,-1.0976,-0.43222,-0.662972,1.31251,0.0403113,-0.77699,0.205148,-0.0698118,0.987243,0.143099
2.41915,0.175099,-2.96445,0.290415,2.82112,0.0899733,-0.152489,-0.0110927,0.226218,0.400597,-0.771302,0.494586
2.22156,0.0516259,0.252435,-1.83368,-0.113055,-1.1215,-0.627975,0.644574,-0.0541073,-0.495461,0.731597,-0.468278
1.53217,-0.0759313,0.264423,0.158947,2.00138,2.05971,-0.0790671,0.780486,-0.0410946,0.430968,0.0997083,0.896842
0.988784,-0.794513,1.92486,-0.901388,-1.21332,-1.92849,0.152627,0.430499,-0.054588,-0.325261,0.102364,-0.940067
0.495338,-0.435618,1.33502,3.0504,2.3682,1.09317,0.56201,0.427695,0.0267672,-0.917493,-0.130706,-0.375662
-1.70988,-1.70927,-0.469691,1.92518,-2.99302,-1.69358,0.144006,0.241382,0.740392,-0.000336602,-0.133172,-0.991093
-2.10799,-1.36263,-1.86311,-0.578996,-1.50692,1.06095,0.278661,0.254552,0.546604,-0.705965,-0.233484,-0.668654
-0.524051,0.215727,-0.318527,0.440314,-1.37813,2.36576,0.724734,-0.292794,-0.0508728,0.663036,0.426028,0.615535
-1.6619,-1.39038,-0.689881,1.14626,-2.51315,-0.892842,0.11224,0.0288512,0.793416,-0.451614,-0.890504,-0.0552025
-2.8759,-2.3838,-1.59516,-3.13479,1.62535,1.46663,0.512469,0.0263354,0.0260393,0.732108,0.0916217,0.674999
1.76872,-0.18084,-0.278624,-0.731364,1.27372,2.76044,-0.275641,0.819334,0.304443,0.918361,-0.0653808,0.390306
1.41263,-1.27992,2.0614,2.8161,0.28049,-1.94612,-0.0381686,0.453687,0.305012,0.114927,0.0762823,0.990441
-2.61786,-2.4251,0.215407,2.87594,1.23413,0.165383,0.585332,0.212,0.608747,0.599308,-0.72897,0.330806
-0.747493,-1.79749,1.98261,1.64184,-1.91263,-1.24706,0.219753,-0.0548662,0.455068,-0.896164,0.422026,0.137054
0.553983,0.30971,-2.12563,2.79695,-2.24093,-2.30862,0.138969,0.214312,0.28751,-0.997927,0.00260843,-0.0643103
0.490282,-0.531159,1.58558,2.45771,-0.538043,-1.64975,0.47297,0.376173,0.0515555,0.243746,0.175912,0.953752
-2.22408,-0.210986,0.725719,-2.96063,-3.04515,2.98385,-0.410298,-0.71564,0.0577128,-0.321907,-0.577039,-0.750601
-1.13182,-0.526149,1.45242,-2.46949,-1.35964,1.73652,0.395378,-0.58525,-0.0135726,-0.272618,0.960138,0.0617589
-1.34097,-0.328503,0.817045,-1.39804,-1.51253,2.56129,0.293842,-0.776821,-0.0159514,0.721169,0.582389,0.375151
-1.5574,-0.298524,-1.19671,-0.596547,-3.0201,-0.492803,0.11608,-0.516398,0.652397,-0.107096,0.023511,0.993971
-1.14602,0.309734,-2.03718,1.88498,-2.40695,3.07695,0.234927,-0.254537,0.253586,0.312254,0.932796,0.179969
-1.01742,-0.146007,0.618037,0.987126,-1.27445,-2.93062,0.44802,-0.517553,-0.0379073,0.702979,0.641487,-0.307107
-1.31484,0.310008,-1.5533,2.89104,1.03172,2.50165,0.216114,-0.394696,0.338184,-0.523234,-0.719632,-0.45646
1.77302,-1.19994,2.82353,-1.81166,2.10346,-2.0547,-0.137258,0.126024,0.000581647,0.405994,0.0152499,-0.913749
-2.17895,-0.455301,1.01982,2.31654,2.8029,2.1222,-0.303919,-0.627594,0.157644,-0.541013,-0.47247,-0.695756
-0.0694547,0.309693,3.00756,0.523472,2.39137,-2.92097,0.0868639,0.103371,0.100629,0.639355,-0.711361,-0.291874
-0.131982,0.310204,2.80943,1.24614,2.69046,-0.629735,0.115061,0.0948327,-0.0170333,0.35052,0.308916,0.884142
-0.13078,0.310387,2.79956,-1.30542,2.62203,2.46733,-0.0645261,0.118577,-0.0311384,0.707286,-0.484219,0.515052
0.0179716,0.309648,2.81327,-1.16735,-1.38834,0.889007,-0.0770731,0.107782,-0.0121468,0.773608,-0.605919,-0.185454
-0.166161,0.309415,2.83995,0.329495,1.82411,-0.0987919,0.0613488,0.100386,0.0521131,-0.0405691,0.983625,0.1756
-0.206284,-1.79179,-1.54691,1.9878,1.43223,-2.76543,-0.354915,0.185784,0.406364,0.189664,-0.980806,0.0452402
-2.07929,-1.29914,-2.44167,-2.75333,-2.39757,-2.40154,0.187869,0.112866,0.184793,0.626738,0.0972254,-0.773141
-1.0782,0.197225,-0.185084,-1.42402,-1.48996,0.50606,0.522952,-0.743527,-0.0138599,-0.99979,0.0192781,0.00697214
-1.02893,-0.53414,1.71455,-2.87199,0.443691,-2.4204,0.407612,-0.465493,-0.0458067,0.0196895,-0.657825,0.752913
-0.0368116,0.309698,-2.5354,-2.38713,-0.918652,-2.65712,0.0756549,0.106438,0.280135,-0.490581,0.721865,-0.488099
0.0321268,0.309687,-0.718184,2.80458,0.8569,1.43776,0.696685,0.131596,0.184993,0.732565,0.123852,-0.669335
-2.21378,-0.709377,-1.70522,-1.083,-1.30285,0.236421,0.0895067,-0.0625713,0.715403,-0.94388,0.303701,-0.12983
-0.558244,0.133701,-2.62814,-0.935728,-2.34623,2.87683,0.126801,0.0494983,0.359735,0.977617,0.20207,-0.0585843
1.14914,-2.16976,-0.393117,0.588316,1.16041,0.203139,-0.296427,-0.394151,0.691903,-0.832546,0.338373,-0.4386
0.266717,-1.37604,1.19631,2.18407,2.98414,1.77017,0.340004,0.206049,0.616005,0.945507,0.226142,-0.234257
-0.937889,-0.121517,0.656397,1.10654,-2.90364,0.42895,0.481301,-0.471568,-0.0525892,0.0356735,-0.411032,-0.910923
-0.741463,0.309885,-3.05819,0.463738,1.68664,-3.04434,0.157788,0.00350536,0.171842,-0.557999,-0.829512,-0.0233921
-0.740137,0.309877,-2.96788,-1.66642,-2.28751,0.874056,0.0513626,0.100913,0.177745,0.0801538,-0.728482,-0.68036
-0.774887,0.214113,-0.116345,-3.09924,2.25851,-1.76002,0.661463,-0.494938,0.0542886,0.0807937,-0.282529,0.95585
-0.393539,-0.178819,0.576625,-1.07246,3.101,0.584819,0.816687,-0.220902,-0.0611183,0.295386,-0.0860068,0.951499
0.114538,-0.423102,-2.85842,1.26029,-1.82146,2.03642,0.0712897,0.118071,0.250158,-0.800689,0.345703,-0.489272
-0.493841,0.310247,-1.13465,-1.12478,-2.90661,0.569153,0.720053,-0.263666,0.282342,-0.800401,0.208146,0.562168
-0.474187,0.30985,-1.34056,3.00937,-1.06668,0.997633,0.512088,-0.140139,0.333531,0.561791,-0.822057,-0.0928062
-0.477201,0.3099,-2.5277,-1.45899,-2.16852,-1.19236,0.156756,0.0418254,0.353937,-0.720125,0.0285237,0.693258
-1.15576,-0.624435,1.88843,1.31692,1.70015,1.96397,0.266388,-0.333864,0.0438555,-0.132726,-0.640983,-0.755993
-0.438588,-0.0555317,0.483881,1.45812,2.32436,1.34574,0.672116,-0.194699,-0.0207967,0.865107,-0.226031,-0.447772
-0.967059,-0.487174,1.46553,1.44735,0.68076,-1.22556,0.392147,-0.376369,0.0341265,-0.0626171,0.465968,0.882583
-0.437882,-0.629254,2.66288,-3.05067,-3.12706,1.30427,0.271764,-0.00671765,-0.0614684,-0.619303,0.285728,0.731316
-1.29993,-0.383059,1.12188,-2.27105,-2.35261,-0.833751,0.31354,-0.721156,-0.0197892,-0.2567,-0.858138,0.444639
2.74692,-1.3536,-0.905764,0.641423,-0.366009,1.02757,0.0162969,-0.125028,0.811513,0.839491,-0.149265,-0.52247
-0.884961,-1.13331,0.04742,-0.0212631,-1.57773,3.10595,0.367915,-0.277231,0.778834,0.751231,0.659967,0.00973887
-1.24604,0.309894,-0.792517,2.38375,-1.3291,0.374889,0.314891,-0.593203,0.172297,-0.7227,-0.685023,0.0919142
0.259244,-2.10689,-0.303637,3.14159,-0.674763,-0.23918,-0.581147,-0.0412037,0.645965,-0.543199,-0.771973,0.33014
-2.15884,0.309911,-2.02168,2.98656,-2.2717,2.66616,-0.0529191,-0.276134,0.320295,0.415279,-0.602054,0.681964
-1.28038,0.0852983,0.0312884,0.948416,-1.65839,-1.7839,0.313687,-0.668408,-0.0385345,-0.0455405,0.888116,-0.457357
1.05734,-0.0658369,-0.808438,-1.43495,-2.33151,-0.431749,0.271215,0.703179,0.481718,0.518013,-0.420726,0.74475
-2.14086,-1.65987,-0.581726,-1.99569,2.91887,-1.07397,0.289307,0.249048,0.86303,0.625286,0.780315,-0.0112445
0.514606,-0.246571,0.544819,1.64501,-2.35064,-0.561739,0.554677,0.439016,0.112076,-0.324217,-0.874613,-0.360464
0.806473,-1.64155,-1.36226,1.75454,1.63211,-0.0603064,-0.30632,-0.161791,0.53706,-0.666235,0.744722,0.0389849
-2.9777,-1.79507,-0.932682,1.434,0.347049,-0.61007,0.375564,-0.0485231,0.635363,-0.290221,-0.330551,-0.898058
-1.59391,0.309809,-2.79439,0.830453,-2.47472,1.82343,0.104764,-0.19097,0.207033,0.176489,0.944724,-0.276313
0.454575,-1.12785,-0.419164,0.996454,-1.76637,2.88867,0.168604,0.203886,0.784618,-0.678686,0.725396,0.114828
-0.517354,0.310013,-2.74629,2.58039,-2.45465,1.99643,0.134365,0.0491242,0.12012,-0.0314082,0.319153,0.947183
0.355232,-1.60845,-0.414217,-2.78758,2.1179,2.47351,-0.301865,0.00443582,0.857489,0.773795,-0.42802,0.466948
-1.29092,0.309853,-0.656064,-0.167752,1.66365,0.591113,0.331489,-0.758203,0.0102515,0.737412,0.427264,0.523134
0.766699,-0.699314,2.56434,-3.14159,2.37542,0.0315678,0.141832,0.288179,-0.0401135,-0.352138,0.623072,0.698413
-2.40386,-1.07498,-1.36865,2.1655,-3.05871,1.20134,0.126949,-0.0321116,0.624051,-0.086717,-0.0384213,0.995492
-2.75836,-0.570759,1.83321,-3.00889,1.54103,-0.94839,-0.487717,-0.31432,-0.038436,-0.52686,-0.840726,0.124892
-1.85857,0.0218304,0.142867,-1.432,-1.44725,-0.779455,-0.151388,-0.896046,-0.0127153,-0.859789,-0.417728,-0.293712
-2.88382,-0.450934,1.38442,3.14163,0.875924,-2.63437,-0.641302,-0.281954,0.0154428,-0.226673,0.634605,0.738848
-2.79905,0.309694,-1.05244,-2.24569,2.10708,2.34125,-0.630357,-0.340664,0.318459,-0.429233,0.482552,-0.763481
-2.19372,-1.00459,-1.93575,-1.01255,2.61905,-0.611694,0.21991,0.11905,0.591414,0.859789,0.496577,-0.119054
-1.2831,0.309697,-1.90612,-2.60056,2.95171,0.969235,0.193298,-0.268568,0.398405,0.228243,-0.394888,-0.889926
-1.49073,-0.0238448,0.185201,-0.683338,-2.65158,-2.10017,0.17752,-0.847744,-0.0457712,0.240436,-0.0249735,-0.970344
-1.04683,0.309633,-1.86115,3.05985,-2.42536,2.05184,0.25355,-0.220628,0.345926,0.694803,-0.595229,0.403672
-1.8595,-0.54546,1.71011,0.700682,0.740457,-2.9438,-0.0171449,-0.441095,-0.0232102,-0.520737,0.570002,-0.635555
1.07424,-0.336974,0.400439,0.738206,2.5341,-2.77521,0.249207,0.689045,0.138971,0.0919398,-0.948977,0.301644
0.140273,-0.464385,1.45059,0.965541,1.60704,2.25103,0.488336,0.179186,-0.012416,0.810879,-0.520297,-0.267893
0.463632,-0.0967143,0.582483,1.32163,2.61261,2.43933,0.557502,0.400772,-0.0307525,0.872113,0.00532343,0.489275
0.163803,-0.0766161,0.530619,1.42042,0.77619,-3.08682,0.658966,0.219547,-0.0220401,-0.14765,-0.73341,-0.663558
-0.917438,-0.645142,2.05526,0.721684,0.893787,1.68294,0.282519,-0.189491,0.00787661,0.419515,-0.691518,-0.588055
-0.510238,0.309677,-2.3504,-0.573228,-3.08938,1.87492,0.293124,-0.0389716,0.391148,-0.186104,0.122067,-0.974918
0.146299,-0.158219,0.602472,0.580109,0.0191412,2.30627,0.669685,0.209008,-0.0616448,0.973503,0.130467,-0.187806
-0.0244111,0.256601,-0.159779,1.60201,0.204871,-1.72843,0.710076,0.0918454,-0.0445373,-0.999624,-0.00754013,-0.0263468
-0.0204587,0.310196,-2.78707,1.37294,2.86809,3.05001,0.182697,0.105435,0.158785,-0.518603,-0.258416,-0.815029
-0.0202878,0.309753,-2.76639,-2.30732,-2.5259,1.13172,0.00868637,0.108996,0.202884,0.916656,-0.264159,-0.299936
-0.145695,0.309797,-1.27373,-3.14177,1.8952,-1.31057,0.560717,0.0280423,0.335766,-0.796333,0.363339,0.483568
0.579081,-0.912232,-0.745187,1.86921,-2.33414,0.555755,0.1129,0.204232,0.723524,0.909286,-0.138812,0.392339
1.92851,0.309686,-0.887953,0.712264,-1.02303,3.10317,-0.354551,0.63678,0.0802284,-0.981433,0.18921,-0.0314586
1.98827,0.309705,-0.578733,1.08372,-1.74082,1.61724,-0.389295,0.608479,-0.00105211,-0.334301,0.640837,0.691065
1.95484,0.309816,-3.03129,-0.475766,-1.80202,1.4125,-0.116696,-0.00254709,0.214073,0.135197,0.0749697,-0.987978
-2.5693,-2.15479,-1.3801,-0.10662,1.53529,-0.262873,0.598816,0.255927,0.376466,0.602053,-0.760104,0.244488
1.02143,-2.30313,0.0458092,0.462605,-1.2787,-0.839759,-0.323095,-0.31869,0.7296,0.946599,0.321652,-0.0221428
-1.95182,0.310007,-2.79802,0.804747,-2.59541,2.26197,0.031641,-0.214532,0.208629,0.569343,0.530845,-0.627736
-1.87485,0.309642,-1.2063,1.09634,2.31465,-2.87648,-0.0847339,-0.634608,0.173327,-0.470266,0.873311,-0.127194
-0.790885,-2.28749,-1.7745,0.0658051,-0.293106,-0.984901,-0.335947,0.494869,0.159574,-0.31116,0.0874075,0.946329
-2.3783,-0.257912,0.958879,-2.43934,2.43606,-1.14265,-0.505508,-0.634699,-0.0396372,-0.423927,-0.778182,0.463377
-1.88353,-0.432759,1.09699,-1.81546,-1.81219,-2.04547,-0.136466,-0.776809,-0.0129651,0.186045,-0.867088,-0.46211
-1.51632,-0.655531,2.18123,-3.14159,0.717968,-0.996416,0.133443,-0.442534,-0.0393542,0.403562,-0.836388,-0.370936
-1.61731,0.309978,-1.96498,-2.25464,-0.287229,-0.890676,0.0948049,-0.310743,0.418457,-0.173024,0.114511,0.978238
-1.72391,0.310006,-1.43299,-2.36086,3.08489,2.47697,0.0250866,-0.553116,0.40224,-0.188563,-0.929408,-0.317247
-0.921592,-0.516462,1.26671,-1.54589,-0.624338,-2.18807,0.524712,-0.510819,-0.0346548,0.820357,-0.521235,-0.23522
2.45619,-1.51954,0.940639,-1.02587,-2.82061,1.86011,-0.413369,0.196996,0.731416,0.677468,-0.670192,-0.303117
1.28359,0.31,-2.97593,0.0657098,1.44464,-0.63323,-0.0749893,0.131436,0.220246,-0.655954,0.602347,0.454866
1.1875,-0.139817,0.391513,0.274176,1.89685,1.16834,0.180465,0.739395,-0.0311619,-0.130811,0.667742,0.732809
2.18004,-0.194389,0.532371,1.59904,2.19312,-0.158551,-0.489328,0.510517,0.0750852,-0.455667,-0.749064,-0.480907
-2.96351,-1.34142,-1.1009,1.07351,3.12411,2.79783,0.128417,-0.08779,0.736515,0.507911,0.108142,-0.854594
-0.686711,-0.806494,-1.18628,1.71516,1.86908,-1.64891,0.192471,-0.0166501,0.662767,0.146952,-0.216926,-0.965064
0.192562,-0.0241245,0.188972,0.740047,0.958841,0.867499,0.702862,0.248248,-0.0234299,0.262097,0.590442,0.763337
-0.00614811,0.310009,-1.28103,-0.100584,1.15119,0.73309,0.709907,0.104787,0.237983,-0.728252,0.683136,0.0545424
1.6667,-2.11636,-1.2374,-1.10565,1.28046,-2.4061,-0.0420388,-0.702881,0.393551,0.774491,-0.631468,-0.0375832
1.46118,0.309761,-0.788881,1.7893,1.39314,2.58969,-0.0361371,0.669373,0.116044,0.892759,0.450417,-0.010301
-2.83924,-1.7796,-2.9068,3.14159,-0.0191845,0.775275,0.0360071,-0.103105,0.110351,0.68157,0.226943,-0.695672
-0.377602,-0.0104339,-1.3443,0.346896,-2.50246,-2.83737,0.587855,-0.115742,0.426209,0.0654149,0.586293,-0.807453
-3.05481,0.00706147,-1.41117,3.08906,2.38799,2.23986,-0.385084,-0.143067,0.483752,-0.864475,0.350811,0.36002
-2.94659,0.309816,-1.00062,1.25254,-1.19893,-2.87977,-0.623074,-0.234325,0.129403,0.0182249,-0.913684,-0.406017
-0.102473,-1.4048,1.81496,-0.859093,-0.188453,1.90427,0.479714,0.0603953,0.266633,-0.113519,0.0733179,0.990827
1.06418,-0.350217,1.12856,1.45721,0.381149,-0.0454417,0.19764,0.581111,0.0179641,-0.0647242,0.649212,0.757849
2.70697,-0.0314163,0.437392,-2.04271,2.70455,1.46571,-0.843784,0.271369,-0.0461607,0.887052,-0.460739,0.0293019
2.60046,0.309971,-2.1106,-3.05614,-0.201791,1.24697,-0.246267,0.0206546,0.327839,-0.732828,0.514813,0.444895
1.16561,-0.45774,-1.17947,0.949734,-1.85107,0.619646,0.0633891,0.424681,0.595211,0.642303,-0.48713,0.591735
2.84739,-0.978843,0.0428253,-1.52102,-0.614395,2.3383,-0.538493,0.0491089,0.831013,0.740086,-0.642472,-0.198752
1.2314,-0.797903,-0.824614,-0.497604,-2.63821,2.71334,0.0159904,0.373148,0.834557,-0.393202,0.204427,-0.896438
0.429312,0.310068,-1.36873,-2.95655,-2.28288,1.80914,0.431367,0.317519,0.362177,0.693047,0.513832,-0.505631
0.421374,0.310034,-0.878869,2.63324,2.274,-2.79915,0.550203,0.366226,0.215627,0.287385,-0.658543,0.695508
0.26994,-1.25184,1.9341,-0.887431,2.60537,-1.46045,0.411342,0.227067,0.152728,0.269489,0.132942,-0.953783
-0.699293,-0.566329,1.75862,3.14153,-1.60302,-1.06329,0.522966,-0.297232,-0.0123155,0.304388,-0.890731,0.337559
0.0238334,0.309684,-0.523141,-2.08957,-0.738613,1.92202,0.855675,0.129579,0.106008,-0.873626,0.210875,-0.438531
-0.288145,-2.27454,1.15063,2.01409,-2.52087,-2.00102,-0.140655,0.155533,0.707358,-0.812998,0.493979,-0.308252
-2.19395,-2.10301,2.90165,-0.61764,3.0112,2.66438,0.0647266,-0.0969657,0.0812612,0.363561,0.703775,0.610348
0.26776,-2.08827,1.83793,-0.930721,-0.499749,2.81931,0.219284,0.173343,0.519727,-0.0977639,0.444508,0.890424
-0.589492,-0.329567,-0.612748,2.55446,-1.78683,-0.0056313,0.508019,-0.208461,0.547916,-0.55505,-0.803833,-0.213942
1.51972,0.309566,-3.00747,0.703836,1.05145,0.449087,-0.102022,0.142219,0.166944,-0.791877,-0.17198,-0.585965
0.411964,-0.615639,1.95104,0.644021,-1.09646,1.47828,0.278478,0.240802,-0.00923546,0.885569,0.297275,-0.356925
0.224133,-0.544916,1.6239,2.62278,-1.14638,1.32708,0.559727,0.239547,0.0438807,-0.371784,-0.310293,-0.874926
1.21181,-0.885889,2.68463,-1.93493,1.41836,-1.3235,-0.0343626,0.219107,-0.0575651,-0.193213,0.173773,-0.965646
0.551868,-0.262578,-0.645146,2.68454,2.99548,2.07919,0.418985,0.386139,0.527973,0.849166,0.439588,0.292711
-0.173745,-0.196946,0.758132,2.14967,-0.503201,1.52187,0.717542,-0.0151207,0.0495735,0.445028,-0.102053,-0.889683
-0.988902,-0.627432,2.43299,1.3329,-1.54016,-0.0955658,0.22997,-0.150966,0.0518222,-0.814628,-0.572065,0.0955155
1.6245,-1.95432,-0.69541,0.776764,-2.96558,-2.6503,-0.0867477,-0.419682,0.696697,-0.192215,0.699426,-0.688373
-2.32518,0.210494,-1.82406,-0.419928,-0.0378066,-1.77135,-0.251616,-0.427106,0.434498,-0.534208,-0.579408,0.615555
-2.07052,-0.0898594,0.54282,-2.53103,-0.0580425,3.12735,-0.315678,-0.806005,0.0016181,0.289244,0.408756,0.865596
-0.636005,-1.28143,-0.195411,2.37961,-0.961636,3.09435,0.132224,0.0380505,0.828379,0.801239,0.426723,-0.419432
-1.50229,-1.56859,3.13212,-1.96993,1.19232,0.660641,0.111715,-0.0336349,0.0349777,0.697047,0.559594,0.448307
-0.457116,-0.434417,1.32504,1.5885,0.932565,-1.71437,0.563246,-0.155401,0.0377028,-0.657267,0.19522,0.727935
2.68327,-0.0967817,3.06455,3.13797,1.79516,-1.77574,-0.0961636,-0.0742678,-0.0307766,-0.027237,0.234685,-0.97169
1.95523,-0.944283,0.727993,-1.14086,1.08792,-1.98482,-0.373005,0.63096,0.497553,-0.0200959,0.999731,-0.0115575
1.62907,-0.653858,2.19974,-3.14167,1.56865,2.04778,-0.134692,0.434627,-0.042096,0.510046,-0.859885,-0.0212189
1.45922,0.309977,-1.64608,1.5961,-2.62278,1.17931,-0.0559595,0.48085,0.249546,0.250134,0.533313,0.808091
1.3662,0.310256,-0.631063,-2.42034,1.91406,1.18512,0.0584796,0.819046,0.170256,-0.443929,-0.395848,-0.803886
-0.704007,0.309808,3.13506,-0.675855,2.58859,2.80924,0.0675724,0.0858137,0.164886,0.340239,-0.940274,-0.0110678
-2.95522,-0.810771,-2.68514,-1.60922,2.20363,2.58876,0.179939,-0.077144,0.224889,-0.414572,0.620162,0.66598
-1.6142,-0.592352,1.954,-3.05344,2.69652,-2.04872,0.08614,-0.53223,-0.0458359,-0.238242,-0.922099,-0.304916
1.86361,-0.359831,2.90165,-3.14245,0.0758383,2.97248,-0.141302,0.0905532,-0.0606826,-0.135093,0.706849,0.694344
0.249026,0.30913,2.84185,-0.552596,-1.60321,-2.35158,-0.0620825,0.0968362,0.044571,-0.510296,0.59609,0.619899
-0.0563532,0.310113,2.78711,1.50632,2.74535,0.439955,0.112931,0.102953,-0.0476513,-0.493565,0.377602,0.783461
2.25909,-2.10316,1.1062,0.769323,1.96313,-0.26995,-0.0961017,-0.0549851,0.692556,-0.954073,-0.241954,-0.176643
0.260818,0.136946,-0.141484,0.130697,0.139308,0.540404,0.746108,0.312105,-0.0609792,-0.782112,-0.0855047,0.617244
-1.75576,-0.495765,2.8742,-3.14139,0.634675,-0.30186,0.0786387,-0.173197,-0.0482061,0.62087,0.240187,-0.746211
-0.14832,-0.636877,2.47057,-3.1416,-3.12627,-2.60645,0.343636,0.0590167,-0.061468,0.26793,-0.0267047,-0.963068
-1.28323,0.309677,-3.04718,1.51265,-2.03459,-2.06568,0.142437,-0.0967431,0.0817718,0.621687,-0.604341,-0.498274
-1.35816,0.310268,-0.390188,-1.66575,-0.197725,2.59032,0.294286,-0.845856,0.00718334,0.0240515,0.681529,0.731396
-0.790365,-2.22185,-2.46045,0.341765,1.46277,0.0678421,-0.173998,0.330869,0.0695401,0.776778,0.625222,0.0755868
2.1346,-0.4806,3.11153,2.41723,-0.597463,0.338748,-0.15853,0.046489,0.0627393,0.753436,-0.198814,-0.626743
2.7809,0.309932,2.81329,-1.1714,1.54185,2.4711,0.0319286,-0.1287,-0.0124712,-0.255401,0.933383,-0.252125
2.44607,0.309619,2.83725,-0.247295,2.27764,-1.62713,-0.0621588,-0.0902927,0.0536238,0.183884,-0.0977099,0.978079
1.11019,-1.29782,0.394052,-1.8512,-2.81599,2.87929,0.0768824,0.400505,0.894261,0.056508,0.808913,-0.585206
-0.822914,-0.911874,2.41106,-1.55052,1.52438,-1.32298,0.279379,-0.140675,-0.0605837,0.205734,0.138502,-0.968757
-1.40951,0.0483624,0.258925,1.57065,0.785469,-1.55386,0.221458,-0.681439,-0.021416,-0.140655,0.939044,0.313707
1.29813,-0.126444,2.97474,-3.1415,0.107139,1.4424,-0.0853341,0.100143,-0.0612575,-0.1232,-0.389738,0.912648
2.59087,-1.36554,1.58707,-2.41456,2.2657,1.83087,-0.522558,0.192817,0.474221,0.690727,-0.192386,-0.697053
-1.38889,-0.397828,-2.86029,-1.35265,-2.53135,-0.833329,0.0907165,0.110171,0.217808,-0.522303,0.709474,-0.473125
-2.70233,-0.639443,1.9619,1.5131,-0.309553,0.161938,-0.32369,-0.272693,0.0528127,-0.98306,-0.129735,0.129468
-0.397143,-0.860647,2.67936,-2.20065,2.72544,-1.31951,0.241503,0.0170687,-0.056666,0.566406,-0.128569,-0.814036
-1.11017,-0.648882,2.00048,2.13465,2.14845,-1.23309,0.300424,-0.359862,0.0522045,0.314647,-0.00964946,0.94916
-0.35479,0.310154,-2.28246,1.70196,-2.35768,-2.08481,0.29739,0.00622661,0.22929,0.0240248,0.361309,-0.932136
0.11206,0.309725,-1.06443,3.14172,-1.00377,1.59985,0.609557,0.178433,0.2973,0.666364,0.099642,-0.738939
-0.669029,-1.42449,0.270861,-0.796264,1.05891,0.5249,0.309942,-0.105917,0.903257,0.225797,0.783258,-0.579244
-1.24201,0.309928,-1.08851,2.14754,-0.584794,1.16769,0.29422,-0.524355,0.216029,0.0648596,-0.860765,0.504854
-1.01293,-0.12799,0.479123,0.386002,0.0291862,0.532275,0.477044,-0.558334,-0.0615915,-0.135665,0.264919,0.954679
0.590672,0.160293,-0.0628958,-1.42692,2.35236,0.43825,0.68826,0.592915,-0.0394335,-0.573615,0.38922,0.720745
0.29709,-0.333912,0.852255,-0.417953,-0.584432,-0.796865,0.668712,0.318877,-0.0600608,-0.510246,-0.559509,-0.653145
-0.0190453,0.30999,-1.29549,-0.301264,-2.12515,0.655516,0.714248,0.0955651,0.259948,-0.480958,-0.664974,0.571392
2.38749,-1.3949,2.02763,0.240483,-0.551421,1.1663,-0.306622,0.138259,0.214845,-0.215418,0.485216,0.847444
1.40411,0.310224,-0.732224,2.82284,1.57723,-0.0204574,0.00828338,0.707103,0.189927,-0.988992,0.147579,0.0107523
1.07888,-0.656206,2.26445,0.48692,2.57962,-2.83384,0.0172002,0.263197,0.0038713,0.514464,-0.115089,0.849754
0.554389,-0.609104,2.40926,0.0949363,2.28145,1.16911,0.0868012,0.182122,-0.0195037,0.516668,0.668433,-0.535025
0.636578,-0.629503,1.97313,1.79683,1.38104,-2.80401,0.282318,0.344436,0.0518524,0.407412,-0.851148,0.331004
1.84105,-0.661015,2.27263,1.57,-2.00395,-1.38113,-0.191493,0.282387,0.0527253,0.175527,0.00735372,0.984447
1.58778,-0.65061,2.09815,1.69081,-2.85081,3.09391,-0.115692,0.384188,0.0519452,-0.302588,0.952079,-0.0445586
1.44079,-0.597792,1.83902,1.89828,-2.81488,1.98024,-0.0462553,0.488161,0.0518666,-0.0775585,0.392315,-0.916555
1.37233,0.309971,-1.47617,1.2731,1.00322,-2.09262,0.00125062,0.559799,0.22599,0.446347,0.0876482,-0.890557
2.24041,-0.669092,2.32358,1.24087,2.0024,2.94001,-0.257821,0.149832,0.0536934,0.420733,0.902273,-0.0942746
1.34204,-0.587534,2.50841,2.27025,2.54593,-2.98302,-0.0379861,0.318183,0.00341581,0.662944,0.404169,-0.630201
-0.0103167,0.310013,2.84211,0.505323,-3.08259,0.308925,0.0603236,0.108533,0.0459682,-0.977752,-0.0460923,0.204639
-1.0852,0.0838672,2.79574,1.45122,-1.47621,-0.0615038,0.158367,-0.0662239,-0.0127889,-0.83577,-0.545265,-0.0646019
2.1084,-1.27234,-3.03913,-2.11114,-1.47913,-1.17791,-0.0860926,-0.0687427,0.0404933,0.279499,0.275692,-0.919714
-1.9021,-1.79737,-0.253645,2.10533,1.13684,2.84263,0.194884,0.230992,0.75667,-0.955619,-0.112491,0.272282
-0.0303405,0.309706,-1.93534,-1.97146,-1.80408,-0.65595,0.344795,0.0987358,0.436288,-0.456018,-0.757518,0.467135
-0.967455,-1.2138,1.54046,-0.185138,-2.22222,-2.89338,0.377366,-0.355289,0.267794,0.284942,0.945043,-0.160316
-1.16992,-0.631331,1.47625,-1.60529,-1.81456,2.08444,0.361432,-0.573077,-0.0219496,0.171257,0.817855,0.549349
-0.434822,0.213582,-0.076772,1.63215,-2.06745,-1.31719,0.690936,-0.20057,-0.0357871,-0.975021,0.209649,0.0733639
0.950106,0.309868,-2.65215,-0.254153,-0.744054,-2.87818,0.016108,0.210203,0.321688,-0.806669,-0.00394018,0.590991
0.955758,0.309752,-0.548307,1.10858,2.21608,-1.02683,0.322574,0.645788,-0.0087331,-0.599268,-0.131681,-0.789644
-0.540645,0.309788,2.83974,1.74947,2.95194,-2.60224,0.146665,0.0392633,-0.0548543,0.215399,-0.317974,-0.923307
2.02233,0.00807837,2.79955,-1.23795,-1.57522,2.8733,-0.0806518,-0.0838356,-0.0429576,-0.983248,-0.182214,0.00455983
2.216,0.309953,2.81314,-1.17127,1.66574,0.660607,-0.0419278,-0.125799,-0.0125299,-0.953836,-0.0398587,-0.29767
1.30863,-1.13234,1.66027,-1.75789,2.48617,1.58567,0.0522813,0.615979,0.244725,-0.236503,-0.916328,0.323125
0.578465,0.0217836,0.307083,-2.31735,2.69549,1.9393,0.679361,0.573966,-0.00838865,-0.518595,-0.524246,-0.675445
0.810192,-0.265277,0.749518,-1.39965,1.23688,-2.74478,0.494701,0.678197,-0.0397087,0.969451,-0.24525,0.00410207
0.475061,0.273924,-0.234018,-1.92584,-1.36997,-1.58882,0.742483,0.504637,-0.01212,0.836266,0.449989,0.313318
3.00073,-1.75314,-1.30352,1.36228,1.48841,-0.705442,0.354946,-0.160574,0.552057,-0.751225,-0.659808,0.0177411
2.6658,-0.107461,0.563553,2.41991,1.12199,1.12869,-0.716568,0.246441,0.05331,-0.546685,-0.151947,-0.823436
2.31176,-0.286921,1.04729,0.807061,-3.13925,-0.352788,-0.48364,0.366943,-0.0612186,0.23271,-0.251111,-0.939569
-0.947013,0.0501388,-0.556061,2.75671,0.181392,-3.00025,0.493955,-0.49953,0.317463,-0.566599,0.481577,-0.668617
-0.365424,-0.470639,1.22892,0.109348,-0.510129,0.873475,0.591332,-0.109382,-0.0490675,0.0956256,-0.372318,0.923166
-0.581273,0.295798,-0.257914,1.84877,0.821055,2.34892,0.652108,-0.297829,-0.020185,0.159543,-0.719499,-0.675919
1.27965,-1.48691,1.3091,-1.32865,-2.29777,0.91152,0.0435969,0.525741,0.575958,0.219516,-0.86191,0.457082
0.197724,-0.580796,1.93066,-2.94989,-0.071539,2.34554,0.503997,0.21229,-0.0575974,-0.730193,-0.0952928,0.676563
0.599677,-0.650011,1.52886,-0.65022,1.95399,-2.10019,0.406592,0.410192,-0.0478547,-0.0489525,-0.600855,-0.797857
1.11065,0.309815,-2.37281,1.08764,-1.00153,-0.0734881,0.0344345,0.315263,0.252185,0.645747,-0.588721,-0.486228
1.11482,0.309801,-1.97282,-1.83616,-0.0696017,1.46303,0.0497419,0.349301,0.438836,0.204201,0.399374,-0.893757
0.154082,-0.382617,0.946446,-0.0120668,0.584863,-1.3281,0.651427,0.211634,-0.0424003,-0.691781,0.0268262,-0.721609
0.622405,-0.608468,2.09144,-3.14159,-0.172422,2.82567,0.324256,0.36701,-0.0503419,-0.413266,-0.0958206,0.905555
0.970708,-0.363638,1.15516,-2.33391,1.63896,1.2468,0.343328,0.69503,-0.0414216,-0.796895,-0.60216,0.0485998
0.318429,0.068361,0.184526,3.14183,-2.7694,-1.73957,0.751713,0.362727,0.053621,0.359204,0.182728,0.915195
-1.08855,-1.03286,2.67129,0.400127,-1.06807,0.484877,0.146216,-0.0439678,0.105459,-0.404773,-0.898413,0.170329
-0.8721,-0.630366,2.04705,0.529761,1.88564,-2.32234,0.286499,-0.171352,-0.0132053,-0.884381,0.0434472,0.46474
-1.36471,0.310099,-1.43217,1.80787,2.24586,1.98476,0.212217,-0.48172,0.239636,-0.228536,-0.441355,0.867743
-1.33369,0.309721,-0.817718,0.921512,2.56975,0.56262,0.27274,-0.663975,0.0637516,0.648295,-0.733931,0.202629
-1.43427,0.309903,-2.37322,0.19972,-0.966199,-1.90818,0.150312,-0.292161,0.332496,0.385376,-0.804185,0.452518
-3.02485,-0.54811,2.57953,1.01747,2.12499,1.44236,-0.165687,-0.129329,0.0534913,-0.0118387,-0.111044,-0.993745
-1.27968,0.30966,2.79903,-1.31361,0.493397,-3.09115,0.0817304,0.107513,-0.0322041,-0.523377,0.0987318,-0.846362
0.509401,0.309688,2.79496,-1.35192,-1.66914,-2.82875,-0.123322,0.0561392,-0.0377263,-0.711241,0.687285,0.147562
-0.054467,-1.73511,0.38644,-2.13287,1.4473,0.604035,-0.00869812,0.109786,0.980281,0.329009,0.800057,-0.50166
1.81742,0.309737,-1.68956,0.892515,-1.31049,1.1976,-0.233663,0.481061,0.261102,0.468336,-0.417221,0.778837
-2.10727,-0.667912,-0.805839,0.865455,2.59544,0.07902,-0.1238,-0.421744,0.665114,0.110805,-0.826722,0.551591
1.08688,-1.67448,0.677637,-1.69536,-2.97086,2.5619,0.00113148,0.23676,0.926526,0.108966,0.512845,-0.851538
2.29883,-0.202654,0.58574,-0.049739,-0.0423273,-3.06724,-0.579964,0.486603,-0.0613581,-0.6418,0.656594,-0.396202
2.03549,0.310196,-0.930166,-2.04574,-2.61001,-0.0222595,-0.441456,0.637043,0.271464,0.791762,-0.44858,0.414595
1.99414,0.31015,-1.08079,3.14136,0.978728,-2.11307,-0.354297,0.520609,0.300581,0.720478,-0.556551,0.413719
2.01452,-1.1614,2.36621,-2.56465,0.00826352,0.703703,-0.271203,0.316301,0.0929457,0.334471,-0.718326,-0.610031
1.01974,-0.536183,1.60165,1.38277,3.05743,1.80675,0.166051,0.478664,0.035845,0.435906,0.671771,-0.598924
1.05574,0.0733725,0.170382,2.48226,2.10754,-0.966232,0.282475,0.72065,0.0499288,-0.719698,-0.279861,0.635383
1.12558,0.309797,-1.92051,-1.64981,1.66357,2.25369,0.0642277,0.388054,0.44551,0.631714,-0.135131,-0.763333
0.407425,-0.267135,0.96547,-2.55947,-0.720412,3.068,0.692224,0.417626,-0.0237524,-0.522377,0.49112,0.697082
2.07774,-0.634076,2.5187,-3.14173,-3.12679,1.42025,-0.246577,0.219184,-0.0613557,0.436065,-0.780632,0.447728
3.09617,-1.0587,1.66891,0.542576,-2.76169,-2.77949,-0.44771,-0.088913,0.196442,0.659848,-0.377136,0.6499
2.72116,0.309942,-1.455,0.121274,-1.98441,2.61817,-0.63574,0.16467,0.267536,0.231335,-0.972158,-0.0373232
2.64756,0.309989,-2.26985,-2.48983,-2.74863,-3.10681,-0.196634,-0.0180702,0.347029,-0.362985,-0.239172,0.900577
2.50146,-0.415109,1.17668,-1.97781,0.630465,1.15259,-0.675978,0.367344,-0.0429789,0.635647,-0.77192,0.0096119
2.19702,0.31011,-0.635215,3.10551,2.41879,-1.83473,-0.523893,0.538026,0.173296,0.232501,-0.026984,0.972222
0.935964,-0.548822,1.64551,1.80238,0.174128,1.25676,0.219865,0.482561,0.0537696,0.267508,0.453436,-0.850197
0.446453,0.309903,-2.07643,-3.14164,2.37172,-1.19952,0.165404,0.200188,0.325897,-0.887797,-0.145011,-0.436792
0.458551,0.309692,-1.92592,1.75894,-2.3366,2.43913,0.286605,0.263206,0.257791,-0.630685,0.302227,0.71477
-2.98725,-1.12787,2.07527,1.84206,-1.37694,1.24665,-0.357217,-0.166039,0.243522,-0.42801,0.249705,-0.868593
-2.61596,-0.676876,2.28816,0.919421,-1.03879,0.718085,-0.171116,-0.225442,0.0409654,-0.922757,0.215008,-0.319831
-1.69143,0.309859,-2.87668,2.18205,1.54893,-1.8387,0.0949909,-0.123393,0.0850803,-0.30693,-0.332808,-0.891646
-2.00321,-0.494835,-2.75303,-1.42858,-2.59881,1.73662,0.145454,0.0546844,0.25278,-0.337765,-0.935265,0.105804
-0.772544,0.11396,0.106612,-1.82908,0.626759,1.27306,0.7204,-0.549699,-0.0414192,-0.557633,0.783743,-0.273483
-0.584321,-0.167409,0.644888,-1.5939,-0.016715,-1.59847,0.771256,-0.379218,-0.0618217,0.75955,-0.501783,-0.413881
-1.52826,-2.36067,-0.447605,0.413007,-0.519231,2.75535,0.0831866,0.612354,0.586157,0.423257,0.865013,0.269453
-2.42469,-1.47794,-1.53995,0.295129,-2.71001,-2.58038,0.30643,0.122296,0.647193,-0.46006,-0.870776,0.173477
-1.3578,-0.162687,0.749968,-2.23338,2.88688,2.14862,0.284312,-0.798237,-0.0522279,-0.302675,0.748444,-0.590101
-1.62342,0.31004,-1.13194,2.95121,-0.340401,2.80069,0.0778871,-0.596449,0.29695,0.324065,0.17044,-0.930555
-1.15432,-0.253909,0.659678,0.396245,2.11943,-0.784187,0.384511,-0.599432,-0.0247227,0.450921,0.473839,-0.756404
-0.879808,0.309852,-3.1026,-1.99339,-2.68905,-2.76563,0.0469862,0.114454,0.0866699,0.0407778,0.588873,0.807196
-2.19049,-0.59364,1.81325,1.86413,1.02838,-1.80212,-0.19094,-0.455566,0.0530787,-0.0585407,0.256039,0.964892
-0.370562,-1.7163,1.39907,-1.09473,-0.991749,3.09368,0.416589,-0.0447507,0.617052,0.339266,0.765094,0.547293
-0.0545913,0.309983,-0.661079,-1.95089,2.53477,-1.36869,0.84822,0.0629613,0.157625,0.624443,0.0805147,0.77691
-1.40817,-2.04156,1.36291,-1.33351,-1.01285,-2.0579,0.139791,-0.17786,0.754594,0.504069,-0.619708,0.601561
0.432426,0.309707,-0.980058,2.81411,-2.59325,0.48489,0.528641,0.364216,0.254629,0.177256,-0.426123,-0.88713
0.26872,-1.14533,-2.81628,1.3938,1.22468,1.69369,-0.0683164,0.0944,0.268964,-0.52244,-0.263479,-0.810947
-0.956951,0.310103,-1.10796,-2.0324,-0.509503,2.11858,0.496816,-0.515554,0.330364,-0.192283,0.713863,-0.67337
2.52057,-1.30131,-2.15511,-2.46756,1.04564,1.79397,0.174858,-0.259311,0.28875,-0.251861,0.415661,0.873952
2.50998,0.309838,-1.09623,-0.831789,1.52367,-2.12394,-0.691056,0.370328,0.241695,-0.375152,0.92468,0.0650258
2.39448,-0.00343097,0.219416,0.558979,3.1161,2.1093,-0.618473,0.424067,-0.0610681,-0.163069,0.168859,0.972057
2.29721,0.309814,-2.54384,-0.59096,0.222809,0.139907,-0.209613,0.0715886,0.358626,-0.744299,0.508287,-0.4332
-1.81829,-1.58672,2.38838,1.23296,-3.10868,0.398157,0.061385,-0.202611,0.274612,-0.01339,0.0708425,-0.997398
-1.85453,-0.628346,2.31968,0.182353,2.53373,2.30127,0.0470279,-0.228625,-0.022195,-0.610586,-0.732686,0.300593
-1.06016,0.309816,3.06037,-2.11276,1.67334,1.97298,0.062324,0.112078,0.0192944,0.0820993,-0.943248,0.32178
-1.05994,0.309952,2.9225,-1.8111,0.830663,0.446847,0.0563554,0.122698,-0.0189711,0.745515,0.0317988,0.66573
2.22409,-0.530235,2.90194,-2.95532,0.856207,1.51625,-0.170047,0.0425824,-0.0479147,0.319851,-0.485635,0.813544
-1.80516,-2.2449,2.28338,1.79036,0.0489737,-1.43129,0.0980008,-0.059547,0.43026,0.220745,0.895264,0.387006
0.322718,-2.29407,-2.89761,3.06676,1.32316,-1.68688,-0.053499,0.0972008,0.10951,0.822482,0.15664,0.546797
1.59639,-2.10168,-1.63338,2.99754,0.830161,-2.57067,-0.0969139,-0.479343,0.166248,0.600729,0.799245,-0.018199
2.3899,-2.01316,0.925691,-0.923047,0.235077,-1.81818,-0.137364,-0.0210084,0.86086,-0.527918,0.571546,0.628203
0.903483,-0.352062,1.1408,-2.92305,2.54316,-1.15961,0.381754,0.660894,0.00798561,0.19354,0.609478,0.768817
1.7226,0.248798,-2.88553,3.03168,-0.446459,-2.30023,-0.112762,0.0153064,0.0868688,-0.324972,0.221392,-0.919445
1.81368,-0.114243,0.582351,2.84824,-1.04863,0.369619,-0.295637,0.739339,0.0538321,0.689445,0.577953,-0.43662
2.89566,-2.34265,1.08026,-2.21568,-0.153146,-0.519372,0.175756,-0.156654,0.856807,-0.594311,0.285724,0.751769
1.93866,-2.29244,1.12146,-0.939154,0.843189,-2.60231,-0.0849937,-0.0829826,0.818139,0.544857,0.368108,0.753411
-3.07892,0.309539,-2.81055,-0.365039,-0.191385,1.69821,-0.109003,-0.116205,0.285208,0.390651,0.000297031,-0.920539
2.91911,0.309555,-2.78441,-2.3673,-0.995334,2.9751,-0.0267163,-0.105864,0.19002,-0.410574,-0.755364,-0.51074
2.82938,0.310329,-0.526666,-2.56329,-0.34848,1.58393,-0.815144,0.148411,0.13209,0.346578,-0.116579,-0.930749
0.0181497,-1.19808,2.90717,2.1467,2.816,-1.92104,0.160679,0.112085,0.167993,0.862747,-0.0941148,0.4968
0.298516,0.309621,3.06016,-0.545307,1.70784,0.624498,-0.0386059,0.102321,0.138326,-0.162744,0.790759,-0.590098
0.00224316,0.310304,2.78671,1.51291,2.77328,-1.62233,0.10675,0.10939,-0.048412,0.998389,-0.0163064,0.0543458
0.0850516,-0.0372221,2.82079,2.02323,2.50951,3.04384,0.141737,0.12163,-0.0414032,-0.122278,-0.600564,-0.790171
0.857457,0.309799,2.78161,1.56966,-3.0348,2.77798,-0.0121689,0.152741,-0.055231,-0.276554,-0.16735,-0.946315
-0.400428,-1.94625,0.63285,0.830319,2.17146,-1.09962,0.0314752,0.105203,0.780063,0.736353,0.0949456,-0.669903
-1.94259,-0.247153,0.871774,2.95663,2.37857,-1.45409,-0.178241,-0.757565,0.0493974,-0.0509288,-0.352134,0.934563
-2.29341,-1.17637,-1.45354,0.168395,0.697344,1.2373,0.160686,0.0172027,0.747182,0.421625,0.160333,-0.892483
-1.86229,-0.172223,0.70617,-2.0588,1.58034,-2.57068,-0.139993,-0.846386,-0.0419846,-0.960909,-0.274912,-0.0328365
-1.73214,0.309723,-0.66588,1.01866,1.39805,2.64291,-0.00699542,-0.722452,0.0217614,-0.920284,-0.268855,0.284243
-2.02239,-0.397291,0.98201,-0.413125,-1.61149,0.0746781,-0.208504,-0.679997,-0.0561673,-0.919506,0.387395,0.0665854
-1.56364,0.309662,-1.81886,-2.59185,-0.351117,2.99995,0.111664,-0.350637,0.405478,0.3375,0.42038,-0.842243
0.395802,-0.59985,1.79797,2.39812,-1.18366,-0.302421,0.451731,0.307053,0.0487899,0.760254,-0.640365,0.109305
-2.32173,-2.2871,-1.92594,-1.3631,1.10869,-2.50865,0.440314,0.311788,-0.00660731,-0.451919,0.573553,-0.683232
1.70405,0.309706,-0.595599,-2.31032,-1.33109,-1.82093,-0.218483,0.808346,0.151167,-0.298422,0.416398,0.858811
2.98534,0.0963174,-0.500076,-0.0574481,-2.1714,-0.127563,-0.832786,0.0206976,0.117633,-0.424454,0.895248,0.135536
2.69231,-0.297733,0.990659,1.78857,-0.233555,-3.11388,-0.632947,0.184013,0.0380358,0.606784,-0.549411,-0.574423
-0.912189,-2.19999,-0.372084,0.986709,0.211217,2.79617,-0.211,0.450999,0.645664,-0.371412,0.157615,0.914992
0.454798,0.309824,-0.827519,0.172338,-2.92412,-0.772164,0.650661,0.439665,0.064635,0.871398,0.254037,-0.419679
1.65897,0.203796,-0.946496,-1.65234,-2.63941,-2.91933,-0.176482,0.756831,0.337891,-0.536124,0.732915,-0.418816
-0.0523445,-1.52122,1.95816,1.12012,2.84095,0.0427879,0.287143,0.0942556,0.346349,0.0712807,0.29253,-0.953596
-3.14159,-2.1419,-0.494075,-0.674618,0.914291,-2.38113,0.588826,-0.10915,0.730002,0.551839,0.57391,0.605063
0.539682,-0.490242,1.49846,3.14166,2.82287,-2.03256,0.513731,0.434957,0.00794726,0.914995,0.385343,0.119559
0.1354,0.310033,-2.01306,-1.91786,1.35178,2.18902,0.291809,0.149912,0.432307,0.338004,-0.524923,-0.781159
0.0366935,0.309925,-2.16839,-2.5657,-0.152976,-0.78537,0.198577,0.116513,0.362575,-0.474991,-0.125262,0.87103
0.0361325,0.309969,-1.73082,-0.104825,-3.06171,3.05266,0.553587,0.129232,0.343102,-0.136288,0.0746054,-0.987856
0.315398,-1.26965,0.209292,0.967454,-0.624938,-0.451332,0.27652,0.205039,0.74304,-0.48903,-0.713346,-0.501983
0.516038,0.309864,-0.952751,-0.395065,-2.17203,0.185365,0.642168,0.489802,0.146641,0.507503,-0.643945,0.572516
1.02597,-0.639297,1.61486,2.47293,-1.49696,-2.60153,0.212226,0.560803,0.108164,-0.682249,0.524571,0.509276
-2.20962,-0.257928,2.71042,-0.617314,2.5126,2.63565,0.077588,-0.0785953,-0.02711,-0.802265,-0.217082,0.5561
1.09656,-0.26914,-1.46873,2.31419,-2.21731,1.34823,0.0366469,0.310413,0.509594,0.450373,0.491578,0.745329
-0.00700883,-0.505405,1.51118,1.64355,-0.657126,-2.86017,0.537907,0.105383,0.0470536,-0.79742,0.592417,-0.11473
-1.79166,-1.00764,0.0654034,1.96751,0.92446,0.972867,0.023992,-0.391375,0.7167,0.322221,-0.616189,0.718668
-0.6664,0.250029,-0.155289,-1.89715,-2.62338,-2.01617,0.770516,-0.467084,-0.0313786,0.889862,-0.428337,-0.157078
-1.52146,-0.16832,-0.812975,0.719015,-2.16256,-0.192202,0.141646,-0.655417,0.39499,-0.78516,-0.617832,-0.0425165
-1.24301,-1.81342,2.36955,-3.01267,-1.74954,-2.20143,0.196999,-0.240291,0.367936,0.740024,-0.373859,0.5591
-2.92168,-1.75578,0.140266,-1.84247,-1.59119,0.334137,0.145948,-0.0792205,0.988718,-0.287749,0.903486,-0.317669
-1.03764,-0.636716,2.40463,1.37522,-3.01268,-2.06988,0.228713,-0.172785,0.0518421,0.294921,-0.378664,0.877289
-0.99993,-0.643499,2.38413,1.38529,2.81433,-2.24374,0.238939,-0.170074,0.0521899,0.143673,-0.594516,0.791144
-1.384,-0.658392,2.26625,1.52989,1.78529,-1.14544,0.166913,-0.295408,0.051862,0.379213,0.164624,0.910547
-1.49156,-0.581571,1.83355,3.14161,-2.38023,2.71703,0.153761,-0.55754,-0.0201896,0.612086,0.233601,-0.755501
-1.48236,-0.562079,1.74853,3.1416,2.63472,-1.14819,0.161226,-0.582469,-0.0124836,0.261126,-0.690681,0.674369
1.51143,-2.28563,1.24875,0.117812,0.769453,2.13798,-0.109178,0.00277034,0.690366,0.347241,-0.457875,0.818397
-2.23227,-1.4926,-0.736451,-3.14161,1.9758,-2.36568,0.259129,0.15518,0.765251,-0.0716477,0.975931,-0.205976
0.0303469,-0.527997,1.4251,-2.0936,1.21842,0.162473,0.696302,0.130337,-0.0378811,-0.30306,0.917421,-0.257865
-2.8173,-0.752986,-2.60436,-2.13131,-1.60085,-2.43471,0.168042,-0.0586634,0.229496,0.696616,-0.567669,-0.438724
0.361473,-1.78672,-1.70246,-2.73251,0.2797,0.552777,-0.474174,-0.0625872,0.276206,-0.8166,-0.0575596,0.574327
2.0778,-0.553036,0.635688,-2.07298,-2.59057,2.36586,-0.502803,0.680459,0.318571,-0.13653,-0.523966,-0.840725
0.894854,-0.607573,1.70712,-2.66747,-1.57392,-0.977089,0.303789,0.553266,-0.0179841,0.954996,0.296619,-0.000624804
1.50286,0.309739,-2.27977,2.14122,2.61231,-1.71829,-0.0928666,0.243043,0.227751,0.0541091,-0.297863,-0.953074
3.05174,-0.171538,-2.95595,0.122107,-0.620582,-1.62192,-0.0490395,-0.105174,0.261012,-0.0967141,-0.0211217,0.995088
2.62418,0.310025,-2.92928,-2.36089,1.67937,-1.47448,-0.0309714,-0.107963,0.130153,0.784561,-0.556527,-0.27339
2.59926,0.310141,-0.813738,0.675162,0.701423,-0.980074,-0.6834,0.284383,0.0554831,0.295017,-0.597401,-0.745706
-0.565867,0.309551,-1.28873,-0.684881,-0.57144,2.03251,0.664432,-0.29271,0.294088,-0.652733,0.70001,0.289699
-0.925269,-0.186504,-0.21791,2.10098,1.5161,-2.33574,0.498897,-0.480969,0.33418,-0.985777,0.159505,0.0529379
-1.19712,0.0114664,0.304027,3.13075,1.90024,-0.618324,0.403232,-0.729391,0.0528679,0.689493,0.353706,0.632053
