Fabiaho/6DOF-Inverse-Kinematic/project files/arm_pose_data.csv
Shoulder_Pan,Shoulder_Lift,Elbow,Wrist_1,Wrist_2,Wrist_3,TCP_X,TCP_Y,TCP_Z,Orientation_X,Orientation_Y,Orientation_Z
-2.56944,0.30916,2.84238,0.497201,-2.41744,1.23631,0.00983914,-0.12349,0.0464884,0.44867,0.547631,-0.706255
-2.22143,0.310032,2.79577,1.41374,2.16365,-1.10902,0.0228692,-0.150164,-0.036399,-0.209285,-0.885003,0.415897
-2.45895,-0.694014,-1.33287,-1.15312,0.211313,-0.194994,-0.0477571,-0.179503,0.807736,-0.60814,-0.759644,0.23045
-1.72349,0.309711,-1.99301,2.51525,-1.25542,-2.71546,0.0636538,-0.303992,0.285656,0.873136,-0.0176384,-0.487158
-2.80844,-2.07083,2.55461,-0.55797,0.668741,-1.69343,-0.106514,-0.15236,0.185289,-0.184775,0.0163124,-0.982645
-1.12509,-0.646517,2.42119,2.19264,1.4932,0.122931,0.240482,-0.250151,0.0252325,0.876436,0.460811,-0.139692
-0.711425,-1.63558,2.59834,-1.92393,2.08371,2.66012,0.278923,-0.0963288,0.137125,-0.980411,-0.174453,-0.0914325
-0.439128,-0.186099,-2.08517,-2.6638,-2.10851,1.70254,0.112038,0.0679652,0.446783,0.909644,-0.302621,0.28455
-0.802091,-0.532132,1.73279,-2.7827,3.0822,-0.667826,0.497509,-0.357399,-0.0598287,0.457872,-0.406377,0.790703
-1.1646,-0.592866,-1.37781,1.21812,-3.03026,-0.735373,0.204762,-0.199813,0.618839,0.318051,-0.947969,0.0140415
-2.21158,-1.57516,2.03067,2.85155,-1.55804,2.27777,-0.131301,-0.358639,0.434954,0.600393,-0.281337,-0.748584
-1.13928,0.256212,-0.276694,1.28604,-0.877766,-2.13756,0.397365,-0.602006,-0.0389544,0.0817546,0.810011,-0.580688
-0.336137,-0.755188,2.48496,-3.14159,-0.758517,0.192269,0.357748,-0.00937522,-0.021823,-0.5073,-0.537948,-0.673245
-0.86789,-0.696476,2.40528,-3.14162,2.40592,-2.99764,0.319751,-0.208542,-0.039735,-0.480108,-0.460744,-0.746466
0.269268,0.309666,-1.71119,1.92445,-0.977744,-1.00317,0.379293,0.217904,0.264287,-0.538265,-0.611033,-0.58044
0.173665,0.310339,-0.622613,1.29868,-1.31972,3.02382,0.66966,0.228297,0.0276628,0.0643851,0.98792,-0.140956
0.0972137,-0.472501,1.16088,-0.720553,-0.560784,1.73847,0.670579,0.175063,-0.0612091,0.100402,0.09897,0.990012
0.176965,-1.48975,2.24049,-1.11729,1.73667,-3.01333,0.330375,0.169964,0.156818,0.0668378,-0.981739,-0.178102
0.451573,-0.989638,-2.17091,1.4742,0.385181,-0.488737,-0.105971,0.0699144,0.447862,0.359748,0.543174,-0.758646
0.869159,-0.0732454,0.532701,1.3275,-1.51089,1.63383,0.357478,0.592107,-0.0333861,0.580647,0.784499,-0.217741
2.16344,-2.13867,-0.709191,1.31566,3.06439,-2.98225,0.194023,-0.483538,0.55737,-0.00418012,0.142537,-0.989781
0.844253,-0.56961,1.60433,-2.21425,-0.112641,-2.98084,0.347374,0.555184,-0.0549568,0.263838,0.463903,0.845685
2.8368,-0.016551,0.362876,3.14163,-0.687783,2.3409,-0.820717,0.143771,0.0520754,0.582489,-0.646578,-0.492588
2.81876,0.169518,0.02496,1.34702,-3.1416,-0.631084,-0.707148,0.121468,-0.0611188,0.536866,-0.179607,-0.824328
2.87384,-0.393064,1.23324,1.4012,-0.120598,2.86738,-0.5884,0.0482364,0.0186307,0.337478,-0.212673,-0.916995
0.597379,-0.131242,-0.760649,-0.715025,2.74792,-0.967164,0.568838,0.518991,0.453468,0.542129,0.632154,0.553603
-2.62993,-2.14276,-0.926661,-3.04503,2.30769,1.51235,0.60901,0.216805,0.381497,-0.158741,-0.138755,0.977522
-1.97981,-0.594192,1.94028,-3.08481,2.43494,1.38878,-0.111779,-0.532332,-0.0394774,0.502615,0.864035,-0.0286537
-0.632184,-0.608836,2.19513,-3.1417,-3.12601,0.779901,0.417198,-0.170285,-0.061438,-0.564959,0.400076,0.721638
-0.0112122,0.309686,-3.03518,-2.141,-2.90362,-1.13036,-0.0462996,0.109676,0.103653,-0.831323,-0.0911871,-0.548258
-2.38209,-2.21779,2.13955,3.04095,2.33309,-2.66315,-0.0104313,-0.160419,0.552064,-0.820149,0.106623,0.562128
-0.59219,0.310094,-2.97338,1.92917,0.151201,-1.22982,0.160416,0.0236335,0.069744,0.348326,-0.173622,-0.921154
0.188935,-1.82569,2.69624,1.89622,-2.7668,-3.00475,0.0884807,0.128046,0.288559,0.725443,0.507942,0.464464
-0.286084,-0.152077,0.604723,1.12561,1.59901,-0.908091,0.681433,-0.0866713,-0.0173002,-0.58284,0.812506,-0.0114776
-0.0629755,0.309725,-2.62756,-1.59681,0.226211,-2.39611,0.0788862,0.104392,0.315165,-0.994637,-0.102403,-0.0144897
-2.79565,-2.07892,-1.07469,-1.23002,1.17761,0.572238,0.684799,0.1308,0.486311,-0.316676,-0.939583,0.130003
0.14129,0.309637,-2.36481,-2.39868,0.274054,-0.317383,0.113958,0.126458,0.330982,-0.103414,0.244998,0.963992
-0.757478,-0.622298,2.24867,-3.14174,-0.0355378,-0.0880722,0.378735,-0.207929,-0.0599949,-0.00057878,-0.0481644,-0.998839
2.7272,-1.0722,2.57019,0.344164,0.817685,-1.41764,-0.172628,-0.0433098,0.0965762,0.801129,-0.473981,0.365422
2.97666,-2.10092,2.23174,1.95046,-1.92824,-2.49402,-0.108098,-0.0926589,0.450904,0.262038,-0.801037,0.538216
1.46959,0.105036,-0.0791984,0.212557,-2.5711,-0.702927,-0.0285264,0.799399,-0.0575063,0.457541,0.42727,-0.779806
0.450674,-0.586825,-1.66376,0.776612,-0.520551,2.04604,0.133861,0.186031,0.620395,-0.861231,-0.163927,0.481049
-0.486455,0.310407,-0.717358,1.26135,-2.41289,-0.136614,0.664097,-0.22773,0.0524472,0.0298316,-0.762048,-0.646833
-0.649123,-0.725619,1.78618,-0.361901,-1.06646,-0.331674,0.423362,-0.184239,-0.043575,-0.945915,-0.321342,0.0445357
-0.915239,-0.363723,1.18983,1.11145,1.11417,0.448382,0.436853,-0.389021,-0.0141246,0.974709,0.0593228,0.215458
-0.549584,0.309924,-3.07952,-0.654252,-3.07028,2.51822,0.068071,0.0863031,0.193018,0.832136,-0.441867,-0.335118
1.48697,-1.65249,0.498177,1.00382,-0.39754,-2.17514,-0.097196,0.146845,0.777881,-0.165516,0.657526,-0.735027
0.212271,-0.6322,1.94102,1.02316,1.89012,1.50052,0.344486,0.185899,0.0267216,0.677108,0.214125,-0.704042
-2.86186,-0.359456,3.04357,3.00988,-0.759854,-1.73693,-0.0645522,-0.132108,-0.0132832,-0.591077,-0.288314,-0.753328
-2.33542,0.310381,2.83472,0.165131,-2.86779,-1.9687,0.0591544,-0.0960059,0.0540388,-0.286095,-0.449584,0.846182
-2.28951,0.30991,2.8111,-1.19079,1.05735,-1.86062,0.132202,-0.0146527,-0.0152368,0.435788,0.876237,0.205662
2.11162,0.309719,2.7961,-1.3413,-1.26244,2.69859,-0.0523342,-0.124864,-0.0361835,-0.927384,-0.127848,-0.351588
-2.29965,-1.28308,0.110871,-0.469149,0.437989,-0.55438,-0.16318,-0.346646,0.864862,-0.1169,-0.672351,-0.730943
0.623015,-1.78218,-1.62443,-0.796755,1.99777,2.28616,-0.51066,-0.232493,0.448087,0.991157,-0.0230011,-0.130683
2.90978,-0.250689,-1.6084,1.21438,-1.65072,-1.61432,-0.3726,-0.0241935,0.495,-0.5916,0.0950942,-0.800603
3.14105,-0.458484,1.24757,-2.2268,-2.10077,0.262173,-0.751319,-0.108744,-0.0136821,0.192555,0.833235,0.518307
2.29642,-0.636529,2.46529,-3.14179,-0.0152252,-2.54845,-0.302783,0.176851,-0.0616169,-0.508372,0.554073,0.659213
1.40723,-0.641189,2.45399,-3.1415,3.08612,-0.573119,-0.0525764,0.351731,-0.0601392,0.0725156,0.725443,0.684452
1.1878,-0.622205,2.24014,-3.14164,3.07044,0.529277,0.0562402,0.431673,-0.0594091,-0.230249,-0.407281,0.883803
2.33758,0.309741,-2.16439,0.472675,0.804985,-2.52173,-0.347732,0.203607,0.318401,-0.0468474,0.894252,0.445104
-3.11001,-1.35848,0.240435,1.1766,-0.224645,-2.59962,-0.252033,-0.117166,0.762857,-0.797121,-0.216113,-0.56382
1.97597,0.0265391,-0.629747,1.11416,0.361623,-1.82879,-0.376863,0.601763,0.217839,0.187283,-0.207654,-0.960107
-1.34401,-1.43813,-1.02356,-0.466897,-1.41015,0.858874,0.0549097,0.247484,0.849549,-0.641388,-0.0885677,-0.762087
-2.91892,-2.23244,-0.779051,2.92552,0.283124,2.86256,0.650189,0.0353044,0.381067,-0.933177,0.064057,0.353662
-3.03953,-1.27078,-0.705648,3.14159,2.29357,3.13975,0.126664,-0.0967488,0.818246,0.181568,0.772489,0.608517
-0.97707,-2.0772,-1.02584,-1.6499,-2.96558,-0.0548451,-0.297048,0.635194,0.4721,-0.153264,-0.0854511,-0.984484
2.48914,-0.0125953,-2.50336,0.857396,0.609353,-1.82645,-0.22622,0.0354862,0.332515,-0.663498,0.689113,0.291365
2.43762,-0.942945,1.77117,0.697869,-2.20907,2.90371,-0.391053,0.188855,0.139896,-0.664905,-0.459344,0.588986
1.63317,-0.51609,1.58004,3.14159,0.181347,-0.263523,-0.149007,0.634749,0.00189803,-0.216721,0.67652,-0.703813
2.20061,-0.62308,2.419,0.241388,1.27583,-1.04427,-0.190127,0.07555,-0.00261741,0.0275248,-0.854126,0.519338
2.8183,-0.287999,1.01347,1.15687,0.805396,0.138466,-0.613908,0.0905733,-0.0213668,-0.550914,-0.568643,0.610851
2.66406,0.310212,-0.481027,2.88224,-1.21771,-3.0509,-0.717849,0.248569,0.112127,-0.117925,-0.991129,-0.0612927
2.60008,-0.699801,2.3674,-3.14166,2.11511,0.761193,-0.3831,0.103057,-0.0366684,0.238053,-0.865979,0.439784
2.4026,-0.648813,2.13321,-3.13952,2.25378,-1.14518,-0.418553,0.233733,-0.0368536,-0.870305,0.359765,0.33636
-2.96903,-1.41301,-0.582547,-0.533548,0.842274,1.9982,0.0585898,-0.100584,0.943718,0.684764,0.433304,-0.585958
1.34229,-2.38142,-2.2713,1.11534,3.12093,2.83619,-0.189648,-0.333598,0.0777863,0.244748,0.965384,0.0901792
-1.69398,0.310052,-1.07674,1.07492,2.01037,2.6732,0.0274104,-0.666945,0.141423,-0.773718,0.32237,0.545379
1.44914,-1.73381,-1.0066,2.95343,2.35457,-2.10159,-0.162966,-0.433516,0.569191,0.291365,-0.57119,-0.767364
0.205339,-0.627451,1.98963,0.67694,0.364738,0.378292,0.311411,0.176351,-0.00235199,0.638705,0.471624,0.607969
-1.6525,0.310183,2.80836,-1.21466,0.89628,-0.0861958,0.11506,0.0677116,-0.0186588,0.765551,-0.185171,0.616152
1.61658,-0.513911,-0.199193,-1.3365,2.15523,1.06341,-0.143401,0.744998,0.598295,-0.363664,-0.916846,-0.16475
1.52108,0.0755348,0.14421,-1.44171,3.11713,0.374359,-0.0645134,0.899873,-0.0607668,-0.02401,-0.0244593,0.999412
1.32478,0.310034,-1.27462,1.90816,2.33693,-0.0496051,0.0284719,0.561565,0.226301,-0.608831,0.530536,-0.589793
0.35879,-0.126782,-0.368675,0.495388,-1.76815,1.06088,0.679531,0.371412,0.234736,0.25762,-0.414563,0.872794
-0.0825633,0.012675,0.121269,0.950845,1.65826,1.77897,0.736527,0.0485744,-0.0128214,0.836786,-0.275831,0.472977
-0.0743645,-0.079828,0.501172,2.00224,-2.15787,2.15673,0.725443,0.0554056,0.0339074,0.810886,0.401256,-0.425978
-0.265171,0.310133,-1.01348,-1.88645,-3.13333,-0.0481412,0.755772,-0.0921387,0.293755,-0.798659,0.208337,0.56457
2.57323,-2.19452,-0.573552,-2.9744,2.79502,1.81495,0.499297,-0.448396,0.496121,-0.212481,0.233132,0.948947
-1.27116,-0.82951,-1.09113,1.46312,-0.183861,2.63456,0.16165,-0.153464,0.686214,0.316983,-0.484588,0.815289
2.40652,-0.274845,-2.81819,2.10329,0.774617,-1.1908,-0.144692,-0.0163305,0.17159,-0.641864,0.230565,-0.731334
1.08292,-0.478334,1.45646,3.08336,-0.760519,1.97292,0.218444,0.644498,0.0167835,-0.661994,-0.671967,-0.332
1.0649,-0.350537,1.1333,2.30588,1.67651,-1.3291,0.230282,0.640926,0.0529899,-0.245321,0.0483287,0.968236
-1.3999,-0.425791,2.61382,2.34309,2.34064,2.83766,0.150608,-0.230875,-0.0381085,-0.704832,0.0555891,-0.707193
-2.5211,0.310787,2.84201,0.467821,0.774078,-2.51323,0.0178695,-0.121387,0.0475829,-0.131577,0.601068,0.788292
-1.006,-0.607991,1.0516,-1.5287,-2.57573,0.210084,0.513344,-0.606208,0.119389,-0.335349,-0.450418,0.827445
-1.51457,-2.12692,-1.28971,1.02329,2.95996,1.6003,0.0787752,0.542753,0.412952,-0.0423408,0.65745,-0.752308
-3.06235,0.309941,-0.576523,-1.93649,1.77861,-2.02139,-0.848159,-0.176847,0.118802,-0.810561,0.363102,0.459508
1.43192,-0.25982,-2.4315,-0.0147604,2.58879,-2.82566,-0.0946002,0.111684,0.454872,0.613954,0.787091,-0.0595699
-0.354681,-0.341746,1.11608,2.36567,-0.774897,1.24426,0.676225,-0.13404,0.0519625,0.13839,-0.290569,-0.946794
-0.437548,0.309982,-2.21195,0.310894,-0.82874,0.753131,0.383054,-0.0586861,0.332371,-0.838163,-0.201581,-0.506801
-2.40695,-0.935194,-0.331701,2.27317,-1.85475,-0.614227,-0.141827,-0.275203,0.754799,-0.255441,0.826427,-0.501765
-0.725396,-0.708548,2.55116,-3.14157,2.12129,2.90107,0.303295,-0.123043,-0.0375419,-0.822904,-0.376608,-0.425435
2.23903,-1.6816,-2.13986,-2.61789,-3.03438,2.46084,0.123323,-0.332388,0.171451,0.468284,-0.727428,0.501556
0.142071,0.310032,-1.41187,-0.0820302,3.09305,1.1893,0.647469,0.202871,0.273683,-0.714486,-0.083945,0.694595
-2.59992,-0.906492,-3.1119,0.121387,1.01916,0.0114561,0.102341,-0.0658066,0.191164,0.105445,-0.930441,0.350944
-1.6932,0.310219,-2.46249,2.1279,-2.0466,-1.14054,0.0849423,-0.203468,0.192584,-0.394022,-0.166274,-0.903936
-1.62289,0.309736,-1.02217,-2.2049,0.0174128,-2.60473,0.0713723,-0.727371,0.308302,0.0227537,0.723735,0.689703
-1.73279,0.310035,-1.74618,1.86305,1.48816,3.10178,0.0402704,-0.430335,0.262039,-0.997527,0.0702537,0.00207789
-1.46981,-0.643857,2.12741,-3.14159,0.775058,2.001,0.155812,-0.454988,-0.0382307,-0.384245,0.89722,0.217608
-1.02417,-0.675438,1.64864,-1.60116,0.959412,1.37951,0.409285,-0.462658,-0.0459782,-0.212724,0.649096,0.730358
-1.05802,0.0301764,0.0517508,0.753355,1.32183,2.91769,0.46088,-0.596122,-0.0192711,-0.663581,-0.747535,-0.0291654
0.852015,-2.16528,0.419585,-0.962133,1.2253,-1.62725,-0.257637,-0.128708,0.913394,0.304841,0.267802,0.913977
0.973821,0.0232104,0.289588,1.87578,-1.13928,2.60452,0.315005,0.65761,0.0134157,-0.528029,0.611497,-0.589286
1.40347,-0.440565,-2.59726,-2.75791,0.94716,-1.9271,-0.115962,-0.0311775,0.227406,0.236067,-0.302526,-0.923445
2.01857,0.309891,-0.596556,1.97256,0.192329,-2.94224,-0.395823,0.57199,0.0813336,0.301901,-0.195808,-0.933014
1.97542,0.310253,-0.445976,2.71817,-2.10777,-2.93841,-0.392891,0.640166,0.0927165,-0.898685,-0.0392901,0.436832
1.87134,0.310006,-1.60525,2.42944,-3.07633,-0.340405,-0.230278,0.374298,0.296936,0.0305367,0.10913,-0.993558
1.80992,-2.38655,-2.93466,2.35184,-1.55539,1.10178,-0.0897126,-0.0928433,0.151899,0.473679,-0.0348092,-0.88001
-0.679181,0.263113,-0.205722,-2.1335,-0.68755,2.02936,0.757014,-0.470863,0.00194116,-0.562889,0.815477,-0.134737
-1.76097,-2.26532,-0.641737,2.87032,-0.222151,2.29974,0.230057,0.61769,0.412284,0.0265586,-0.638411,0.769237
2.15363,-0.56879,1.81431,0.540368,-2.54301,2.8139,-0.306314,0.266345,-0.0334104,-0.710368,0.108291,0.69545
1.79303,0.310012,-1.62214,-1.15946,-0.975391,0.922953,-0.230743,0.525927,0.412893,0.538006,-0.11411,-0.835182
1.82478,0.079001,-0.0387606,-0.283049,-2.51983,2.56438,-0.316299,0.784042,-0.0520351,-0.273344,-0.889601,0.365913
1.34556,-1.56001,2.97313,2.62906,0.167166,0.551538,-0.0750476,0.161185,0.185541,-0.113344,0.139856,-0.983663
0.502106,-0.593581,1.82329,1.90971,-1.24328,3.07487,0.371121,0.32828,0.0518717,-0.735908,0.673722,-0.0673656
-2.27752,0.0579151,2.88059,-1.60907,-1.74558,-0.653253,0.116649,-0.0314761,-0.0371797,-0.232938,0.931501,-0.279365
-1.60216,0.309619,2.81309,-1.16956,1.50372,0.686213,0.111455,0.0717441,-0.0124281,0.752489,-0.631114,-0.188294
2.75361,-1.85772,2.94455,1.48578,2.82565,-2.17086,-0.0516981,-0.0967852,0.22932,0.0594171,0.165262,0.984458
-0.93469,-0.571196,-0.952753,-2.82299,2.77205,-2.85445,0.258598,-0.166429,0.744575,-0.245922,-0.250105,0.936467
-1.96788,-0.604138,2.01683,-3.11381,2.65636,-0.912531,-0.0947852,-0.508266,-0.0444762,-0.0130045,-0.768815,0.639339
-0.0049748,-1.56052,-1.04552,-0.953866,3.09411,2.5198,-0.370865,0.110996,0.800796,0.978329,-0.0434514,-0.202448
-0.80265,-1.63837,1.08143,-0.142847,-0.66227,0.143738,0.332266,-0.186838,0.648124,-0.916607,0.072908,-0.393085
2.86125,-0.632632,-0.315291,-1.07984,-3.00986,1.79176,-0.661088,0.0767577,0.700798,0.741304,-0.243396,-0.625481
-3.07281,-1.80004,1.53251,-1.91288,-0.383685,-3.03783,-0.350967,-0.133588,0.660925,0.467685,-0.340989,0.815474
-1.7374,0.30973,-2.67427,1.13542,2.77461,0.183172,0.0721026,-0.229421,0.202943,0.325379,-0.192526,0.925776
2.78047,-2.13105,2.44829,-0.321405,-2.86946,-0.347316,-0.176295,-0.0500915,0.232175,-0.759292,0.556934,-0.3366
1.2343,0.0578965,0.0256565,0.349322,0.28018,0.579107,0.153019,0.768014,-0.0540886,-0.383737,-0.396064,0.834194
1.11691,0.30986,-2.53602,3.01246,0.265255,2.29756,-0.0548161,0.136578,0.203684,0.587085,0.806123,0.0741414
1.28575,-1.40245,2.68403,-0.269611,-2.77261,-0.614342,-0.0758303,0.129373,0.0820092,0.259027,-0.164105,-0.951827
3.05748,-0.708441,-2.17373,0.0151137,-0.121914,-0.438768,0.0214511,-0.111346,0.557412,-0.967363,0.192041,0.165316
1.29505,0.0582581,-1.61294,2.06283,2.21751,-2.77944,-0.000328854,0.399736,0.373921,0.537148,-0.842747,-0.0353606
1.54426,0.309654,-1.94754,2.82144,-2.60034,0.997658,-0.101393,0.293644,0.315274,0.304588,0.94575,-0.113064
-1.66,-1.01229,-1.57455,0.505316,0.395886,-2.35426,0.111,0.0158148,0.702456,-0.297774,-0.274327,0.914372
-1.12228,-0.51707,1.62244,0.743539,-1.51109,2.82449,0.295427,-0.362188,-0.0252895,0.977907,0.155124,-0.140126
-1.40804,0.310349,-0.598694,2.34807,2.19502,-1.7313,0.220679,-0.670292,0.115366,-0.262067,0.795669,0.546106
-1.3885,0.309673,-1.69711,0.789359,-0.764905,0.849288,0.203349,-0.501036,0.267095,-0.597839,0.720112,0.352174
-1.94851,0.310019,2.78727,1.507,2.7516,2.44721,0.0620055,-0.139685,-0.0476595,-0.06522,0.627801,-0.775637
2.2571,-1.1616,0.877107,1.48504,-2.49303,1.39683,-0.374247,0.28463,0.554917,-0.532575,0.815152,0.227797
0.0918591,-1.12495,-2.38766,-1.76229,-1.49496,2.50948,-0.271265,0.0846237,0.279918,0.456372,0.849907,0.263406
1.53758,0.162509,-0.0152915,2.30139,-0.85474,0.156223,-0.0842858,0.750154,0.0356772,0.764669,0.573177,0.294534
3.06185,-1.38854,2.82869,-2.92345,-1.3274,-1.92487,-0.230406,-0.0910868,0.109941,-0.965494,-0.260422,0.00127025
1.95977,0.307833,-0.272113,1.74285,-0.547551,1.49207,-0.368138,0.610392,-0.0340974,-0.337305,0.930936,-0.13994
-0.387321,0.310008,3.05784,0.615064,-3.12501,1.94871,0.127386,0.0659179,0.110583,-0.411608,0.174515,-0.894496
-0.765012,0.310086,2.79123,1.46225,0.583149,1.85659,0.152347,0.00504935,-0.0422854,-0.817144,0.569289,0.090472
-2.22706,-1.46843,-1.51731,-2.89598,2.97929,2.94514,0.318981,0.235302,0.485694,0.3715,0.742125,0.557887
-3.09017,-0.0492907,0.323942,-1.38847,1.29282,-2.1815,-0.880187,-0.154599,-0.0380467,-0.831895,0.509346,-0.220268
-3.03992,-0.921387,-1.80654,-0.173277,0.547999,1.37527,0.0902937,-0.100505,0.677247,0.0823762,-0.0933387,-0.992221
-0.660227,-0.892476,-0.00127283,1.74447,1.17406,-1.51308,0.41548,-0.184417,0.66339,-0.571769,0.511325,-0.641581
-0.31598,0.265271,-0.437043,0.398036,1.2969,2.17358,0.770909,-0.137201,-0.0474542,0.148087,-0.622645,0.768364
-1.45357,-0.554516,1.71693,3.14167,-2.49521,1.90534,0.179041,-0.587045,-0.00947745,0.107176,0.780739,-0.615597
0.340647,-1.23904,1.25629,3.14168,1.43226,-0.6811,0.465203,0.280703,0.578856,-0.145681,0.764707,0.627694
0.665189,-0.365286,0.910413,-1.11982,-2.55293,2.82078,0.549331,0.569651,-0.0418616,-0.981313,-0.100098,-0.164333
-0.198606,-0.179038,-3.05693,1.35068,3.10302,0.640449,0.136932,0.0837799,0.157159,-0.793947,0.191331,0.577096
-2.53257,-1.3033,-1.87591,1.30751,-0.796738,1.72991,0.217657,0.0187329,0.512346,0.865201,0.465314,-0.186845
1.42389,-0.67998,1.84875,-0.0159944,-2.48857,-1.33416,-0.0497951,0.409153,-0.0430095,0.0219211,-0.824931,-0.564808
1.30402,0.309963,-2.42285,1.18485,-0.871441,-2.93704,-0.0319665,0.297073,0.238805,-0.580338,0.718815,0.382769
1.21118,0.310279,-0.722123,2.48605,2.38771,-0.525327,0.137574,0.676083,0.162074,-0.815967,-0.487598,-0.310557
0.594186,-1.28411,-1.22924,-0.776126,1.44122,3.12663,-0.236042,-0.0277506,0.820964,0.451015,-0.891875,-0.0338369
-1.86058,-1.75855,0.258127,3.14162,1.15497,-1.68897,0.146365,0.108881,0.904627,0.180652,0.983293,0.0223437
-0.419883,0.309887,-2.31927,0.64216,-0.496533,1.49299,0.346632,-0.0352147,0.295544,-0.919287,0.369848,0.134624
-2.17838,-0.336893,1.16736,0.789529,0.0185807,0.0975064,-0.23645,-0.531252,-0.0552761,-0.0682623,-0.130564,0.989087
-2.16415,-0.159698,0.729139,1.19164,-1.80644,-1.99061,-0.276866,-0.605734,-0.0368417,0.819892,0.50689,0.266155
2.88287,-1.63136,2.48751,-2.76686,-1.01742,1.82457,-0.337828,-0.0234996,0.248659,0.870095,-0.45122,-0.198329
1.74996,-0.296984,0.868609,-1.98721,-1.70481,1.26018,-0.255278,0.797065,-0.0133089,0.464572,-0.865449,0.18754
0.651783,-0.63843,2.52191,-3.14186,0.0604423,0.468123,0.180794,0.275245,-0.0598902,-0.591715,-0.383684,-0.708985
-0.159026,-0.56222,2.73939,-3.14165,0.0515285,-2.55126,0.228409,0.0739127,-0.0605444,0.911678,-0.18955,0.364573
0.37242,-0.635818,2.48327,-3.14214,-0.0136519,0.409487,0.263819,0.220244,-0.0615985,-0.585158,-0.242037,-0.773956
1.12248,-0.880148,-0.382162,-2.05599,2.15951,-1.4491,0.063397,0.383627,0.883673,-0.195376,-0.173285,0.965298
-0.224248,-0.528378,1.41468,-2.04074,0.943782,-0.753424,0.70832,-0.0496032,-0.0387571,0.572622,0.475177,-0.668065
0.189075,-0.596514,1.89019,-3.14159,-0.72379,-2.25513,0.51964,0.210569,-0.0234819,0.526036,0.52689,0.667587
1.85542,-0.606663,-1.319,-0.208665,0.486297,0.856466,-0.186999,0.25045,0.749834,-0.201376,-0.402054,-0.893197
1.14738,0.310011,-1.74355,1.34734,-1.89967,-0.85487,0.092186,0.470206,0.253767,0.679749,-0.00345757,-0.733437
-2.7841,-2.25612,-0.0634168,-1.73619,2.71639,1.33319,0.610539,0.111546,0.763322,-0.564517,-0.314519,-0.76315
0.0305812,0.304632,-2.26258,-0.731902,-2.21492,-1.36108,0.295177,0.118231,0.410058,0.319437,-0.156778,0.934548
1.73543,-0.421884,-0.619454,-1.09643,-0.831646,-1.13694,-0.216777,0.638798,0.652566,0.156102,0.955986,0.24844
0.035184,-2.36284,2.7868,1.83971,-2.39447,1.9723,-0.0216418,0.108456,0.286773,0.881472,0.296755,-0.367347
-0.829955,-0.851127,-2.60242,-0.612725,-1.14756,-2.44236,-0.0333536,0.198192,0.345369,0.040348,0.98981,0.136558
2.56741,-0.750699,-2.94759,-2.27087,-2.15948,-1.31918,-0.0160494,-0.119615,0.0817921,0.253254,0.0827826,-0.963851
1.72782,0.309875,-2.58209,-2.46939,-2.1152,0.869825,-0.116725,0.0392588,0.256446,0.423956,0.850404,-0.311566
-0.151961,-0.328207,-1.48084,0.479807,2.17907,-1.47205,0.413537,0.0470926,0.584684,0.980671,-0.0683325,-0.183342
-0.800383,0.310165,-0.790719,-0.436273,-2.4299,-0.611607,0.654741,-0.517936,0.0831884,0.196312,-0.970092,0.142767
-0.753415,0.309845,-0.599038,0.287649,-0.196233,2.86021,0.644206,-0.45461,-0.0232167,0.815057,-0.507707,0.279134
0.264706,0.0438536,2.76017,1.83168,2.88429,2.86042,0.11511,0.144291,-0.0521323,-0.134361,-0.289728,-0.947631
-0.779654,-0.580151,2.51346,2.28877,2.25918,0.266127,0.289982,-0.133187,-6.38146e-05,0.153571,0.895899,0.416871
-2.02803,-1.5647,-2.21172,-0.575863,-0.410945,-2.09133,0.275327,0.312355,0.314886,0.607625,0.784956,-0.120981
-1.38882,-0.549069,1.53938,-2.29338,2.50841,2.56031,0.228408,-0.638131,-0.0420723,-0.614449,0.606581,-0.504491
-1.03165,-1.16729,2.341,3.04923,-2.54498,-0.997502,0.30011,-0.28903,0.162796,0.0108589,-0.611731,0.790991
-0.0392207,0.309726,-2.17787,1.46719,2.35441,2.481,0.330822,0.0962523,0.247513,-0.773985,-0.529408,0.347383
-0.02818,0.309699,-1.27381,-0.298452,1.86514,1.24318,0.721401,0.0888589,0.253166,-0.864844,0.332448,0.376195
-0.177881,-0.890479,1.94757,0.997561,1.16435,-2.00323,0.389687,0.0408415,0.121951,-0.935012,-0.223013,0.275713
2.7301,-1.64634,-1.84785,1.46291,2.22661,2.53624,0.245416,-0.226194,0.419549,0.523661,0.482543,-0.70209
1.22061,-1.2963,1.38325,1.89882,2.93201,-0.0352025,0.0413421,0.431348,0.502345,-0.341554,-0.329096,-0.880362
2.6678,-0.778008,2.03574,-2.15876,0.719769,0.792015,-0.492709,0.129974,-0.0444942,0.577046,-0.816239,0.0277959
-1.9396,-1.64287,-0.668554,2.02131,-2.12597,2.83241,0.198497,0.210815,0.71186,0.959903,0.23812,0.147937
-0.608182,-0.530632,1.68293,-2.92064,1.09576,-0.494133,0.570186,-0.263975,-0.0355792,0.893846,0.331647,-0.301745
-1.30617,-1.14369,-0.863127,-1.88163,-1.03105,0.652571,0.0912512,0.0805791,0.900988,-0.471588,-0.865626,-0.168217
-0.419332,0.309916,-2.81776,0.672184,-2.49541,-3.11078,0.208865,0.0263974,0.216599,0.463005,0.452554,-0.762116
2.2379,-0.929303,-0.947385,3.14159,2.53337,-2.86002,-0.114172,-0.0314437,0.775208,0.742057,-0.0550575,0.668072
0.610741,-2.36582,2.13224,-1.25701,1.69107,0.622396,0.0787578,0.188368,0.469982,-0.932234,0.332024,0.143876
1.08585,0.309725,-2.18526,-1.57651,0.253974,1.47875,0.0237859,0.279287,0.423923,0.160862,0.354828,-0.920989
1.13285,-0.386172,0.91454,-0.0690439,1.51191,2.24054,0.193976,0.671622,-0.0333493,0.722506,0.0816236,0.68653
1.56205,0.309715,-0.74056,1.96555,-1.30645,1.96711,-0.103317,0.667523,0.120028,-0.364505,0.928751,-0.0675109
-2.63777,-0.482536,-2.65621,-0.726852,-0.00791435,-0.381684,0.121414,-0.0577038,0.358396,-0.396314,-0.210093,0.893754
-2.05867,0.264572,-0.200828,-2.05725,-1.62362,0.870467,-0.319827,-0.835548,-0.0081347,-0.23507,0.929975,-0.282645
-2.03338,0.309771,-1.43821,-2.99227,-2.9605,1.64043,-0.122831,-0.490902,0.366887,-0.375323,-0.780723,-0.499605
-1.81926,-0.357146,0.947193,-1.611,-0.632402,-1.94955,-0.0921143,-0.806935,-0.0299679,-0.0212825,-0.972669,-0.23122
0.561936,0.309605,-1.36456,-1.11455,-1.46149,-2.19949,0.514285,0.452803,0.35422,0.223305,0.831413,0.50881
0.904094,0.124596,-0.106884,0.263323,3.09039,-1.86152,0.401299,0.686479,-0.0615412,-0.322873,-0.434031,-0.841053
-0.115047,-0.625789,2.19986,2.94048,2.05847,1.66269,0.445629,0.0583808,-0.0355474,-0.970813,0.0305766,-0.237881
-0.296215,-0.609041,2.01222,3.121,2.26195,1.85312,0.516784,-0.0435992,-0.0367502,-0.933242,0.0603886,-0.354137
-0.393183,-0.574306,1.79926,3.14161,-2.37642,-1.34449,0.576481,-0.120947,-0.0169012,0.736632,-0.473803,0.48258
0.252929,0.134807,0.0187183,1.11677,3.04557,-1.05119,0.668202,0.285443,-0.0559606,-0.673006,-0.124776,-0.729036
0.375561,0.178555,-0.0859442,1.58304,1.97011,0.799258,0.624834,0.363684,-0.0126929,0.401198,0.848694,-0.344613
-2.40413,-0.656315,1.49397,-0.692917,-1.14286,-0.0774708,-0.360019,-0.474519,-0.0366374,-0.298634,0.954218,-0.0169083
2.17712,-0.745299,2.79275,-3.13304,-1.15551,-1.15457,-0.21283,0.115366,-0.0152813,-0.113685,0.813135,-0.570865
-0.0444693,0.0138792,3.02297,-3.14157,-0.945024,-0.0788919,0.049561,0.107053,-0.0518819,-0.607817,-0.781743,-0.139416
-0.22892,0.310014,3.05119,-3.14185,1.6211,1.06795,0.0260494,0.106004,-0.0474253,0.317952,0.42012,0.849945
-0.275762,0.30969,2.79737,-1.59092,-0.082103,-1.87241,-0.048935,0.127283,-0.0590791,-0.895213,0.278639,-0.347784
-0.0415918,0.309705,2.89119,-1.02755,2.45023,0.578194,-0.060167,0.111748,0.0365206,0.106753,0.529969,-0.841271
3.00876,-1.63386,0.864969,0.522527,-1.39119,-0.637771,-0.290205,-0.0713422,0.69427,0.0987368,0.784333,-0.612432
-0.662605,-1.34821,2.35715,-0.714603,-0.166644,2.62142,0.28422,-0.0833271,0.0811472,0.847847,-0.478998,0.227414
2.95963,-0.21251,-2.86633,0.0799617,1.25928,1.46192,-0.0565581,-0.100576,0.297085,0.0879161,-0.121347,-0.988709
2.47957,0.309942,-2.06119,2.11034,2.37172,2.84391,-0.30458,0.0989906,0.256801,0.834628,0.193183,0.515826
2.05567,-0.192905,0.802944,1.15843,-1.0767,1.46421,-0.397577,0.520495,-0.035496,-0.376181,0.915003,-0.145802
0.736206,-0.596132,1.92496,0.467119,0.500819,1.14583,0.1886,0.318198,-0.0319186,0.584976,0.797222,0.149131
-1.4738,-1.23216,2.3989,0.241923,-1.47312,-1.98025,0.128198,-0.190472,0.11408,0.307288,0.933183,-0.186397
-2.03373,-0.32964,1.06788,1.69848,-2.51088,-0.0321175,-0.184091,-0.613257,0.0348486,-0.24352,0.831954,-0.498548
0.313669,0.309745,3.05181,-3.14158,-1.95745,-1.47604,-0.0324203,0.104232,-0.0471708,-0.146471,-0.139636,-0.97931
0.389886,0.309749,2.81786,-1.11404,1.20056,-1.88426,-0.108971,0.0732276,-0.00532423,-0.729991,-0.610751,0.306749
0.389431,0.309718,3.02366,-2.17102,-2.37574,-2.39325,-0.103557,0.0754853,-0.00320401,-0.964634,0.153191,0.214508
0.128623,-1.19142,-1.49918,0.365591,0.0635936,1.38507,-0.13961,0.0920024,0.719713,-0.586724,-0.0640523,-0.80725
-1.23052,-0.00470397,0.357205,-2.42174,-0.258411,2.67577,0.395338,-0.789591,0.000983934,-0.0542553,0.837354,0.543962
0.496937,0.213991,-2.98442,1.05231,2.72107,-1.88987,0.0740112,0.164307,0.155068,0.923638,0.355241,-0.143864
-1.71554,-0.200337,0.770956,1.78579,-2.22919,-0.675872,0.00996913,-0.688327,0.0288008,-0.498147,0.860713,0.104986
-1.59513,-0.150962,0.708573,1.20936,-1.0284,-0.123171,0.0930555,-0.662625,-0.0360398,-0.849231,0.041325,0.526401
-1.49326,0.309752,-2.66703,-2.8014,-1.14517,-1.91576,0.112055,-0.033152,0.19582,0.245977,0.810137,-0.53214
-1.84616,-0.634347,2.26865,-3.14154,-3.05543,0.941049,-0.0069506,-0.426046,-0.0564349,0.160389,0.754077,0.636901
-1.70789,-1.57583,-1.80648,1.12356,1.68808,-0.213944,0.150487,0.292134,0.480738,0.948889,-0.223191,0.223151
-0.719493,0.309778,-2.1691,-0.481522,0.0765913,-3.03461,0.343534,-0.155875,0.401528,-0.511578,0.34708,0.786018
-0.915017,-0.113843,0.606048,1.45152,-0.0300786,2.14739,0.501031,-0.472227,-0.0134433,0.367988,-0.451413,-0.812903
1.65146,-0.982118,2.22937,0.760334,0.112878,-2.92273,-0.130949,0.265242,0.110763,0.158511,-0.596214,-0.787022
1.4381,-0.0250257,0.411126,1.55793,1.20398,-0.989884,-0.0155578,0.708394,-0.0134068,-0.601272,-0.632648,0.488086
-2.11912,-1.19193,-3.07831,0.463208,0.183118,2.92408,0.129157,0.00205834,0.203947,0.172496,0.623524,-0.762537
1.27888,-1.2434,0.514534,-0.0444055,0.477863,3.07968,0.0380325,0.505829,0.685097,0.609675,0.433927,0.663327
2.0254,0.309792,-1.48472,2.01414,-0.622712,3.00976,-0.311293,0.388345,0.258276,-0.798623,0.317302,-0.51139
-0.730526,-0.218893,0.847696,1.07802,-1.91353,-2.73647,0.548258,-0.344621,-0.0364297,0.317935,0.87733,0.359458
-0.967616,0.31014,-1.27048,1.48556,-2.96242,1.23136,0.420104,-0.417479,0.198965,0.380135,-0.656471,0.65157
-2.40854,-2.30727,2.26703,-0.361748,-1.35127,-1.24467,-0.0336041,-0.177135,0.332692,-0.436942,0.0273273,-0.899075
-2.58988,-2.13313,-2.06999,-1.67772,2.45618,2.59973,0.444611,0.145478,0.0191501,0.0634981,0.675884,0.734267
1.23262,-0.635314,2.08452,-3.14159,0.935365,-1.34821,0.0574777,0.492426,-0.0365069,0.158867,0.98723,-0.0117559
0.66293,0.310063,-0.930082,-0.333511,1.60223,0.794263,0.564292,0.579086,0.132617,-0.879535,0.201947,0.430854
1.18697,-0.410245,1.02217,-0.153478,-0.738131,0.677321,0.149284,0.661124,-0.051538,0.396503,-0.418491,0.817099
-0.542818,-1.57609,-1.29041,1.24208,-1.46316,-0.042685,-0.187856,0.240801,0.625775,-0.471682,-0.875508,-0.104888
0.273679,-0.616914,2.03531,-3.1416,2.36477,0.682578,0.451658,0.24016,-0.0383044,-0.828178,0.33249,0.45119
-1.33983,-0.500341,2.84451,-3.14132,0.322831,3.01897,0.144391,-0.137196,-0.053773,-0.175986,-0.627104,0.758794
-2.21872,0.114081,3.00884,-3.14183,2.32332,2.82519,0.06781,-0.0912667,-0.0611755,-0.157631,0.941203,0.298813
0.153136,-0.573936,2.71417,-3.142,-0.0169294,1.94277,0.205867,0.142217,-0.0614439,-0.583046,-0.083764,0.808109
0.586742,-0.634912,2.50363,-3.14181,-0.0145009,-1.80706,0.203989,0.266694,-0.0615047,0.829293,0.555429,-0.0614192
0.000658261,-0.59483,2.79951,-3.14169,0.690341,-2.47123,0.195877,0.109279,-0.044785,0.858734,-0.498431,0.11892
2.16282,-1.86235,-2.83303,0.546122,-2.07243,2.13121,0.025984,-0.234232,0.154557,-0.862573,0.447494,-0.236045
-0.338584,-0.554887,1.57431,-2.39108,2.39741,2.13719,0.658306,-0.116099,-0.0397775,-0.974588,-0.0421555,-0.220002
0.628731,-0.706755,2.46943,-3.14158,1.30018,0.804301,0.211849,0.289008,-0.0379614,-0.993587,0.103891,-0.0446354
-0.996944,0.309672,2.89046,-1.77215,2.85823,-0.479391,0.0479755,0.126843,-0.0308828,0.0263104,0.416251,-0.908869
0.451018,0.309699,2.80365,-1.26708,-0.609469,-1.70106,-0.118132,0.0640648,-0.0256993,-0.917218,-0.361599,0.167205
0.123287,0.30943,2.83442,0.15868,0.426348,1.4412,0.0141004,0.111732,0.0540519,-0.0490068,0.0477785,-0.997655
-0.54558,-0.706199,1.12472,3.14168,-2.455,-2.34981,0.672307,-0.28043,0.292027,0.902765,-0.0270128,0.429286
-0.791375,-0.658544,2.04931,1.35833,-0.0770232,2.57823,0.337814,-0.186584,0.0507868,-0.357583,0.454441,-0.815854
0.674773,-1.5849,0.779907,3.14162,-0.18181,0.605541,0.0861495,0.208708,0.862467,0.850909,0.490388,0.188343
-0.512465,0.310027,-1.8654,2.93779,-2.36151,0.898338,0.330505,-0.0607036,0.333977,0.527185,-0.79929,-0.288464
-0.905876,-0.510994,1.55048,3.05142,-0.969101,-1.43439,0.484723,-0.441349,0.0139354,0.436401,-0.738306,0.514255
2.24129,-2.23413,3.04764,2.94025,-0.845922,-0.945331,-0.124143,-0.0191222,0.216449,-0.143482,0.886263,0.440398
0.83951,-0.769018,-0.993071,3.14159,-1.2329,2.49819,0.0108521,0.175536,0.751816,-0.13481,0.980008,-0.146321
-2.17619,-1.32429,3.05658,1.74933,-1.30747,-0.961431,0.0486606,-0.121488,0.203396,-0.689968,-0.0258751,0.723377
-1.47376,-0.566355,1.76623,3.14195,-0.714679,1.90302,0.165708,-0.575702,-0.0141005,0.118726,0.986508,-0.112722
-1.73073,-0.632192,2.32794,2.66768,-0.983849,2.46338,0.046777,-0.395417,-0.0165314,0.75747,0.624384,0.190747
-0.708066,-1.906,2.10015,2.31861,-1.47531,-0.997354,0.214857,-0.0402642,0.491374,-0.694803,-0.116083,0.70977
-0.153694,-1.52931,3.10937,-1.34396,-1.98664,-1.75853,0.00865792,0.109111,0.0295361,-0.273403,0.21512,-0.937536
-0.0726222,-0.578387,1.80534,0.724133,1.40979,-1.30198,0.40708,0.0798233,-0.0126616,-0.858066,0.325271,0.397393
2.70116,-0.529569,1.28609,-0.841576,1.05053,-2.61377,-0.643621,0.182679,-0.0596948,-0.106192,0.878731,-0.465355
0.369132,-1.85778,1.58784,3.14167,1.39639,1.18369,0.177466,0.185688,0.692605,0.15499,0.4586,-0.875022
-1.55327,-0.428893,2.67386,1.00226,-0.669785,0.308989,0.111791,-0.149687,0.0535883,-0.57887,-0.720861,-0.381141
-1.70258,-0.45872,2.65044,0.995888,-0.846111,0.414197,0.0875452,-0.170191,0.0528659,-0.756679,-0.49253,-0.429943
-0.550874,0.309912,2.92578,-2.1035,2.84132,2.53044,-0.00374962,0.130404,-0.0437931,0.0327572,-0.304424,0.951973
-0.471132,0.309982,2.81316,-1.16783,-0.466995,0.75667,-0.0174448,0.131382,-0.0122172,0.635475,-0.691085,0.344344
-1.23966,0.308783,2.80384,1.31973,2.97505,-0.611127,0.13696,-0.0626527,-0.0251991,0.235096,-0.26624,0.934797
-1.26968,0.310128,2.79579,1.41178,2.13264,2.95922,0.135555,-0.0684632,-0.036223,-0.817505,-0.173701,-0.549103
3.06179,-2.20501,2.91753,0.00762336,1.35894,1.01682,0.008674,-0.110192,0.103932,-0.517188,-0.474588,0.712238
-1.26768,-0.212791,0.80684,0.917361,-0.433499,-1.79531,0.296998,-0.58395,-0.0462538,-0.197662,0.945287,-0.259542
-1.11958,-0.473711,1.42577,1.62046,0.183121,-0.152959,0.340111,-0.451592,0.0432416,0.483141,-0.584353,0.652002
-2.37593,-0.384681,2.6286,2.3633,2.76679,0.37317,-0.0999219,-0.247456,-0.0481093,0.563201,0.0685369,0.823473
-2.6409,-0.313366,2.65585,2.36254,3.10153,1.08344,-0.145349,-0.203959,-0.0602711,0.787119,0.409335,0.461399
-1.50149,0.31014,2.80154,-1.28837,0.432257,0.324482,0.103417,0.086368,-0.0286292,0.432375,-0.494981,0.753688
1.055,-0.625116,2.21429,0.178449,-1.03682,-0.371258,0.0256943,0.266613,-0.0358091,0.568052,-0.624456,0.536071
0.943532,-0.494491,1.51197,3.14162,-2.84498,1.99378,0.299444,0.599031,0.00687415,-0.431413,-0.390697,-0.813166
0.413962,0.309969,-1.47526,0.615069,-2.90314,1.50671,0.513631,0.344884,0.23928,-0.423074,-0.2024,0.8832
1.81894,-1.17873,-0.554852,1.28831,-2.10748,2.63022,-0.140089,0.108503,0.783554,-0.575915,-0.778469,0.249617
2.16399,0.309844,-0.664776,-3.14159,-1.42571,-2.70246,-0.503988,0.552287,0.18464,-0.591416,-0.72491,0.353174
-2.07198,-2.2434,-0.342435,1.49524,-0.832286,3.12696,0.342711,0.398391,0.584819,0.505293,-0.616579,0.603746
1.49894,-0.559301,1.66809,1.48403,0.937022,2.19474,-0.0739975,0.492296,0.0442876,0.478769,0.0940424,-0.87289
1.60625,0.268586,-0.241423,1.473,-1.49217,-2.20252,-0.134157,0.703141,-0.0409558,-0.559925,-0.822088,-0.103227
1.49122,0.310078,-0.99047,-0.619723,1.60395,-1.4017,-0.0451444,0.806984,0.180933,-0.0920449,0.961697,-0.258199
1.44697,0.00938789,0.305164,-2.92278,-1.44156,-0.859197,-0.00380789,0.853111,0.045314,0.699151,0.374028,0.609336
-2.90231,0.00222651,-1.22716,-0.318984,-1.33628,1.87969,-0.608128,-0.260711,0.454691,0.993427,-0.0619986,0.0962217
0.683863,-1.98973,-1.04277,0.894552,0.771021,-2.66393,-0.443329,-0.22053,0.570964,0.426307,-0.45093,0.784171
-1.67842,-0.200485,0.570705,-0.78019,2.61993,1.10675,0.0204454,-0.826868,-0.0549355,0.221799,-0.0234109,0.974811
-1.89813,-2.1017,2.29121,-2.66016,-1.18478,-1.33578,0.0297609,-0.251831,0.4559,-0.420749,-0.568189,0.707199
-0.386836,-0.225919,0.620597,-1.00724,1.41597,-2.06803,0.810509,-0.212311,-0.0439052,0.345941,-0.649813,-0.676807
1.34925,-1.32052,1.97377,1.06753,-1.21948,2.33376,-0.0354723,0.339248,0.276663,-0.483768,0.805117,-0.343155
2.30484,0.309833,-0.511599,-1.91653,-0.221962,-2.24021,-0.663748,0.572737,0.0874541,-0.338877,0.171676,0.925035
-0.248538,-0.606919,2.31594,-0.0119119,0.257816,2.62462,0.221825,0.0563143,-0.0450317,0.318083,-0.309401,-0.896155
-0.62126,-0.620853,2.18144,0.162864,-0.604199,2.769,0.271813,-0.0603358,-0.041443,0.505776,0.28867,-0.812933
1.31298,-1.31707,-1.889,2.40045,-2.95503,0.429706,-0.160741,-0.181501,0.409719,0.244202,0.264773,0.932878
-1.61773,-1.40214,-2.60863,-1.90341,-2.09868,2.79934,0.119164,0.210619,0.120249,0.827958,0.282967,0.484164
-0.236391,-0.245468,0.927313,1.07504,-0.741087,-0.2972,0.632006,-0.0399746,-0.0372563,-0.304076,-0.590709,0.747396
-0.218418,0.310108,-1.20529,-0.874537,1.5752,-2.3328,0.748819,-0.0544008,0.284251,0.54333,-0.827766,0.139984
-1.40785,-0.558434,1.73214,-3.14163,2.44206,-2.88959,0.204948,-0.57377,-0.0107718,-0.531469,-0.610836,-0.586873
-0.81124,0.309833,-2.14233,-1.55817,-0.828006,2.76698,0.271921,-0.127841,0.4302,0.139138,0.848978,-0.509781
-0.85532,-0.507665,1.56558,-2.48346,0.0614795,-1.37783,0.513706,-0.424688,-0.059714,0.62774,-0.704328,-0.331458
-1.80268,-1.35058,2.31284,1.088,-0.212714,1.15521,0.0526602,-0.251942,0.225722,-0.311328,-0.947577,-0.071915
-0.957242,0.309729,-2.62145,-1.85872,-1.44134,1.46209,0.123173,0.0146634,0.297858,0.406561,-0.764165,-0.50076
-0.937365,0.309818,-0.647666,-2.7535,-1.91761,2.59699,0.549428,-0.563747,0.184128,0.804823,0.263079,-0.532024
2.53717,-0.23454,-2.50138,-2.44768,-2.63185,0.88335,-0.0362049,-0.107647,0.299757,-0.597566,0.789024,-0.142675
2.0042,0.310055,-1.58493,-1.91725,-0.187587,2.4098,-0.315061,0.420946,0.429217,0.166476,-0.690127,-0.70428
1.49686,-1.29303,1.68735,2.07622,2.20455,1.6517,-0.0778381,0.426749,0.421301,0.113493,0.650648,-0.75085
-0.390246,-2.29502,-2.17837,-2.7452,0.90491,-1.45336,-0.234316,0.214408,-0.0297831,0.734526,-0.202511,-0.647658
-2.89322,0.212057,-0.32776,-0.113703,-1.25046,-2.45638,-0.774432,-0.30901,-0.0471781,-0.188969,-0.806089,-0.560813
-2.87534,0.309715,-2.91618,-2.22978,0.099374,-2.53838,0.0543449,-0.098315,0.14796,0.423941,0.200308,-0.883261
-1.13059,-1.14039,-2.72023,-2.99074,-2.88631,-1.65199,0.0702397,0.107026,0.137262,0.218882,-0.416616,-0.882339
-0.412471,-0.545733,1.74411,-2.93094,-0.331186,2.92805,0.592895,-0.140292,-0.0403634,-0.200595,0.434644,0.877978
-0.479192,0.309966,-2.11117,2.9929,-2.63293,-2.94168,0.251969,-0.00791475,0.306379,-0.224748,0.654668,0.721733
0.27466,-0.47561,1.38277,0.446516,-0.484078,2.08324,0.477665,0.247998,-0.0456289,0.847278,0.47582,-0.23604
0.593095,-0.588619,1.76016,2.48111,1.83814,2.3068,0.396926,0.399178,0.0462809,0.189577,-0.653058,-0.733196
-1.47857,0.309806,2.80808,1.26698,-0.876492,-0.462125,0.118103,-0.0917589,-0.0192612,-0.629117,-0.667173,-0.398862
0.423764,0.309811,2.81122,1.22797,-2.06307,2.23399,0.0472467,0.141054,-0.014837,-0.800232,0.234197,-0.552069
-2.20022,-0.282568,2.67748,-0.739307,-0.293086,0.858202,0.0729596,-0.0852279,-0.0507437,-0.627735,-0.541131,0.559577
-0.492578,-0.390938,1.22166,2.52378,2.34585,2.73657,0.648527,-0.22419,0.0539774,0.170029,-0.836427,-0.521037
-1.0626,-0.865131,2.69781,-1.78175,-1.37283,0.00837305,0.177718,-0.0947553,-0.0607428,-0.951898,-0.305864,0.0183741
-1.91861,-0.615091,2.1892,0.101152,-2.76303,2.21057,0.0168341,-0.273806,-0.0479804,-0.0842193,-0.879671,0.468066
-0.129491,-0.891361,2.24737,-1.1558,0.482963,-0.852465,0.343146,0.0653871,-0.0562181,-0.675442,0.396175,-0.621951
0.646875,-0.380779,1.2854,0.672117,3.11333,-1.13817,0.366968,0.413949,-0.0607138,-0.733566,-0.539207,-0.413687
0.0307047,-0.618155,1.86378,2.33502,-1.96616,2.88049,0.508308,0.124814,0.0494391,0.199591,0.898129,-0.391827
0.0500664,-0.620705,1.92947,1.81696,0.565546,-2.73814,0.439812,0.131325,0.0521204,-0.756993,-0.531401,0.380229
-0.079177,0.310136,-0.455084,2.41016,-0.531799,-0.273757,0.726506,0.05185,0.076681,0.283646,-0.512242,0.81065
-0.0657126,0.309694,-2.18343,-0.86677,-1.96165,-2.44922,0.331183,0.0875918,0.42116,0.564818,0.676057,0.47321
-0.00935451,0.309704,-0.632128,-0.392422,2.33633,3.12635,0.839845,0.101298,0.0124405,-0.539942,-0.715908,-0.44265
-2.91945,-2.18445,0.263623,0.345995,2.82722,-1.99838,0.301656,-0.0437649,0.805465,-0.917405,-0.075756,-0.390678
-0.569948,0.309672,-2.74835,2.24457,-3.06336,-0.215427,0.163102,0.0251116,0.120338,0.798073,-0.602162,-0.0218967
-0.606729,0.309931,-2.97299,-3.14134,1.27956,0.566241,0.0728788,0.0822815,0.0561519,0.487284,0.645812,0.587777
-1.6397,-1.1642,-2.85687,-0.474831,-1.51964,-1.28332,0.1209,0.16651,0.197649,-0.218224,0.950744,0.220147
-0.183098,0.309714,-0.465413,-2.37807,0.783113,2.84923,0.852063,-0.046773,0.098149,-0.83263,-0.532856,0.150966
1.60575,-0.589986,1.91599,-3.07457,1.63403,2.76481,-0.128005,0.537229,-0.0382118,0.939721,-0.319094,-0.122896
-1.73719,-2.41673,-0.937128,-2.22963,2.11967,-2.89535,0.233942,0.73394,0.215902,-0.725836,0.673602,0.139364
0.791653,0.309772,-2.00878,-1.20115,1.49478,1.56622,0.187419,0.345115,0.440537,-0.171013,-0.166672,-0.971069
-2.7685,-0.914993,2.47061,-1.19783,-0.625686,-1.76635,-0.176226,-0.186193,-0.0548646,0.224003,-0.0345244,-0.973977
2.45204,0.0156304,-0.602095,-2.33836,-1.72006,0.885394,-0.665069,0.406937,0.39203,0.597611,0.318523,-0.735802
2.62682,0.309892,-2.39076,-1.95397,-2.24091,2.84736,-0.175161,-0.026323,0.361208,-0.890274,-0.358175,0.281289
-1.73498,-2.29977,-0.805754,1.60704,2.66014,0.0337739,0.202592,0.555038,0.413455,0.451623,-0.105551,0.885944
2.86863,-0.599378,1.84028,2.89125,-0.642917,-2.97389,-0.565939,0.0450879,0.00970437,0.122814,-0.64823,0.751475
0.11819,-2.33129,0.401044,-0.829321,0.0833587,-2.5485,-0.405747,0.061737,0.852078,-0.546359,-0.134404,0.826697
-0.289305,-0.0353781,-0.111644,0.400194,1.95662,-2.90352,0.787393,-0.12049,0.0700205,-0.652813,-0.74508,-0.136715
0.143886,-0.46128,0.72476,-0.793007,1.86973,-2.96757,0.783112,0.223753,0.0944788,-0.0262251,-0.954844,-0.295948
-0.413433,0.148536,-0.198704,-0.123635,-1.09403,-0.0523371,0.802497,-0.232878,-0.0472908,-0.761528,-0.634801,-0.130776
-0.353828,-2.09425,1.49873,2.38723,0.596351,0.191748,0.0565176,0.0954819,0.698019,0.532412,0.391084,0.750727
2.85737,-0.430933,1.0019,-1.27951,2.40456,0.0404442,-0.777171,0.113327,-0.0171678,-0.702297,-0.494451,0.512149
2.86095,-0.260546,0.85208,-1.86985,-0.223551,-2.67923,-0.824769,0.124147,-0.0473801,-0.70715,-0.00265798,0.707058
2.52898,-0.0245442,0.187301,-0.295901,0.998409,0.0464643,-0.737327,0.384795,-0.0577828,-0.0390455,-0.998905,-0.0257891
2.56572,0.3099,-2.75721,-2.36387,-2.17758,-0.362449,-0.0670864,-0.086581,0.20119,0.670117,0.480726,-0.565549
2.56334,0.309805,-2.80321,-0.516104,-0.487274,-0.476012,-0.147199,-0.0342682,0.290231,-0.475044,0.807009,0.350814
1.90673,0.309465,-2.93422,0.546954,2.60388,-2.55126,-0.151355,0.102366,0.199508,0.127087,0.926767,-0.353486
1.04431,-0.37301,0.043619,-0.502246,2.43941,1.72145,0.326164,0.778402,0.307155,-0.322132,-0.747165,0.581356
1.70495,-0.580034,1.71627,-2.65442,1.78228,1.60842,-0.190449,0.595021,-0.03869,0.169974,-0.984435,0.044675
1.60286,-0.0486742,0.282814,-1.00599,0.543079,2.12114,-0.137053,0.868111,-0.0489953,0.278896,-0.264817,0.923087
1.37455,0.309948,-2.31497,1.1292,1.55588,-2.21695,-0.0461352,0.32771,0.254767,0.711189,0.489706,-0.504379
2.18545,0.309559,-1.47524,-1.11377,-1.83086,2.8973,-0.453202,0.452777,0.381787,-0.753806,-0.558101,-0.346843
2.13165,0.156461,0.0271344,-2.10771,0.719166,2.86439,-0.568099,0.69921,-0.0159276,0.806299,-0.0924317,0.584242
1.179,0.21081,-0.107551,3.14185,3.10272,2.51311,0.210528,0.795414,0.0539391,0.312859,0.674911,-0.668293
1.47373,0.309634,-2.05161,-1.6699,1.57455,-1.08514,-0.0783317,0.321805,0.437388,-0.487637,-0.191461,0.851794
1.47219,0.309997,-1.07508,1.36585,-2.12118,2.52021,-0.0461857,0.641844,0.153104,-0.69177,0.046623,0.720611
2.02396,-0.000779731,0.149588,-0.364857,2.91891,-0.9585,-0.462923,0.701318,-0.0611139,-0.430637,0.59441,-0.679138
1.95129,0.309762,-2.49575,2.80029,0.330484,1.04849,-0.147337,0.0744523,0.202596,-0.192619,0.045657,0.980211
-1.45825,-1.01062,2.14822,0.679007,3.07066,-2.88066,0.142003,-0.284522,0.116217,-0.0698061,0.00792222,0.997529
-0.422078,0.309823,-1.20084,-1.84213,-1.0019,-3.14159,0.673187,-0.182655,0.351503,-0.105871,0.971087,0.213965
-0.359307,-2.03492,-1.36229,-1.01308,-1.93013,-1.84829,-0.579581,0.334293,0.398183,-0.742549,0.552855,0.378117
1.56748,-0.615803,2.2141,-3.1416,0.0394575,1.79205,-0.107722,0.43112,-0.0600583,0.00544496,-0.96925,0.246017
1.39805,-0.606636,1.66904,-2.07885,-0.0246076,-0.0782269,-0.00085806,0.630104,-0.0610102,-0.054589,-0.455578,-0.888521
-0.314754,0.309998,3.03543,-0.53873,-1.68332,1.55422,0.0238103,0.107037,0.128303,0.30571,-0.116857,-0.944926
2.30254,-1.50608,-0.977151,-0.978502,-1.57841,-1.09009,0.127636,-0.305483,0.843099,0.532699,0.0988692,0.84051
-0.814151,-0.664527,2.38937,0.946818,2.14937,-0.753578,0.238301,-0.0934162,0.048036,-0.0128228,0.902974,0.429504
-0.0486365,-0.606316,2.26021,-0.0177292,3.06841,1.36169,0.227283,0.0982162,-0.0533708,0.962203,-0.0316396,-0.270488
0.210666,-0.597154,2.04187,0.118677,3.12947,-1.11627,0.276532,0.170751,-0.0617043,-0.876517,-0.181989,-0.445643
1.80555,-1.2654,2.60967,2.4913,1.29047,-1.15274,-0.170452,0.24345,0.185023,-0.535481,0.561712,0.630665
2.88051,-1.22588,0.367832,-0.0474508,2.02935,-3.09926,-0.486751,0.0170713,0.727466,0.462834,0.803655,-0.374064
1.67861,0.310379,-0.414184,-1.42425,-0.336005,-2.57079,-0.204216,0.872486,-0.00404408,-0.337573,0.540571,0.770602
0.664634,-0.639951,2.46356,-3.14154,0.0348115,0.989293,0.195925,0.292185,-0.0605102,-0.756741,-0.568662,-0.322438
3.02602,0.0601457,0.0485206,1.49706,-3.14159,-0.185299,-0.727362,-0.0254401,0.0243776,0.216998,-0.0251895,-0.975847
2.76746,-0.519311,1.5525,2.45531,-2.88787,1.28312,-0.600259,0.118417,0.0521727,0.569906,-0.147252,-0.808409
2.79826,0.264327,-0.190174,1.62778,-1.66234,-0.836396,-0.703022,0.135405,-0.0385595,0.925098,0.377987,0.0363236
2.72154,0.309955,-2.7431,-1.52016,0.853984,-2.21671,-0.0794098,-0.0840747,0.279892,0.962536,0.0670953,0.262722
0.683676,-1.48953,2.93994,1.63842,0.648726,-3.1041,-0.00954831,0.133013,0.217864,-0.23665,-0.971584,-0.00456165
1.20386,-1.23427,0.592665,2.34727,1.86989,-0.000150858,0.0275532,0.375936,0.7378,-0.906258,0.305704,-0.291962
-1.60999,0.309709,2.8903,1.70412,-2.71856,-0.254832,0.104908,-0.110309,-0.035509,-0.413252,-0.399737,0.818189
2.41073,-0.914355,0.00735848,-0.736754,2.72849,-2.01028,-0.516227,0.316198,0.741688,-0.579178,0.748617,-0.322684
-2.36441,-0.0722717,-1.50309,-1.99049,-0.904273,2.05466,-0.196592,-0.346498,0.598353,0.183503,-0.332379,-0.925122
-1.68604,-0.110102,0.512247,-1.96654,-1.56978,-1.51521,0.00746157,-0.884759,-0.0182716,-0.170003,-0.985422,-0.00644553
2.48296,-1.35789,1.31202,0.323594,-0.388272,0.0164805,-0.427177,0.192579,0.431529,0.931929,-0.242574,0.269567
2.61636,-1.40265,0.903085,-2.62038,2.80475,1.33292,-0.41594,0.114895,0.7907,0.17152,-0.189415,-0.9668
1.50742,0.31003,-1.19246,-0.143663,-2.28156,-2.81041,-0.0623892,0.740314,0.213383,-0.717873,0.00389553,-0.696163
1.36405,0.073293,0.170488,2.24915,-2.25511,0.0637888,0.0465877,0.753822,0.0387846,0.661517,-0.613067,-0.431907
-0.766552,-0.20264,0.775056,1.81196,0.745459,-3.13946,0.56625,-0.393767,0.0310119,-0.856212,-0.11716,-0.503165
-1.02357,0.309888,-2.442,2.85414,-2.97736,1.61754,0.162625,-0.0571309,0.220583,0.332032,-0.53026,0.780115
-0.941048,0.0351144,0.0684377,-0.123084,2.11759,2.48288,0.569222,-0.595783,-0.0609392,-0.795058,-0.0559243,0.603949
-0.442874,-0.642017,2.24698,-3.14159,2.87114,1.33596,0.427678,-0.0820412,-0.0516,-0.844653,0.469418,0.25731
-0.592588,-0.580741,1.93496,-2.93687,3.07956,-0.799326,0.504128,-0.207849,-0.0596314,0.611907,-0.359902,0.704301
-2.56784,0.00175853,2.99727,-3.14227,2.84278,1.34134,0.01705,-0.118941,-0.0609989,-0.0275999,-0.0975609,0.994847
-1.88907,0.309902,3.03271,-3.11875,-1.60298,-1.34091,0.103859,-0.0335777,-0.0544184,-0.150906,0.269777,-0.951025
-1.67027,0.0653364,3.01755,-2.76158,-1.78755,1.21179,0.10835,-0.0134537,-0.051408,-0.377909,-0.331482,0.864468
-2.71446,0.16146,2.79001,-1.15828,-1.45802,-0.383836,0.0980321,-0.0753047,-0.0324129,-0.0701826,0.980347,0.184376
-2.48644,0.309801,2.79611,-1.34113,-0.529416,0.195074,0.130025,-0.0377432,-0.0361579,-0.582118,0.177536,0.793486
-2.25209,-0.698639,1.48385,0.738126,-0.29539,-0.0744005,-0.235345,-0.463569,0.0807072,-0.150232,0.275665,0.949441
-1.45407,-0.508808,1.52086,2.56793,1.01527,-2.64647,0.180532,-0.602355,0.0492941,-0.767949,0.129929,0.627194
-1.15949,-0.85313,-1.54895,2.37361,2.91607,-0.345476,0.097006,0.0506103,0.579067,0.563219,-0.764976,-0.312404
1.8426,-1.29903,2.33517,0.943304,-2.35068,0.469965,-0.166111,0.189456,0.198663,0.565956,0.330508,-0.755287
1.62606,0.309939,-1.13058,3.14159,1.77351,-0.376293,-0.142288,0.595973,0.311025,-0.887698,-0.446207,0.113543
1.53801,0.309921,-2.90709,-0.804504,1.586,-2.55689,-0.10762,0.0484241,0.254163,0.829083,-0.156947,0.536646
0.753459,-0.650309,2.20117,0.467038,1.296,0.908809,0.11548,0.257988,-0.00478197,0.166552,0.96743,-0.190629
1.51833,0.309671,-2.88715,3.14159,-1.03353,1.26457,-0.107809,0.0283958,0.089382,0.278532,0.365311,0.888239
-2.18818,-0.426784,-0.0333474,1.48974,2.47372,0.173836,-0.29146,-0.599071,0.390511,0.180937,-0.79883,-0.573701
-1.69178,0.309655,-2.40857,-2.18698,2.41758,0.18932,0.0937536,-0.133247,0.337613,0.661861,0.0535546,-0.747711
-1.54891,-0.254836,0.752483,-1.53404,2.09399,1.07285,0.127447,-0.834812,-0.0391557,0.399747,0.643423,0.652847
-1.40788,-0.394364,1.23772,-2.4133,1.46325,0.826045,0.229003,-0.720251,-0.0405919,0.545687,0.83488,-0.0721225
-2.60757,-1.02489,-2.65792,0.197244,-2.29426,1.37438,0.18248,-0.0188994,0.339415,-0.25446,0.0194658,-0.966887
1.45822,-1.27711,3.09175,1.46328,-1.09668,1.0738,-0.103832,0.0531918,0.209088,0.432316,0.0479269,-0.900448
-0.593218,0.309745,2.8042,-1.25572,-1.62696,2.17411,-0.00373167,0.134157,-0.024401,0.978926,0.0231947,-0.202894
-0.731175,0.309815,2.83764,-0.776711,-0.722661,2.41156,0.0331158,0.116924,0.0297779,0.376535,0.324296,-0.867787
-0.861405,0.309995,2.84066,-0.400349,1.09992,-0.47649,0.0674531,0.0889959,0.0505599,0.729664,0.365792,0.577743
-0.294884,-1.73023,1.88138,3.06187,-1.3695,-0.000569484,0.344667,0.00938464,0.544111,-0.0938973,-0.995488,-0.0137036
-1.53046,0.310295,-0.609972,-0.91118,-2.5698,-1.86097,0.144065,-0.862949,0.0418496,0.187449,-0.805143,-0.562679
-0.894583,0.151901,0.0126338,3.14158,2.68663,0.571111,0.599926,-0.573243,0.0539733,-0.233647,0.881885,-0.409498
-0.924004,0.310077,-1.43275,-1.41443,1.82287,2.3708,0.465843,-0.435761,0.390875,-0.704282,-0.220124,-0.674932
0.733803,-0.639911,2.04651,0.672385,-2.97478,0.619231,0.166285,0.296931,0.00201853,0.176932,-0.0225147,-0.983965
-0.759999,-2.04892,-0.74993,1.09503,-1.51641,-2.55667,-0.266327,0.403716,0.610876,0.965855,0.230572,0.118158
2.09881,0.30994,-0.871699,-0.240854,2.85632,1.59715,-0.499752,0.640192,0.10271,0.377463,-0.632453,0.676406
2.1136,0.309768,-1.6068,0.791243,-0.786914,1.06721,-0.381009,0.420281,0.254446,0.665776,-0.442038,0.601119
2.06685,0.310185,-0.375269,3.14118,2.99106,-1.67622,-0.471974,0.642778,0.0793926,-0.00455501,0.0415714,0.999125
-1.37547,-1.13209,0.760296,-2.49656,0.460389,-0.732984,0.217999,-0.539468,0.707549,0.483386,-0.741946,0.464601
-2.54491,-0.46346,1.39864,1.59333,-0.858557,-2.16147,-0.400723,-0.404153,0.040919,0.878425,0.0871041,0.469875
-0.780897,-0.638875,2.30425,2.66448,-1.43645,-1.89187,0.355222,-0.198367,-0.0125837,0.83421,-0.386423,0.39341
-0.535437,-0.607357,2.0266,3.14161,0.370788,-0.0654477,0.487243,-0.162142,-0.041759,0.360835,0.206349,-0.909515
-0.484434,-0.572826,1.78713,3.12035,-1.25493,-2.71381,0.56589,-0.174463,-0.0131661,0.651761,0.634331,0.41573
0.382426,-2.16541,-2.33452,2.41111,2.88476,3.04148,-0.262059,0.0122411,0.104651,0.455853,-0.0890716,-0.885587
2.88058,-1.28139,-1.18572,1.55115,2.81586,1.28063,0.0781052,-0.133839,0.683798,0.55113,-0.241979,0.798563
1.80019,0.309918,-2.86615,1.44221,3.04233,1.89004,-0.143299,0.133672,0.134515,0.25537,-0.956873,0.13849
1.58288,-0.0664206,0.474112,1.94744,-2.71478,2.83433,-0.117805,0.715794,0.0286998,-0.404539,0.822141,0.40054
2.22852,-0.472631,1.15007,-0.61901,2.75702,0.444284,-0.501166,0.470245,-0.0577186,-0.794197,0.474021,0.380203
-0.439342,0.127439,0.0573064,-2.6745,-1.59674,-1.59081,0.828869,-0.268946,0.0383331,0.557805,-0.240054,0.794498
-0.363334,-1.46339,0.378528,0.971224,1.6669,-2.54927,0.262642,0.0169132,0.764514,-0.308248,-0.766292,-0.563719
-0.0634308,-1.80784,-2.93115,-1.70808,-1.38498,1.38057,-0.0668616,0.113617,0.0167812,-0.206055,-0.173111,0.963106
2.4328,-1.54709,1.42574,0.17452,-2.52438,3.00109,-0.370463,0.17387,0.467004,0.233447,-0.95504,0.182761
-2.06112,-1.71486,-0.620956,-0.151333,-0.883921,-0.0545352,0.225816,0.191245,0.867808,-0.933307,-0.108854,-0.342183
-0.352854,-0.56111,1.7905,-2.9938,1.22968,0.79809,0.585782,-0.0994071,-0.0360866,-0.38985,0.844614,-0.366938
-2.27899,-2.41761,-0.829089,-3.14159,1.58024,1.47669,0.537287,0.459581,0.235387,0.138736,0.0175416,0.990174
0.522032,0.309896,-1.01225,1.93704,2.69641,1.95075,0.478501,0.401185,0.181733,0.743892,0.243684,0.622288
0.459212,-0.0140343,0.171927,-0.148703,2.73741,-1.55191,0.679013,0.457515,-0.061199,0.00403803,0.0102836,-0.999939
-1.86767,-1.86104,2.82863,1.22938,1.58621,-2.99529,0.0972973,-0.0550672,0.228826,-0.913986,0.393785,0.0977943
-0.725205,-0.71994,-3.13104,-2.57895,-1.68691,1.91785,0.0991516,0.0579716,0.0202461,0.0920136,0.369882,0.924511
1.99016,-1.14556,-1.75672,-3.14168,-2.81864,2.35646,-0.00678663,-0.252842,0.477332,-0.00789924,-0.533576,0.845715
-1.65545,-0.643125,2.76348,-3.14158,-2.73379,-1.36044,0.0905013,-0.224387,-0.0398995,-0.161494,-0.923724,-0.347353
-0.94157,0.309848,3.07366,2.19039,-2.34625,-1.55252,0.138611,-0.00495201,-0.0182838,0.378398,-0.542007,-0.750362
0.245935,0.309713,2.89883,-0.201544,-0.791231,-1.98036,-0.0258889,0.106038,0.0796594,-0.457393,0.177188,0.871434
-1.68939,-0.621265,2.68334,2.33815,-1.86184,-0.0169195,0.0787323,-0.26177,0.0197461,-0.942559,0.18483,0.278244
-0.916627,-0.569485,2.57433,0.843229,-1.6927,-0.284995,0.187372,-0.0649796,0.053044,-0.873364,-0.426426,0.235365
-1.29962,-0.611864,2.17676,3.06645,-0.157916,-2.99978,0.22424,-0.399067,-0.0513046,0.166529,-0.0177726,0.985876
-1.11432,-0.604659,1.98635,3.14,0.745951,-2.83238,0.32556,-0.415337,-0.0365533,-0.507039,-0.43413,0.744609
3.04448,-0.501505,2.86047,-3.14129,0.492863,-2.74903,-0.171082,-0.0929996,-0.0502511,-0.800625,0.517227,0.302451
1.91648,0.30959,3.03511,-3.00644,-1.64888,0.779721,-0.0990331,-0.0471469,-0.0504883,0.570217,0.508962,0.644833
1.74603,0.308937,2.79681,-1.33343,-2.999,0.780025,-0.0935574,-0.097659,-0.0351707,0.00390563,0.557428,-0.830216
1.59514,0.308912,2.83786,-0.264746,-1.39583,-1.07017,-0.108834,-0.0143087,0.0534618,0.476022,-0.132861,0.869339
1.23028,-2.19609,-0.912397,-0.0378534,1.66948,1.46413,-0.317043,-0.567979,0.541379,-0.101787,0.029943,-0.994355
0.86296,-0.113459,0.394836,-1.28098,-0.887418,0.888755,0.488405,0.738592,-0.0228148,-0.193133,-0.977498,0.0848386
0.660829,0.310051,-1.12588,1.0585,-0.883349,0.967173,0.446792,0.485607,0.153285,0.149406,-0.43953,0.885715
0.787311,-0.0987383,0.353199,0.802439,1.84144,-2.52033,0.430902,0.587211,-0.0142116,0.121953,-0.987803,-0.0968162
0.73946,0.0561165,0.0347794,0.210234,-0.183497,-1.88918,0.507824,0.610919,-0.0606738,-0.0294536,0.0504446,-0.998292
-0.823184,-0.00738726,2.91429,1.22961,0.888563,-2.60096,0.163583,-0.0158964,0.0526291,-0.394668,-0.553113,0.733692
-1.40912,-1.65789,-2.44516,1.53907,-2.33438,0.577761,0.0739579,0.224618,0.270188,-0.723344,0.675885,-0.14125
0.207682,-0.767811,-0.531358,1.48638,-1.83111,1.55056,0.362424,0.187917,0.66922,0.191125,0.0202897,0.981356
-0.385882,-0.779646,2.22063,1.32965,-0.228759,-0.744953,0.336355,-0.0188306,0.0872082,0.327772,-0.31309,0.89137
-0.587776,-0.477105,1.45941,3.14163,-2.7386,0.131334,0.621421,-0.282915,0.0105966,-0.727498,0.0175614,0.685885
-0.609689,0.3101,-1.27221,0.512622,2.80289,2.84178,0.611899,-0.294246,0.196022,-0.952353,0.277966,-0.125532
-0.581746,0.309853,-0.862886,-1.05843,2.88428,0.565429,0.756045,-0.366586,0.169454,-0.356945,0.491926,0.794103
-1.91472,-1.44879,-1.1578,3.0827,2.7562,1.84287,0.213723,0.273017,0.626865,-0.169336,-0.173194,0.970221
0.36975,-0.455881,1.29755,0.764588,1.8453,0.459801,0.471827,0.29993,-0.0129009,0.093763,0.961451,-0.258498
1.36809,-2.35158,0.110933,3.06799,1.3739,-1.48968,-0.23019,-0.57783,0.634492,-0.227702,-0.713204,-0.662941
-2.78617,-2.1125,-0.801097,-2.3004,-0.106844,-1.21826,0.679435,0.135769,0.496463,0.913403,0.378317,-0.150235
0.129527,0.309655,-1.46256,0.0584936,1.35047,1.84731,0.62856,0.191946,0.27474,-0.786195,-0.371065,0.494175
0.129868,0.309697,-3.04422,2.67013,-0.0507662,-1.76706,0.0361127,0.114793,0.0204771,0.254023,0.0431558,-0.966235
-1.65968,0.186675,-0.416054,2.26691,1.31478,2.53183,0.0452419,-0.721932,0.142059,-0.827039,-0.345966,-0.443073
-1.70706,-0.684637,1.70862,-0.286563,-2.43618,3.1416,0.0443563,-0.480015,-0.0471902,0.718892,0.470258,0.51191
-1.51671,-0.310003,1.08167,0.987384,-1.34479,-1.63605,0.141044,-0.586141,-0.0370047,0.0103149,0.984975,0.172391
-1.81876,0.31002,-1.93133,2.45464,-0.975731,1.22378,0.0285298,-0.332035,0.287607,-0.412395,-0.481368,0.773444
-2.96076,0.105309,-2.03585,-2.28284,3.0621,1.19408,-0.178536,-0.1436,0.456921,-0.625289,-0.144014,-0.76699
0.313957,-1.9373,1.35349,-3.14159,-1.62778,-2.28363,0.0830963,0.141741,0.781118,-0.568693,0.501823,0.651737
-1.29147,-0.0525268,0.441294,-2.18209,-2.22332,-0.594222,0.347461,-0.81552,-0.0163204,-0.512901,-0.599679,0.614261
-1.19831,-0.223448,0.614369,-1.43658,-1.61496,0.87327,0.41428,-0.76036,-0.0135778,-0.833865,0.370906,0.408775
0.462845,-0.749,2.49511,-3.1416,-0.683975,2.9443,0.251949,0.247706,-0.0242015,-0.330741,0.527441,0.78257
-0.709709,-0.623697,2.5992,-3.1418,3.08789,2.35715,0.281658,-0.098058,-0.0604375,-0.728367,0.575601,-0.371707
-1.52695,-0.782749,0.590461,1.49596,1.97897,1.54011,0.135125,-0.589687,0.438859,0.0705266,-0.96513,0.252092
-0.987977,-0.435802,1.3506,2.20048,-1.22761,1.25163,0.433488,-0.459275,0.0523502,-0.174858,-0.271605,-0.946391
2.717,-1.34844,-2.94812,-2.61546,-0.665162,-1.67451,-0.0367178,-0.103186,0.0683276,-0.619443,0.209926,-0.756453
-1.1362,-0.692898,1.35618,-1.31383,1.99272,-0.398715,0.390955,-0.582984,0.0438068,0.988029,-0.131675,-0.0803784
-0.691022,0.309871,-2.66222,2.68646,0.939206,-0.378341,0.144639,0.022019,0.148571,-0.0147654,0.9855,-0.169031
2.27421,-2.12022,1.86719,-2.07365,2.31776,2.88199,-0.229877,0.10229,0.614729,0.370322,0.65976,-0.653894
0.444005,-0.0951882,0.329501,0.192272,-1.71448,-1.22046,0.64434,0.42737,-0.0476854,-0.164637,-0.454461,-0.87542
2.69185,-1.6323,0.863226,-2.53014,1.11977,-1.98494,-0.264375,0.00641993,0.879629,0.442856,0.188371,0.876582
0.598362,-0.636579,2.47591,-3.14195,-0.0144556,1.90847,0.210319,0.275483,-0.0614726,-0.681909,-0.459085,0.569422
2.01106,-1.46419,0.762811,1.67401,-1.66037,-0.439788,-0.212389,0.19472,0.711554,0.945787,0.10704,-0.306641
-1.87437,-2.32305,-0.970087,1.12705,-2.45446,-0.330514,0.283453,0.539727,0.393334,-0.530308,0.314222,0.787425
1.245,-0.0393005,0.230829,0.143948,-2.78562,-2.94684,0.14579,0.772567,-0.0581846,-0.622243,-0.773571,0.120009
1.14347,-0.644064,2.11638,-3.14159,0.913142,-2.32262,0.0965332,0.475353,-0.0366928,0.776163,0.40017,0.487272
0.529011,0.309809,-2.39678,-2.11441,2.4553,3.0547,0.055945,0.159137,0.347021,0.709328,-0.316571,0.62979
-0.489669,-1.48905,-2.48583,-0.318899,1.49477,0.76071,-0.227124,0.244733,0.260893,0.915321,0.330597,-0.229986
-0.743441,-0.497523,1.57804,-2.85115,-3.09465,0.759344,0.553062,-0.360223,-0.0352645,-0.625618,0.528967,0.573406
-2.54778,0.309557,-1.70506,-1.8602,-2.4899,-1.67344,-0.322196,-0.349205,0.439962,0.0615685,-0.0334176,0.997543
-2.53628,0.309716,-1.63763,0.532804,-2.70531,-2.54168,-0.403895,-0.412214,0.274086,0.297745,-0.218113,-0.929395
-2.13141,-0.39084,1.21429,1.89282,-0.00443558,-1.24261,-0.237483,-0.583561,0.0495717,0.050351,0.0828912,0.995286
-1.5784,0.309685,-3.04428,-2.45406,0.885386,-1.25472,0.109447,0.0387113,0.0715183,0.247735,0.93304,-0.260891
-1.68087,0.310084,-1.02104,-0.560699,-2.86067,0.875088,0.0214468,-0.799595,0.187548,-0.115975,0.568212,0.814669
0.87068,-1.22617,-0.148623,-2.80817,-1.92853,1.17631,0.00562095,0.176079,0.921712,0.744913,0.325446,-0.5824
1.18268,0.309775,-1.95782,-0.582937,-1.98955,1.67501,0.068992,0.457156,0.408726,-0.375458,-0.667188,-0.643344
-3.00516,-1.06805,-2.55012,3.14159,-2.39444,-2.15914,0.114255,-0.0944878,0.197526,0.0316519,-0.37633,-0.925945
-1.51864,-0.0126809,0.164836,-0.0607052,0.441017,-0.618568,0.150921,-0.797256,-0.0591591,0.306282,0.803694,-0.510164
-2.75163,-0.30973,0.831036,-1.00749,0.105955,1.32465,-0.688408,-0.400956,-0.0603278,0.627086,0.22988,0.744257
-2.69523,-0.624275,2.04871,-3.14163,1.2653,-0.436238,-0.4,-0.312436,-0.0366726,-0.0397858,-0.97731,-0.208043
-1.52338,0.309694,-0.507362,1.34593,-2.31383,1.80422,0.142351,-0.697104,-0.00214929,0.209168,-0.814144,0.541681
-3.14159,-1.50851,-2.91211,3.14159,-1.91392,-0.656383,-0.00427428,-0.10915,0.110437,-0.66113,0.746023,0.0797254
-1.67269,0.30966,-1.92514,-2.8693,-2.67903,2.72177,0.0785723,-0.304627,0.372862,0.346235,-0.619917,0.704148
-1.78264,-0.557519,1.77669,-2.98578,1.92458,-0.531481,-0.0170477,-0.598376,-0.0358153,0.698281,-0.599235,0.391562
-1.23597,0.309713,-1.44204,1.12651,-1.04116,2.82333,0.291007,-0.504234,0.220121,0.931215,-0.182126,0.315702
2.72454,-0.989781,0.672966,0.787425,1.45051,1.42813,-0.559033,0.12829,0.48226,-0.453628,0.0465836,0.889973
1.85136,0.310259,-0.643535,0.780752,3.02194,2.34406,-0.30824,0.675482,0.00239387,0.167493,-0.280126,0.945238
1.74471,0.309919,-2.13234,1.10942,-0.224967,-2.65325,-0.171356,0.344547,0.267846,-0.359807,0.909495,0.208227
1.63726,0.310219,-0.768606,3.14131,0.482381,-0.850936,-0.156365,0.705738,0.217859,-0.317828,0.170049,0.932775
0.204323,-0.228212,-2.70529,-1.51786,1.01551,1.74543,-0.082124,0.0944514,0.290771,0.938449,0.0436854,-0.342643
-2.78759,-1.56008,2.72129,0.46902,-3.02379,-0.483479,-0.0243284,-0.125357,0.159951,0.448187,0.276575,-0.850079
0.111501,-1.2179,-3.12054,-1.11212,-2.20167,-1.39297,-0.0781459,0.101082,0.0591333,-0.637847,-0.215147,-0.739502
-0.364609,-1.95669,-2.31103,-1.33971,1.41436,-3.12711,-0.323476,0.240293,0.0549515,-0.247104,-0.962868,-0.108741
2.77279,-0.384268,0.97745,-1.65866,-2.04222,2.71358,-0.787485,0.18733,-0.0166043,0.233132,-0.959088,-0.160621
2.00827,-0.774114,1.91927,-1.8731,1.78883,1.97157,-0.322908,0.432785,-0.0416428,0.63125,-0.45062,0.631241
2.0585,-0.774211,1.89483,-1.03741,2.88434,-1.77722,-0.315108,0.361119,-0.0611935,0.176747,-0.221926,-0.958911
1.8859,0.30975,-2.7091,1.77814,-1.05818,-0.174017,-0.156707,0.128557,0.147783,0.906549,-0.011663,-0.421941
1.78152,0.30996,-1.84772,-2.16998,0.0261253,2.52292,-0.183485,0.335988,0.431443,0.0995018,-0.363451,-0.926284
-1.35722,-0.669935,2.36055,0.970545,-1.07174,-0.335122,0.158071,-0.213866,0.0475538,-0.757614,-0.418907,0.500538
0.00758863,-0.608932,2.15391,0.0796577,3.03268,-1.63231,0.263386,0.111152,-0.0547701,-0.993294,-0.0142204,0.114737
3.04998,-2.38389,-0.658295,-1.64271,-2.8149,0.142037,0.780341,-0.181297,0.422774,-0.086185,0.326933,-0.94111
2.7297,-0.943792,2.95919,-1.3224,2.98697,-0.55046,-0.0621926,-0.091941,0.00638611,-0.340013,0.00531102,-0.940406
1.42937,0.310269,2.92795,-2.06875,-0.884891,2.34914,-0.118328,-0.05673,-0.0397321,-0.42101,0.897519,-0.131187
0.7448,0.308663,2.842,0.546566,-2.50047,-2.94565,-0.0279544,0.122686,0.0440192,0.168866,0.953604,-0.249248
1.94584,0.309811,2.7869,1.51119,0.194185,1.95509,-0.140775,0.0596208,-0.0481424,0.419117,-0.867119,0.269158
1.91024,0.310706,2.8408,0.609015,-0.0654382,-2.12957,-0.125341,0.0271463,0.0402039,-0.053015,0.0460194,0.997533
1.91603,0.310414,2.78803,-1.4085,0.235946,0.343666,-0.075238,-0.113325,-0.0463303,-0.357149,0.342714,0.868902
-2.25693,-1.0453,0.704126,-1.50356,-2.47922,-0.745299,-0.342542,-0.590596,0.613664,-0.663998,-0.0975308,0.741346
-1.66016,-0.311967,1.0345,-2.99824,2.86885,3.04719,0.0399251,-0.777482,0.0215436,-0.316141,-0.523308,-0.79133
-1.35831,-0.0142429,0.28059,-1.4991,0.848212,1.30776,0.294953,-0.849573,-0.0394213,-0.013493,0.987345,0.15801
-1.60457,0.310057,-1.0447,-1.70845,0.888976,1.95709,0.0835354,-0.759931,0.294905,-0.266104,0.786947,-0.556689
-2.73204,-1.55441,-2.87526,-0.156768,-0.287952,2.27007,0.223587,-0.0219311,0.149314,-0.552549,-0.439137,-0.708412
-0.98,-1.00965,-2.25055,-0.909165,0.747995,0.873566,-0.0454669,0.263742,0.451475,0.863785,-0.503814,0.0068524
1.51767,0.205045,-2.7701,0.833625,2.4049,-1.11858,-0.0994016,0.186225,0.231589,-0.248753,0.850546,0.463351
1.22863,0.308932,-0.484431,0.705938,-2.64544,2.54997,0.146552,0.736758,-0.0532157,-0.488824,-0.194763,0.850364
-0.177803,0.310276,3.01577,2.28208,1.72189,2.52381,0.0963324,0.0935873,-0.0425516,-0.593092,-0.712205,0.375507
-0.16184,0.310669,2.83709,0.228102,3.11358,-2.52752,0.0515219,0.102183,0.0537205,0.912606,-0.172192,0.370811
-0.308682,0.309982,2.82638,1.0052,-1.12958,-0.422084,0.120948,0.0759976,0.00860552,0.27836,-0.954561,-0.10644
-1.71201,-1.05417,3.00143,-1.57986,-0.505439,0.0168337,0.103598,-0.0467756,0.00557738,-0.36524,0.870484,0.329936
-0.833116,-0.58804,1.97428,0.214166,-0.107173,0.575754,0.303386,-0.171528,-0.0578666,0.316243,-0.481363,0.817484
1.77814,0.309824,3.12492,3.00363,0.439806,-2.68575,-0.109822,-0.00816403,-0.0205839,0.222865,0.7976,-0.560504
1.72064,0.310435,3.02012,3.01009,-2.81022,1.33763,-0.110014,-0.00246907,-0.0614796,0.0334287,0.282164,0.958784
-0.269179,-1.10585,0.693459,-2.46511,1.53495,-0.99485,0.582969,-0.0475987,0.717624,0.37395,0.461447,0.804505
-0.605546,0.0440593,0.231777,-2.9685,2.08394,-0.671292,0.755309,-0.390152,0.0488817,0.325514,0.604343,0.727194
-0.72672,0.310023,-1.73178,2.5074,2.17922,-0.535898,0.355961,-0.170411,0.303262,0.302468,0.675113,-0.672856
2.71572,-0.413909,-0.70605,-2.14665,-3.10389,0.618296,-0.544344,0.127078,0.707059,0.682637,-0.275944,-0.676655
1.62962,-0.680457,2.32822,-3.14159,2.53863,2.77479,-0.132158,0.387455,-0.0418198,0.552944,-0.384854,-0.739013
1.78271,-0.744194,1.98142,-2.083,0.202629,-2.18281,-0.214383,0.477511,-0.05635,-0.0943219,0.988092,-0.12156
1.7197,0.309925,-2.28194,-1.12272,1.44489,0.163185,-0.14592,0.236971,0.415185,-0.985305,-0.0303526,-0.168087
-1.11436,-1.23505,-0.912479,-1.35848,1.71181,0.631116,0.0505539,0.144687,0.907667,0.763483,0.258721,-0.59174
-0.145128,0.310277,-3.03901,-0.0433598,-0.482213,0.675919,0.0945445,0.0964915,0.205041,0.361866,-0.418512,-0.833007
-0.276913,-0.181109,0.558009,-0.903311,3.04255,-2.48429,0.828531,-0.122008,-0.0604895,-0.381285,0.0269884,-0.924063
0.500187,-1.68374,-1.81592,2.57223,3.02511,-2.00385,-0.350294,-0.0670629,0.317204,0.44124,0.18558,-0.87799
-1.16793,0.310152,-1.23977,0.265281,-3.02088,2.64151,0.373947,-0.599048,0.199274,-0.287594,0.944364,-0.159579
1.95453,-0.0304145,-0.919899,-2.48434,2.89242,-1.81556,-0.3354,0.539169,0.511831,0.0761695,-0.0290433,0.996672
2.66792,-0.337579,1.11819,1.07031,0.671515,-1.50465,-0.573708,0.171426,-0.0199432,0.821852,-0.467488,0.3256
1.64111,-0.620864,2.09689,0.292468,-1.15082,-1.38147,-0.129255,0.28161,-0.0355015,0.238019,-0.933512,0.268148
2.23385,-0.555245,1.72749,0.762594,2.0366,-0.283785,-0.347578,0.267712,-0.014608,-0.420448,-0.855148,-0.303224
1.54289,-0.584749,1.94765,0.251609,-2.98947,-0.100262,-0.0995995,0.3437,-0.0559129,0.146726,-0.147129,-0.978174
1.39293,0.309972,-3.09831,1.60476,0.873878,2.81513,-0.0854251,0.141709,0.0594807,0.702941,-0.194824,0.684044
1.46917,0.138318,0.0735706,-1.72709,-3.08742,-0.98493,-0.0173928,0.905358,-0.0571917,0.117297,0.855139,0.504954
1.68933,-0.744978,-0.108533,0.0524993,-1.0073,2.06817,-0.18386,0.620839,0.607013,-0.346868,-0.498207,0.794653
0.870137,-0.438638,1.38109,1.00811,1.64981,-0.0123681,0.256608,0.473546,-0.0125836,-0.788242,0.611516,-0.0687137
1.10587,-2.21273,-0.372339,-2.7224,2.78533,0.356758,-0.396128,-0.546283,0.583701,0.0582734,0.845076,-0.531461
2.34268,-0.148372,-0.047955,2.44044,1.24767,-0.116877,-0.588114,0.447741,0.287524,-0.748458,-0.58128,0.319254
1.69928,-0.557325,-1.02335,1.8057,2.3661,-1.803,-0.151263,0.318938,0.613916,0.20812,-0.353574,-0.91196
1.85515,-0.201302,0.624934,0.57032,-1.80233,0.0336665,-0.299645,0.636143,-0.0387285,0.890697,0.420033,-0.173873
1.1872,-0.746183,2.10777,-2.31325,-0.032056,-1.1855,0.0749171,0.477266,-0.0609589,0.21203,0.493172,-0.843697
0.898086,-0.593844,1.92883,-3.0962,1.32485,1.5797,0.249125,0.487876,-0.036513,-0.605323,-0.773671,-0.187127
1.16531,0.309988,-0.475861,-2.26241,1.26333,-0.79499,0.236398,0.827385,0.0958535,-0.365844,0.839792,0.401133
0.98007,0.297448,-0.244443,-1.59105,3.07316,-1.16258,0.406513,0.802159,-0.0592814,0.495601,0.787772,0.365779
1.00598,0.309758,-0.942186,-0.264643,-0.0608751,-0.0189027,0.333406,0.730058,0.132416,-0.273987,-0.546012,-0.791708
0.0106876,-0.642673,2.10634,-3.14162,1.12799,1.83668,0.475065,0.114234,-0.0360012,-0.968776,-0.247785,0.00874798
-0.700221,-0.616135,2.22227,-3.14174,0.0232022,1.94134,0.397308,-0.192062,-0.0605745,-0.708033,0.585649,0.394594
-0.79453,-0.756915,1.95363,0.515818,-2.7713,0.94181,0.329119,-0.179395,0.029246,0.354657,-0.665084,-0.657177
0.202255,-0.55416,1.81995,0.308547,-0.00756462,-2.93562,0.354773,0.184171,-0.0610042,-0.205237,-0.034527,-0.978103
-0.114399,0.309818,-1.12016,2.89987,0.449578,-1.72967,0.60151,0.0407539,0.290701,-0.929933,0.0376438,0.365796
-0.0262674,0.309632,-2.45819,0.424886,-0.526319,-1.05496,0.286875,0.10165,0.302654,0.917858,-0.271994,-0.289062
1.70778,-1.30156,-3.05702,-2.40161,-2.84344,1.74911,-0.11094,0.00549947,0.0468096,0.0306554,-0.603928,0.796449
0.26814,0.310035,-1.86889,2.93054,-1.08351,0.893333,0.276408,0.18914,0.332996,0.82724,-0.347096,0.441813
0.480218,-0.591707,1.43549,-0.857753,-1.79302,-1.03681,0.494814,0.380813,-0.0615008,0.33949,-0.382925,-0.859137
0.202949,0.31003,-1.19111,-0.861922,-1.70511,-1.95782,0.710242,0.257592,0.278306,0.826708,0.551995,0.108882
1.353,-0.390771,1.31157,0.647536,0.0147155,0.454862,0.00917961,0.546624,-0.0614556,0.0815467,0.429658,0.899302
-2.58283,-2.0809,2.83279,1.90074,-0.809042,-2.40337,0.0285888,-0.110854,0.275698,0.933926,-0.0473315,0.354319
-0.931908,0.309804,-2.62068,2.20087,2.55505,-0.469876,0.177452,-0.0558462,0.155154,0.865941,-0.338152,-0.36851
-0.935246,0.310028,-1.60846,2.52822,2.94412,2.60393,0.337787,-0.274051,0.305634,-0.0163069,-0.261769,0.964993
-0.928771,0.309797,-1.91675,3.08936,-0.451211,-0.221,0.264851,-0.171947,0.343229,-0.517903,-0.0178188,0.855254
-0.935431,0.310088,-1.36813,3.09603,0.91289,2.71179,0.392095,-0.347834,0.343907,-0.506717,-0.524834,-0.68395
-2.83517,-1.90074,2.15441,0.436436,-0.900727,0.478919,-0.140353,-0.158889,0.319803,-0.0842825,0.702918,0.70626
-3.14087,0.309996,-0.479026,1.78699,-0.405797,0.205046,-0.696778,-0.109653,0.0299605,-0.246077,0.386304,0.88894
-3.12472,0.15587,-0.00374326,2.48802,0.0645607,1.45941,-0.760119,-0.121995,0.0467374,-0.574786,-0.0168737,-0.81813
0.00915304,-0.440663,-0.370588,1.69739,-1.90571,0.835861,0.580156,0.114465,0.495021,0.719829,-0.626722,0.298439
0.735435,-0.255193,0.740808,-1.54795,-0.558303,0.0642668,0.550266,0.645049,-0.0327202,0.00752144,-0.70611,-0.708062
-0.0540444,-1.54863,0.916775,-3.14159,-2.36743,-1.16089,0.27554,0.0944037,0.822109,-0.785564,-0.236523,0.571792
-1.32025,0.31,-0.551362,-0.809563,0.670965,-2.17148,0.320888,-0.813612,0.00624826,-0.10841,-0.993776,-0.0256112
-1.33539,0.310145,-0.940309,2.21977,-1.32653,2.30729,0.252378,-0.584251,0.192375,0.805826,-0.565282,-0.176354
1.86919,-0.698583,-1.5292,-1.37801,-0.87177,-0.671847,-0.117117,0.00949722,0.757721,0.522172,0.340207,0.782046
0.691252,-0.291736,1.03112,-2.5393,0.741856,1.73347,0.538335,0.587113,-0.0314201,-0.69154,-0.714243,-0.107837
0.831597,-0.725304,2.25576,-3.14159,-1.57116,-3.04805,0.207961,0.390139,-0.0170259,-0.672893,0.739732,0.00340249
0.258822,-0.128988,-2.33953,-1.07418,-0.0851348,-0.161021,0.0472825,0.125429,0.47549,0.836242,0.13458,0.53159
-1.20351,-1.65639,-0.161494,0.227893,2.07727,-2.24076,0.0883542,0.0743239,0.894757,-0.223297,-0.931811,-0.286124
-1.40969,-0.595483,1.80156,2.12184,1.91262,-2.2862,0.189433,-0.485188,0.0541074,-0.55288,-0.450418,0.701033
2.83203,-1.86914,3.07174,-1.11549,0.145612,-2.93622,-0.0408945,-0.101517,0.0351325,-0.85891,0.423855,-0.287439
-0.342191,-0.151804,0.256442,-1.49222,-1.38068,-1.21318,0.887538,-0.200276,0.0952144,0.740959,-0.628826,-0.235709
-0.936979,0.157371,-0.138486,0.951742,-1.69382,-3.12342,0.522536,-0.52665,-0.0383115,0.749633,0.655571,0.0909848
1.00867,-1.53682,-2.26305,-0.128782,1.4857,-2.53768,-0.28577,-0.248873,0.340769,0.453243,-0.819232,0.351325
2.65379,0.30989,-2.20128,-1.43805,-0.350488,-1.05354,-0.283898,0.0270643,0.424803,-0.180091,0.287757,0.940619
2.30243,0.000464877,0.210959,1.09486,0.872837,2.25847,-0.56034,0.460704,-0.0180978,-0.207687,0.959225,-0.191713
2.22216,0.310062,-1.63631,0.937925,2.15418,1.35877,-0.411488,0.359718,0.25246,0.0196993,-0.315529,0.948711
2.22033,0.309845,-2.39244,1.75099,-0.632727,2.99468,-0.23418,0.127879,0.212068,-0.893227,0.208922,0.398116
2.21813,0.309949,-2.15992,-0.469904,-2.65837,0.966508,-0.307772,0.226111,0.401046,0.780621,-0.594807,-0.191925
2.21654,0.309863,-2.32882,0.528728,1.16036,0.974323,-0.285245,0.197182,0.305461,0.0957465,-0.982975,-0.15682
-0.741706,-2.19583,-3.03506,2.64692,-1.49022,-1.51282,0.0706384,0.0833162,0.173429,0.353407,-0.402132,0.844626
2.40377,-1.9667,-0.159174,0.915887,1.65832,2.86151,0.135284,-0.270502,0.781227,0.857312,0.514446,0.0189975
1.30794,-1.13301,1.12551,-0.241333,-0.189562,-0.975399,0.0493886,0.603622,0.385282,0.0163189,-0.346065,-0.938069
0.509655,0.31008,-1.06505,-0.5699,-1.80061,1.7729,0.629547,0.476898,0.205229,-0.934492,-0.298379,0.19415
1.1483,-1.48326,1.45095,-0.692667,0.616864,0.940882,0.102173,0.493461,0.454355,-0.678001,-0.677044,0.286227
0.389885,-1.21082,-2.37975,-0.717915,1.15135,-3.00762,-0.31037,-0.00953149,0.353866,0.083693,-0.944176,-0.318634
-0.764191,0.310004,-1.81565,-0.631419,-2.59443,2.08482,0.443829,-0.274203,0.401704,-0.190887,0.537286,-0.821514
-0.753948,0.309847,-1.55917,-0.281051,-0.527235,-2.45082,0.529075,-0.347073,0.327902,0.749166,-0.171495,0.639797
0.886783,-1.28486,0.972675,-0.369715,1.33994,-1.62166,0.264734,0.49743,0.543896,0.441827,0.46358,-0.768038
0.408703,-1.77694,-1.99676,-1.53177,1.34002,-0.0521459,-0.485623,-0.0913717,0.220499,-0.543174,0.82418,0.160281
-2.53604,-1.8463,2.98024,1.92887,-0.648766,-0.0634484,0.0268622,-0.114158,0.237075,-0.990926,0.0473558,0.125791
-0.565086,0.30984,-0.598927,2.39354,-1.75368,2.88058,0.648992,-0.282256,0.119542,0.771841,0.635501,0.0200026
1.4356,-1.27076,0.287964,-1.53864,-0.00821226,-0.658222,-0.054484,0.409275,0.89857,0.141119,0.98926,0.0380748
0.713991,-0.654583,2.15536,-3.14162,2.23901,-3.04056,0.275425,0.383079,-0.0367527,0.620039,-0.496046,-0.607857
0.77855,0.309976,-1.7668,-2.35929,-2.96679,-1.08175,0.201178,0.351756,0.423146,-0.592353,-0.699056,0.400547
0.449667,-0.343198,1.14411,-2.70082,-2.82713,0.510533,0.639539,0.429867,-0.0188688,-0.540654,-0.560596,0.627236
0.0441958,-0.42063,1.12558,-1.79014,-2.68102,-2.42674,0.764842,0.143082,-0.0356509,0.248896,0.346986,-0.904241
0.295021,-0.747527,2.35251,-3.14159,-1.55845,-2.9012,0.344162,0.218666,-0.0171702,-0.0543229,0.998516,0.00384366
0.198397,0.309788,-2.88201,-0.239341,0.401076,-1.4903,0.0814983,0.127719,0.260599,0.379153,0.108246,0.918981
0.0890598,0.309977,-1.76524,2.01532,-2.93965,0.396902,0.388388,0.144266,0.268964,0.983446,-0.0978958,-0.152479
0.439723,0.309787,-0.303527,3.14158,-0.858819,-2.09963,0.675263,0.438297,0.0517878,-0.455975,0.207608,0.86544
0.260938,0.0308215,0.325167,1.22321,-0.0467671,-1.72997,0.646027,0.28548,-0.0598488,-0.957098,-0.2479,-0.150031
-1.11509,-0.00529805,-1.67912,-0.703283,2.74363,1.09286,0.293989,-0.351828,0.550134,-0.243461,0.901772,-0.357119
-2.27932,-0.869691,1.57327,3.14161,1.37399,1.8039,-0.329992,-0.552808,0.232319,0.260003,0.651534,-0.712672
-1.92973,-0.478222,-2.16433,2.56559,-0.429497,-0.271988,0.0880773,-0.0759676,0.378099,-0.076078,0.939074,-0.335189
-1.00956,-0.149646,0.453149,-0.145885,0.411212,1.62213,0.507395,-0.602014,-0.0581854,0.0907905,-0.18295,0.978921
-1.7285,-0.863433,-1.08404,-0.580981,-2.82816,-1.87853,0.078528,-0.201191,0.854352,-0.0309017,-0.788996,0.61362
-0.801922,0.309839,-0.54776,1.34991,2.72701,1.81161,0.56594,-0.427983,0.010102,0.46916,-0.623092,0.625816
2.09846,-1.40856,0.10071,3.14159,2.85293,3.01723,-0.134189,0.0134785,0.911947,0.0592456,0.45934,0.886282
1.03931,0.309831,-2.82483,3.03582,-1.22242,-1.65904,-0.0738548,0.0897429,0.107488,-0.309388,-0.362808,-0.879005
-1.01805,-0.761879,0.777679,3.14169,-2.59921,0.705875,0.46105,-0.539483,0.47097,-0.681928,0.357216,-0.638256
-1.85006,-0.60701,1.86509,0.909826,2.62323,-2.27265,-0.00299069,-0.406399,0.011576,-0.220334,0.392119,0.893138
-1.59803,0.309737,-2.74703,-1.0385,-0.170005,-0.341764,0.107072,-0.0777539,0.303011,-0.180236,-0.76265,0.621193
-2.46587,-0.249245,0.890029,2.60289,0.358854,-3.11388,-0.505962,-0.545471,0.0536555,0.504693,0.854501,0.122934
-2.11151,0.309755,-0.860789,-2.89796,1.50773,2.50191,-0.272058,-0.665176,0.255191,-0.754636,0.298613,-0.584255
2.08878,-1.49068,2.01334,-0.850399,-1.97141,-1.16343,-0.295044,0.297274,0.227374,0.098197,0.564511,-0.819563
1.53099,0.310182,3.0347,-1.44091,-0.0616434,2.42808,-0.111806,-0.064501,0.0695825,-0.0317473,0.373257,-0.927185
-3.02267,-0.0783149,2.80303,0.986673,-2.98369,2.01097,-0.10233,-0.122154,0.0432812,0.140726,-0.050666,-0.988751
-2.46069,0.30952,2.83632,-0.22373,-1.08538,1.1444,0.0749644,-0.0797425,0.0537485,-0.53065,0.0408938,-0.846604
0.301097,0.309643,2.77962,-1.49943,-0.0491364,-3.08338,-0.110259,0.080052,-0.0590623,-0.0882127,0.0239498,-0.995814
0.326074,0.309573,2.81153,-1.1856,-1.08192,-1.52979,-0.106765,0.0791194,-0.0145934,-0.866156,-0.331094,0.374366
2.20788,-0.071509,2.86698,0.0639072,1.81583,-2.38255,-0.104732,-0.0419653,0.0773602,0.579215,0.400489,0.710013
0.712797,-0.582262,2.5547,0.926465,0.871982,1.04947,0.0639515,0.199556,0.0537136,0.143591,0.62812,-0.764753
0.356038,-0.617689,2.1088,3.06406,2.51209,-3.04865,0.403578,0.266538,-0.0408872,0.408348,-0.473566,-0.780376
0.324324,-0.591711,1.88868,3.1416,2.04685,1.80878,0.486488,0.278708,-0.0258251,-0.79237,-0.487451,-0.3668
-0.499987,-2.30937,-1.13678,1.1205,-2.85501,-2.41944,-0.466663,0.379306,0.350643,0.95702,-0.281105,-0.0713585
-0.374949,-0.125483,0.608217,-2.75921,-1.85371,-1.08664,0.822668,-0.206476,0.0216515,0.384778,-0.631768,0.672915
-0.670594,-1.97178,-2.83176,-2.42231,0.341638,2.93656,0.0258403,0.118822,0.0342063,0.0917817,-0.49148,0.866039
-1.6421,-1.57997,2.82847,1.9288,-0.790748,-1.67261,0.100059,-0.131184,0.236677,0.0746278,0.0306818,0.996739
0.830594,-2.31973,0.978679,2.77537,-2.60249,2.28961,-0.278744,-0.143313,0.769502,0.201411,0.72172,0.662234
0.975439,-0.595616,-2.20351,-2.63022,2.77069,-3.10569,-0.140284,-0.0124784,0.397122,-0.058493,-0.732251,0.678518
1.80341,-1.55241,2.79409,3.14158,0.369711,1.85329,-0.157884,0.192963,0.173483,0.326876,-0.942867,-0.0644478
2.17118,-0.570056,1.74152,1.96863,2.83295,-1.02258,-0.378281,0.359278,0.051784,0.150617,-0.500195,0.852713
1.39472,-1.49765,-2.21225,1.05265,-2.96663,-1.02709,-0.152212,-0.232394,0.385675,0.0794881,-0.0673076,0.994561
-0.0416833,0.31,-1.63861,-2.95657,-2.0088,-1.44595,0.416859,0.0918587,0.379528,-0.928821,-0.0741283,0.363038
0.89674,-1.31239,-2.26295,2.93933,-2.46354,2.75759,-0.204555,-0.0811779,0.259052,-0.95586,-0.264704,-0.127526
0.567805,-0.293429,0.752325,-0.86958,1.42463,0.563541,0.612641,0.520254,-0.0484452,-0.72475,0.529718,0.440609
0.338834,0.0637883,0.200623,-2.4917,2.04062,-1.70532,0.791544,0.39469,0.0173253,0.815049,0.160451,0.556732
-0.647185,-0.602394,2.08227,-3.04958,3.13175,-0.892515,0.449113,-0.20261,-0.0607618,0.625468,-0.464967,0.626575
1.88481,-0.637044,2.43977,-3.14165,-3.12735,-2.0806,-0.209942,0.293079,-0.0615395,-0.234363,0.699148,-0.675475
-2.41126,-1.65516,2.18504,2.41158,-2.49014,-0.985226,-0.138626,-0.27066,0.407153,0.220733,0.647507,0.729391
-1.14539,0.309589,2.84165,-0.61356,-0.994987,2.20475,0.0824249,0.0825596,0.0413684,0.531794,0.0301085,-0.846339
-1.08691,0.30972,2.84049,-0.368163,-2.38904,0.402446,0.0869609,0.0691556,0.0516002,-0.785059,0.141943,-0.602938
-1.07857,0.30984,2.82435,-1.55202,-1.54653,1.81682,0.0573822,0.123955,-0.0422539,0.672872,-0.739565,-0.0169353
-1.07735,0.31002,2.813,-1.17182,1.35332,1.83226,0.060449,0.118041,-0.0126388,0.192751,-0.891269,-0.410471
2.8737,0.0501134,2.89797,-1.92883,3.14168,0.996788,0.0107199,-0.11613,-0.0571601,-0.964076,0.264674,-0.0224556
2.50029,0.309964,2.84577,1.84139,-0.0230058,-1.19378,-0.148134,-0.0256215,-0.0615183,-0.62713,0.478762,-0.614406
2.49401,0.309881,2.81194,1.2154,-1.20095,-1.29935,-0.146119,-0.0263341,-0.0135158,-0.592415,0.761552,0.262836
2.44794,0.310365,2.84024,0.329386,3.10261,0.971091,-0.103527,-0.055871,0.0521791,0.605708,-0.532253,-0.59146
1.9937,0.309981,2.79213,1.45281,0.630171,-1.55092,-0.143152,0.052119,-0.0411233,-0.416971,0.897928,0.140927
-0.683023,-0.748145,2.88379,2.23898,1.53472,0.694318,0.216918,-0.0357833,0.0783214,0.02356,0.970932,-0.238194
-0.424768,0.309772,2.99687,-1.55784,2.92248,2.31849,-0.0236294,0.130483,0.0408051,0.703705,-0.480499,0.523373
-0.502512,0.310149,2.89393,-1.6417,1.62367,-1.48245,-0.0187747,0.134865,-0.0168525,-0.830455,0.556933,-0.0130459
0.758815,-0.686267,1.00902,-0.129376,-1.67526,1.90344,0.420224,0.548873,0.141164,-0.1159,0.33765,0.934109
-0.855306,-2.31508,3.01642,-2.08036,2.17839,-2.84675,0.151047,-0.00740216,0.130643,-0.474112,-0.652066,-0.591631
-0.21589,0.309922,-0.496711,3.14165,-3.08952,-2.52645,0.778054,-0.058889,0.125388,0.687267,-0.107201,0.718451
-0.225157,-0.156007,0.681668,1.64976,0.530819,-1.66634,0.688435,-0.0457028,0.0121715,-0.854664,0.146206,0.49817
-0.454996,0.309995,-2.07076,3.14172,0.559229,-1.46839,0.261508,-0.00642546,0.326845,-0.868358,0.485208,-0.102606
2.1992,-0.599179,1.92966,3.12804,-3.00529,0.153121,-0.403352,0.369395,-0.0283628,0.33998,-0.239421,0.909445
0.683816,-1.05024,0.306527,-1.40284,-2.89522,-1.10981,0.380214,0.45068,0.774963,0.468784,0.242101,0.849487
-0.478651,-0.526662,1.58953,2.96936,-0.679474,2.91521,0.611046,-0.1941,0.0195829,-0.296032,0.843492,0.448204
-0.0242711,0.309689,-1.14065,-2.31575,-2.79151,2.4537,0.67119,0.0928884,0.343992,0.735181,0.247211,-0.631186
0.00209925,0.309692,-1.00142,-2.16703,0.66352,-1.4134,0.733054,0.110689,0.300728,0.394006,0.0973681,0.913936
-2.1645,-1.64638,-3.12156,-0.203662,-0.632665,2.28888,0.147422,0.0233177,0.0970394,-0.160837,-0.933719,-0.319843
-2.73308,0.309766,-2.23486,0.722617,2.00313,-2.35441,-0.284256,-0.241981,0.293413,-0.763352,0.367943,-0.530954
-2.7213,0.309709,-0.901486,0.00853273,-0.398601,2.49638,-0.669823,-0.418911,0.0994358,-0.132212,-0.398752,0.907478
-0.0597466,-0.916128,0.252641,-3.04179,2.65957,1.85231,0.522838,0.0780701,0.747872,0.712368,-0.171629,-0.680497
1.25619,-0.646328,2.28408,-3.14175,-0.139018,-2.66492,0.0222979,0.421247,-0.0525704,0.0427631,0.529292,0.847361
0.953336,-0.696903,1.68391,-1.16807,0.628471,0.267198,0.234734,0.519099,-0.0584457,-0.934207,-0.336221,0.119217
0.450698,-0.438946,1.35078,3.14173,2.03932,0.553443,0.582306,0.403046,0.0175971,-0.916439,0.399768,-0.0180215
0.269316,-0.32073,1.12839,0.797242,-0.121039,2.09813,0.529907,0.259498,-0.057097,0.799927,0.283832,-0.52873
-0.982816,-0.457142,1.3954,1.32669,-0.965935,1.5616,0.39063,-0.389194,0.020938,0.421873,-0.64647,-0.635688
-0.17655,0.165981,-0.202254,0.00498033,2.68996,1.8598,0.820628,-0.0355325,-0.061438,-0.303682,-0.0721687,0.950036
0.389364,-0.539017,1.32055,-1.15931,-2.93476,1.61261,0.585899,0.358382,-0.0569549,-0.379383,-0.146387,0.913586
0.726155,-0.269111,0.924867,2.13168,0.226907,-0.678348,0.441793,0.538294,0.0517533,0.253036,0.458954,0.851665
0.769497,-0.0517909,0.507368,1.1132,-3.1416,0.715294,0.413927,0.552932,-0.0616132,0.472153,0.457378,-0.753576
2.74898,-0.85373,2.74128,1.60747,1.71514,-0.837716,-0.217194,-0.0281968,0.125561,-0.407562,-0.547962,0.730501
-3.0041,-0.547053,-1.95477,1.34453,-0.475431,-1.96531,-0.118739,-0.12662,0.506378,-0.949304,-0.308958,-0.058032
-1.40187,-0.903962,1.00479,2.35772,-0.202492,3.12325,0.207359,-0.566584,0.457051,0.0724404,0.771259,-0.632386
-1.65763,-0.102355,0.599753,1.26373,-0.907936,2.65855,0.0502361,-0.681479,-0.0366681,0.664805,-0.412201,-0.622996
0.79971,-1.60987,2.30909,-2.83403,-0.0473021,-2.54639,0.175116,0.336821,0.311971,-0.00599891,0.0500075,0.998731
0.698353,0.30986,-0.869027,0.897851,0.144046,2.56605,0.470412,0.537411,0.0783735,0.815668,0.527505,0.237539
0.545398,-0.42094,1.161,0.506751,2.62391,0.285279,0.44592,0.398253,-0.0318158,0.20868,0.682077,-0.700873
0.940961,0.30975,-0.422673,2.08458,0.676815,-1.37207,0.328448,0.635941,0.0407442,-0.596193,-0.608056,0.524234
0.937446,0.309865,-2.28635,1.8536,-1.77052,-2.71942,0.0668239,0.275431,0.226039,-0.797245,0.424853,-0.428836
0.758103,0.268143,-0.303618,-1.50188,-1.31537,-2.75202,0.575877,0.695583,-0.0126928,-0.33409,0.91629,0.220901
0.743717,0.309949,-0.724461,0.117885,1.42948,-1.91067,0.508573,0.616161,0.0269889,0.459306,-0.0259243,-0.8879
0.76599,0.309726,-0.632026,2.17956,-0.990252,-0.676991,0.418756,0.55426,0.11061,0.10581,-0.802564,0.587108
-2.82119,-1.80354,1.93664,-2.33773,-2.44071,1.27348,-0.313967,-0.219189,0.506698,0.797554,0.463713,-0.385846
1.18523,-2.08172,1.9496,0.497136,-1.75835,-2.97863,-0.0457661,0.177469,0.423141,-0.984691,0.151688,-0.085873
1.62425,-2.25466,-0.257132,-0.308372,-0.451845,-1.27193,-0.0793075,-0.560643,0.739424,0.0988132,0.559316,0.823044
-2.87261,-1.66543,0.923971,2.95036,1.43299,2.69828,-0.137862,-0.151225,0.83355,-0.498667,0.790684,-0.355175
1.88185,-2.00409,-1.62076,1.11466,-1.52275,2.81329,0.0399089,-0.48076,0.369023,-0.830637,-0.505519,-0.233435
-1.12629,-0.630397,2.06369,-3.1415,1.0638,1.01224,0.30961,-0.3962,-0.0359018,0.0722054,0.925799,-0.371056
-1.2198,-0.0894533,0.469028,-1.96108,-1.55677,-1.1935,0.405851,-0.790955,-0.0171989,-0.0262612,-0.999644,0.00478791
-1.59293,0.309652,-1.63634,-3.10912,-1.87916,1.26075,0.100082,-0.410852,0.366117,-0.310354,-0.884189,-0.349128
-1.56289,0.309647,-1.91782,2.82608,-2.91334,2.81578,0.11153,-0.30044,0.318916,0.214217,0.0202735,0.976576
-1.39482,-0.634095,1.96031,2.67614,0.84042,-0.657459,0.196598,-0.482173,0.0220717,0.72193,-0.691963,-0.00211026
-1.38433,-0.588086,1.86885,3.14164,1.93326,2.36556,0.210424,-0.526595,-0.0238674,-0.766778,0.464755,-0.442781
-0.869094,-0.367424,1.16136,3.08499,-1.55541,0.0238875,0.557982,-0.491087,0.0321704,-0.766455,-0.641687,-0.0280194
-0.424896,0.309904,-2.5712,1.66386,0.102896,2.69217,0.234649,0.013634,0.18369,0.414085,-0.2889,0.863174
-1.6046,-1.59178,-1.90425,-0.132612,-2.53764,0.35903,0.12332,0.417153,0.461575,-0.513925,0.534238,-0.671171
0.140159,0.309729,-0.690679,-2.93571,-1.72601,-1.73052,0.729795,0.213194,0.198661,-0.168251,0.134949,0.976463
0.140502,0.30969,-2.89302,-2.37417,-1.80312,-0.84113,-0.0348268,0.105311,0.144447,-0.588268,-0.738369,-0.329775
0.140207,0.309825,-1.25775,0.400582,2.83217,0.926903,0.660894,0.203505,0.197346,0.0458001,0.191079,0.980506
-0.945805,-0.877296,0.819706,1.12834,0.805004,1.91314,0.427994,-0.406671,0.393186,0.352693,-0.902426,0.247456
0.0328483,-2.06571,0.719559,0.342546,-1.41035,-1.5734,-0.0382165,0.107953,0.794705,0.843095,0.0302714,-0.536912
1.89899,0.0981448,-0.0794324,-0.13779,-1.5238,-3.04702,-0.369693,0.747091,-0.0538048,-0.95994,-0.265959,-0.0882037
1.87994,-0.250803,0.881661,-3.14125,-1.98463,1.86974,-0.342598,0.713918,0.0396853,-0.114375,-0.528172,-0.841399
-0.499796,-0.918781,0.651249,-0.00471314,0.0560866,-1.79895,0.633012,-0.221286,0.439504,0.414709,-0.240893,-0.877489
0.0090925,-0.437932,-2.03731,0.645229,-2.42071,-2.68502,0.16704,0.110673,0.536107,0.593566,0.597861,-0.538741
2.1347,-0.128976,-0.588765,-0.0558611,-2.69366,0.71211,-0.510801,0.603502,0.334086,0.260227,0.201904,0.944202
1.7518,0.309939,-1.89722,-3.14155,-0.568261,-2.78491,-0.162027,0.279039,0.350175,-0.435547,-0.42143,-0.795422
-3.00544,-0.577661,-0.0256635,2.53736,0.155624,1.0313,-0.570286,-0.188296,0.577422,-0.962404,-0.212211,0.169542
-2.57529,-0.263236,0.968025,1.06389,-2.08093,-0.918111,-0.461573,-0.422794,-0.035774,0.422196,0.89646,-0.134577
-2.22685,0.309793,-2.61401,1.27768,0.939445,-2.28564,-0.0496393,-0.243418,0.201983,-0.935598,-0.347924,-0.0600379
-2.36639,-0.286301,0.98659,-2.35087,1.12238,2.79706,-0.49645,-0.639243,-0.0360566,-0.329897,0.864226,0.379844
-2.02618,0.309823,-2.50388,-2.19673,-1.67683,-1.9943,0.0601955,-0.125256,0.307998,0.741353,0.584698,0.329428
-2.67446,-0.598348,1.49879,-1.54712,-3.07222,-0.765969,-0.532891,-0.391019,-0.0543537,-0.90778,-0.4019,-0.12005
-2.12069,-2.39869,-0.210237,0.883543,-2.47345,-2.01212,0.384356,0.418188,0.59041,-0.268261,-0.944005,-0.192067
-0.630016,-1.33943,1.99199,-2.12726,1.64575,2.22491,0.471002,-0.208342,0.255567,-0.999277,-0.0222953,0.0307928
0.603138,-0.263359,0.944464,1.29393,-1.73534,2.68372,0.455328,0.446143,-0.00995565,-0.11963,0.992061,-0.0387766
1.02484,0.309772,-1.38823,0.662152,1.27748,0.0532324,0.233032,0.593775,0.218699,-0.965253,0.252289,-0.0680922
0.943219,-0.103223,0.346132,0.111171,-1.31775,2.8216,0.364165,0.6879,-0.0501744,-0.54897,0.80834,0.212646
0.506627,-0.452228,1.40996,-2.97311,-1.30573,-0.767937,0.553353,0.431907,-0.00523692,0.956075,-0.263391,0.128632
0.305375,0.310068,-0.956747,-2.40532,-0.61723,-0.0598398,0.659835,0.322448,0.290098,0.952052,-0.305649,-0.0132662
0.597272,-0.51122,1.22971,-0.212085,2.56069,-1.33799,0.451311,0.438957,-0.0438813,-0.321984,-0.0658756,-0.94445
1.2245,-1.53836,-0.329272,2.33523,2.9471,-2.10623,-0.151413,-0.0980357,0.804542,-0.190492,-0.818447,-0.542086
0.00488243,-0.621972,2.05353,-3.14166,1.46302,-1.07046,0.493043,0.111559,-0.0385312,0.873746,0.481213,0.0707292
-0.217667,-0.686023,1.663,-1.01515,-0.22108,-1.91397,0.562487,-0.0126181,-0.0613009,0.371335,-0.00656077,-0.928476
-1.22891,-1.96578,1.94635,0.250338,1.40848,-2.80884,0.172225,-0.158403,0.396918,-0.853955,-0.382361,-0.352931
2.64015,-0.0395122,-2.87899,0.196113,2.40968,-1.94909,-0.123201,-0.056938,0.279185,-0.433103,0.518894,0.737001
0.238386,-0.334483,2.6894,-0.502959,0.227845,0.0414304,0.0067844,0.113975,-0.0227771,0.247803,0.292471,0.923609
-0.568212,0.30961,2.83137,-0.915323,-1.12768,-1.96134,0.00603408,0.125646,0.0170723,-0.516882,0.738047,0.433728
-0.829513,-2.2893,-2.69014,-2.33745,-2.30919,2.32629,0.0164107,0.143721,-0.0176776,-0.207739,0.977888,-0.0240911
-2.1184,-0.628773,1.97322,-3.14165,-0.756349,0.812598,-0.179619,-0.504191,-0.0218735,-0.0929605,0.753916,-0.650361
-1.36285,0.169041,0.0181234,-1.93023,-2.77995,0.175119,0.292105,-0.855721,-0.039104,-0.408923,0.250504,0.877513
1.8414,-2.32118,-0.686803,-1.53456,-2.85983,1.73941,0.10115,-0.772946,0.468269,-0.311977,0.950058,-0.00775805
-1.96464,-0.725463,1.78788,-1.51755,0.349185,0.52979,-0.110464,-0.550258,-0.05652,0.637351,0.764383,0.0974772
-0.942477,-2.35536,-1.00194,-1.13351,0.204708,-2.1679,-0.36768,0.691764,0.326774,-0.637776,0.683374,-0.355305
-3.06773,-0.165359,-0.0982701,2.90568,-1.38255,3.06392,-0.742455,-0.164386,0.344416,0.198533,-0.967359,-0.157486
-2.76939,0.30971,-2.80613,3.14159,-1.99784,2.58019,0.00759708,-0.114207,0.119875,0.242939,-0.732277,0.6362
-1.76588,-1.26632,2.36062,0.336179,0.0589072,2.52903,0.0656717,-0.230712,0.132818,-0.179762,-0.661244,-0.728315
-3.13468,-2.11975,0.290222,-0.462077,-2.63007,-2.78544,0.251764,-0.107413,0.893376,-0.798157,-0.464309,-0.383878
0.914936,0.309697,3.02168,0.61458,-1.65765,-1.89138,-0.0329846,0.136116,0.0992764,0.179705,0.748315,0.638538
-2.75235,-2.34324,-0.819248,-0.417305,-3.09428,0.819692,0.715823,0.175635,0.471057,0.271906,0.146413,-0.951121
-2.23282,-1.47946,-0.757934,-2.12697,2.61834,-1.10828,0.266045,0.163805,0.852949,0.774038,0.630467,-0.0581164
-1.30359,0.309894,-0.518143,-0.346167,2.91774,0.670512,0.326635,-0.779788,-0.0398233,0.252879,-0.265028,0.93049
-1.27392,0.309734,-0.839777,0.424447,2.07793,-1.09752,0.324708,-0.688301,0.0638041,0.472851,-0.183662,-0.861789
-2.66196,-0.886233,2.27805,1.28931,0.637721,-2.78565,-0.212689,-0.233662,0.117212,0.478393,0.877858,-0.0224719
-2.47827,-1.04907,1.29262,-1.37945,-1.58582,-2.18487,-0.467276,-0.503675,0.32315,-0.226426,-0.908125,-0.352193
-3.02724,-0.236638,0.892026,-2.5351,-0.636559,0.0271557,-0.796532,-0.201356,-0.0214938,-0.284897,0.565397,-0.774054
2.09388,-2.30876,-1.42432,1.21627,2.80119,3.00974,0.183287,-0.536336,0.261645,-0.0534907,0.755286,-0.653208
0.121725,-1.55436,0.490753,1.39059,-2.70185,2.73092,0.152616,0.128633,0.767338,-0.699974,0.307588,0.644535
-0.425834,-0.662497,-0.668103,3.14159,-3.05959,1.07669,0.351514,-0.0395893,0.754077,0.660308,-0.342163,-0.66852
-0.74677,-0.582362,-0.43066,-1.38124,-1.39484,-0.426321,0.534212,-0.345728,0.725133,-0.316858,-0.928212,0.194995
-1.08452,-0.557221,1.81945,-2.88512,-3.03669,1.50639,0.364916,-0.456763,-0.054884,-0.473254,0.880845,0.011958
2.7133,-1.44578,1.82645,-1.29924,-3.07674,-2.74561,-0.493246,0.105207,0.307656,0.204654,-0.159165,-0.965807
-1.68743,-0.647022,1.31222,1.83172,-0.708723,2.67193,0.0396538,-0.599529,0.178905,0.607764,0.199769,-0.76858
-1.41435,-0.630187,1.94023,0.978177,2.42628,-1.68508,0.16596,-0.351609,0.0228468,-0.181697,0.671888,0.71802
-0.866324,-2.04368,1.28104,-2.57209,-2.06387,-1.94173,0.12971,0.0159308,0.831389,0.236491,0.214794,0.947595
0.718177,-0.0209372,-1.06803,2.70332,-2.71173,0.249906,0.313805,0.41917,0.44977,0.422873,-0.166722,-0.89072
0.976807,0.309767,-1.28999,-1.20003,1.65194,-2.43889,0.301765,0.641853,0.339593,0.94671,0.0428203,0.319229
-1.19005,0.174965,-0.612968,-2.08953,0.230799,-0.477743,0.409129,-0.728393,0.258902,0.549609,-0.826418,-0.122324
-1.50218,0.15536,-0.163758,-0.753188,-2.711,-0.118969,0.16905,-0.867885,-0.041812,-0.3631,-0.761618,0.536745
1.67792,-0.583996,-0.354429,-2.27021,-0.425129,0.624158,-0.170543,0.565071,0.734325,0.249714,0.808045,-0.533579
0.458826,-0.586316,1.96597,-2.9437,-0.0156567,0.708313,0.420732,0.329578,-0.0614352,-0.582584,-0.301051,-0.75496
0.285066,-0.19302,0.770654,-2.48523,-1.78138,-1.56251,0.770655,0.339579,-0.0122228,0.907427,0.257473,0.33209
-1.8298,0.18728,3.01292,-3.14227,0.12639,-1.12812,0.100256,-0.047783,-0.0614865,0.174246,0.44682,-0.877491
0.913404,0.293908,3.01723,-3.1416,-3.09617,-0.647143,-0.0838477,0.0700053,-0.0610671,0.446536,0.519175,-0.72874
2.57192,-2.2577,0.0212876,3.10601,0.792317,-2.57225,0.432957,-0.406932,0.66523,0.34899,0.4886,-0.799672
0.194216,0.30999,-2.01891,-2.02815,-2.25925,-0.800227,0.270986,0.164543,0.426387,-0.650566,-0.67616,0.345792
0.360095,0.0759064,-0.0398798,0.28152,2.36307,1.4509,0.697333,0.379184,-0.0471165,0.336228,0.216344,0.916595
0.18162,0.310302,-0.627897,2.13557,-0.0654329,1.21542,0.654572,0.231183,0.105038,0.981731,0.157157,0.107269
-1.73541,-1.93019,-1.7458,2.35224,2.10752,-0.0833143,0.172445,0.372031,0.264079,0.81119,-0.342864,0.473725
0.735176,0.309746,-2.12941,-1.14201,1.47673,-1.24793,0.167921,0.299007,0.4329,-0.0642481,0.367783,0.927689
1.27521,-1.62627,2.31954,3.01665,1.54657,-1.67003,-0.00855467,0.346605,0.342607,0.250171,0.481562,0.839948
1.95265,-0.0776077,0.55917,1.0841,-0.0579384,-2.30643,-0.353461,0.587298,-0.0600525,0.238936,-0.699287,-0.673727
1.73266,0.310077,-1.07108,1.44328,2.06812,0.292425,-0.209108,0.60328,0.156532,-0.916987,0.393699,-0.0643149
-0.652348,-0.369825,0.921924,1.17597,-1.07235,-2.26766,0.572265,-0.299808,0.0518752,-0.297847,0.936921,-0.182936
-1.38049,-0.927879,2.68265,-1.56536,1.73003,2.62446,0.138433,-0.141591,-0.0492796,-0.850744,-0.120837,0.511501
0.841285,-0.969224,2.64537,-1.23353,1.20904,-1.80912,0.0244294,0.191089,-0.0360557,-0.0624679,-0.40115,-0.91388
0.750247,-0.623714,2.5815,-3.14133,-0.0224531,3.082,0.133758,0.27388,-0.0616048,0.220076,0.235761,0.946564
2.38969,-0.738032,2.58758,-3.14162,-2.5402,-2.47254,-0.291828,0.123465,-0.0280372,-0.608699,-0.0384102,-0.792471
-0.0312787,-0.0259222,2.99376,-3.1417,2.88135,-1.17326,0.0582731,0.10738,-0.0608611,0.530826,0.0830583,-0.843401
2.37895,-0.634249,2.37901,-3.14136,-3.12968,1.95734,-0.341233,0.175082,-0.0617315,0.703666,-0.678562,-0.21073
1.65351,-0.280546,0.77632,-1.04507,-0.0268681,0.000681774,-0.175103,0.791062,-0.060491,0.097239,-0.847804,-0.521319
-0.610654,-2.05577,-2.59251,0.0423929,-2.66424,-0.901863,-0.197426,0.271405,0.0837674,-0.850406,0.247425,-0.464317
1.27717,0.309877,-0.819368,3.14165,2.87059,0.942129,0.0984158,0.702618,0.233503,-0.179691,-0.0503643,-0.982433
0.922626,-0.263518,0.968261,1.05977,-1.25708,1.87124,0.285039,0.55717,-0.0360314,0.330873,0.903173,-0.2735
-0.843252,-0.55942,-0.399125,1.01719,0.458178,-2.41433,0.4673,-0.360633,0.541217,0.17211,-0.690098,-0.702953
-2.29853,-1.59572,-0.577928,3.14159,2.06319,2.85257,0.288346,0.159587,0.783465,-0.615955,0.578383,0.534859
0.615493,-0.654279,2.33707,1.42409,0.281857,2.38507,0.173853,0.256618,0.0526089,-0.433762,-0.554458,-0.71023
0.301372,-0.658386,2.18691,1.60641,-2.08952,-2.19268,0.303845,0.208749,0.0519398,0.120451,0.567253,0.814688
0.347343,-0.65303,2.12298,1.6708,0.889473,-2.04782,0.317299,0.230951,0.0517801,-0.15121,-0.434023,0.888121
0.184785,-0.315861,1.03586,3.14161,-1.44924,2.73281,0.728268,0.247166,0.0336936,-0.507222,0.831799,-0.225468
0.273682,0.309668,-2.02711,0.58805,2.13428,2.11917,0.387428,0.222131,0.307248,-0.738279,-0.664995,0.112811
1.32673,-0.677381,2.28464,1.93889,0.489711,1.42821,-0.0203412,0.370004,0.0505496,-0.131157,-0.250057,-0.959307
1.24276,-0.670647,2.26459,0.725899,2.26291,2.26659,-0.0213144,0.276152,0.0255997,0.738032,0.636825,-0.223075
1.30982,-0.573539,1.7972,3.14161,-0.957206,2.19532,0.0440579,0.587986,-0.0168871,-0.688255,-0.72433,0.0406302
1.86095,-0.630898,2.33775,0.212686,0.987625,0.91478,-0.162101,0.1614,-0.0164275,-0.733769,0.677915,0.0448843
1.83835,-0.614808,2.11994,0.189167,-0.455976,2.72163,-0.179023,0.2402,-0.045445,-0.468041,0.186523,-0.863798
1.72114,-0.599884,1.89057,0.65602,1.88906,-1.42142,-0.163517,0.35066,-0.0131231,0.000581314,-0.947513,0.319716
1.4926,0.309923,-2.47265,-1.18848,-2.4873,2.67773,-0.0958338,0.174214,0.377633,-0.48113,0.827309,-0.289956
-0.779229,-1.44137,-1.20356,0.155356,-2.24872,2.12107,-0.0887615,0.241091,0.772742,0.103699,0.470041,-0.876532
-1.25858,-0.581739,1.74077,1.60486,0.921292,2.34467,0.250446,-0.420579,0.0512015,-0.569363,-0.0480657,-0.82068
-1.4059,-0.111579,0.619623,1.22284,-0.70372,-1.44093,0.21792,-0.644597,-0.0392486,-0.240767,0.936341,0.255534
0.639279,-0.699091,2.06811,-0.233388,3.12229,-2.30466,0.190155,0.277374,-0.0615369,-0.759235,-0.580543,0.294162
0.261056,0.299978,-0.425585,1.42219,1.9955,2.23315,0.65204,0.287172,-0.0129183,0.811698,-0.363147,0.457462
-1.33649,-1.15063,2.4136,1.23906,-2.76642,-1.70449,0.160894,-0.203937,0.179325,-0.0667209,0.48991,0.869216
0.244535,-0.579607,1.81005,0.720311,1.74792,-2.43062,0.360345,0.202413,-0.012716,-0.359377,-0.858417,0.366016
-0.110376,-0.833553,2.52689,-0.846679,-2.58321,0.15925,0.177868,0.0901058,-0.0482165,0.611821,-0.594122,-0.5222
-0.428981,-0.609251,2.1436,0.0959518,0.120049,-3.1005,0.289429,-0.0123558,-0.0539938,-0.140708,-0.0672242,-0.987766
0.572706,-0.357165,0.896556,0.187461,2.44807,2.58568,0.505491,0.45581,-0.0344466,0.178743,-0.530833,0.828412
-0.965351,-0.702132,2.57976,-3.1419,1.57652,1.84298,0.258346,-0.18146,-0.0388466,-0.743937,0.602443,0.28917
0.339954,-0.512513,1.66219,-2.75293,-3.06247,0.251556,0.553155,0.311419,-0.0573424,-0.238555,-0.165576,0.95691
0.87554,-0.625913,2.29789,-3.14174,-3.1238,1.01402,0.171763,0.376291,-0.0616511,-0.499694,-0.613682,0.61131
-0.180364,-0.297642,0.820969,-1.44336,2.0145,2.29915,0.827626,-0.0399639,-0.0395737,-0.86226,-0.45387,0.224742
-0.462746,0.309782,-2.8883,-0.578141,-2.27918,2.6884,0.11284,0.0656856,0.263615,0.834045,0.346913,-0.428976
-0.648745,-0.269473,0.943474,2.45757,-0.0051208,-0.223045,0.635842,-0.345134,0.0521393,0.772271,-0.591823,0.230961
-1.0766,0.309945,-0.580002,-2.55946,-1.70418,0.599375,0.481164,-0.662935,0.154257,-0.852162,-0.143683,-0.503165
-1.06644,-0.763404,-2.72246,0.0114197,3.11048,-0.266366,0.0505675,0.134256,0.340064,-0.455692,0.887666,-0.0662835
-0.0940575,0.309703,-2.52245,-0.67696,1.43179,-1.00983,0.202902,0.0904937,0.365457,0.330655,0.498019,0.801651
-0.192803,0.30993,-2.20831,2.65357,2.98851,-1.21693,0.230622,0.0661866,0.262011,-0.376172,0.127279,-0.917766
0.892119,-0.811325,1.32254,-1.06397,0.185522,-0.48342,0.344694,0.601279,0.12491,-0.438869,-0.284016,-0.852484
0.281412,0.310259,-0.579839,-0.313397,2.67559,-2.58781,0.771744,0.336718,-0.0151455,-0.22513,-0.462899,-0.857345
-0.682592,-0.305563,1.02596,2.46021,-1.76686,1.15044,0.614958,-0.359266,0.0528282,-0.341765,-0.238004,-0.909148
-0.214628,-0.273396,0.875231,0.967221,1.57033,-1.78143,0.646507,-0.0292158,-0.0183295,-0.99999,0.00398965,-0.00179987
-0.739152,-0.536553,1.75053,0.365071,-0.00789538,-2.02419,0.374795,-0.193947,-0.060353,-0.66469,0.610568,-0.430574
