Fabiaho/6DOF-Inverse-Kinematic/model_training/ur5_val_data_87k.csv
Shoulder_Pan,Shoulder_Lift,Elbow,Wrist_1,Wrist_2,Wrist_3,TCP_X,TCP_Y,TCP_Z,Orientation_X,Orientation_Y,Orientation_Z
0.324468,0.138137,-2.76654,-0.522791,-1.76802,1.50384,0.0394364,0.128424,0.31786,0.0175723,-0.0633102,-0.997839
0.658357,0.309701,2.85595,1.34997,-1.89248,-0.620179,0.0166448,0.150865,-0.0124301,0.8834,-0.292734,0.36594
-1.03313,-1.10765,2.07941,0.740423,-0.523474,-1.9933,0.25627,-0.216665,0.158772,-0.312014,0.923521,-0.223062
-0.789245,-0.637386,2.3911,-0.114961,-1.8613,-1.47139,0.201288,-0.047884,-0.0372043,-0.768137,0.639084,0.0392066
1.30905,-2.13848,0.419155,2.99965,-1.84769,-0.381153,-0.203051,-0.336148,0.808322,0.789044,-0.505119,-0.349663
-0.46735,-0.602137,1.96351,3.1416,1.483,-1.01712,0.517324,-0.1388,-0.0341229,0.98733,0.0884693,0.131727
2.03213,0.0147022,-1.89914,-0.45368,0.784005,-2.85666,-0.263361,0.284581,0.521733,0.726738,0.0603991,0.684255
1.36118,-0.156983,0.506469,-1.22064,1.26436,3.06174,0.0723417,0.864598,-0.0396584,0.957168,-0.0680497,0.281424
1.88527,-0.594516,1.84486,-3.14162,-2.11479,-1.34427,-0.278704,0.503976,-0.0152593,-0.0919857,0.904102,0.417298
0.310355,-0.683879,2.08516,-3.14161,-1.38938,2.81878,0.432207,0.253243,-0.0129817,-0.61011,0.783908,0.115127
-2.59365,0.186453,-1.45387,-1.79742,2.38847,0.42788,-0.405856,-0.375555,0.479083,0.916255,-0.16982,-0.36282
0.0860691,-2.05591,-1.44084,1.60569,1.80434,1.76442,-0.483736,0.0678177,0.358517,-0.897906,-0.265361,-0.351211
-0.300107,-0.633117,2.06518,0.517981,1.82836,2.46449,0.327407,0.0129395,-0.012825,0.403418,-0.91378,-0.0475366
-2.99408,-0.995034,2.85687,-3.14159,2.07659,2.58134,-0.191197,-0.138758,0.0427253,0.511104,0.825132,-0.240688
-1.12997,-0.62429,2.16231,0.222439,-0.909192,1.36387,0.211675,-0.192854,-0.0366143,0.273644,-0.959924,-0.0605442
-1.48274,0.310369,2.83161,-0.913431,2.55255,-1.14834,0.103234,0.0718164,0.0173746,0.145094,0.946633,0.287808
-1.54141,-0.63768,2.39799,-3.14177,-3.11596,2.18787,0.119696,-0.357181,-0.0608655,-0.0119091,0.909915,-0.414623
0.698164,-1.29754,-1.78626,1.97708,-2.5577,0.0898227,-0.217439,-0.0399763,0.478682,0.576399,-0.233066,0.783227
0.279173,-0.498998,1.5413,0.608338,-2.3848,3.11617,0.428084,0.236261,-0.038644,-0.109054,0.682755,0.722463
2.26655,-0.0149239,0.389812,1.56367,1.13485,-0.478558,-0.533507,0.468595,-0.014099,-0.428562,-0.742138,0.515331
-1.55377,-0.249383,0.890838,1.58546,0.934933,-0.89829,0.120221,-0.649183,0.0170851,0.494415,0.402628,0.770353
-0.39551,0.310161,-1.10671,2.46842,-2.64355,2.94012,0.581712,-0.12459,0.249433,0.4442,0.321743,0.836163
-1.1726,0.309764,-2.04629,0.335764,-1.12879,-0.373988,0.268644,-0.35712,0.330464,-0.662095,-0.596046,-0.454268
2.01216,0.309833,-2.56201,2.71742,0.522766,-0.191375,-0.147915,0.0575648,0.179648,-0.0819926,-0.973905,0.211629
-2.53121,0.309837,-2.07526,3.14159,-1.04176,2.85766,-0.130855,-0.224733,0.326114,0.173009,-0.89033,-0.421165
1.7585,0.309546,-0.352247,1.22839,3.09316,-0.639155,-0.239532,0.676154,-0.0591183,0.00878853,-0.254509,-0.96703
1.31626,-0.590659,1.43247,-0.468294,-0.597744,-0.383288,0.0403441,0.588545,-0.0548381,0.291042,-0.954258,-0.0684518
-2.90176,-0.361505,0.775144,-0.591038,0.183678,2.09244,-0.725338,-0.289741,-0.0113531,-0.341429,0.010202,0.939852
0.576561,-0.684728,-3.06405,0.331971,-1.51206,2.53204,-0.0751445,0.0813336,0.225242,-0.354596,0.745736,-0.564039
-1.67712,-1.70345,2.53264,-0.281789,2.46489,-1.55071,0.0916096,-0.170163,0.140366,0.066308,0.502799,-0.861857
0.237744,0.309717,2.84184,-0.530566,-2.56564,1.01766,-0.0592656,0.0979474,0.0456442,0.107229,-0.268422,-0.957315
0.837,-0.542065,1.77114,-2.79493,-0.0126026,0.433736,0.314173,0.511378,-0.0616188,-0.275954,-0.323087,-0.905243
-2.99949,-0.77848,-1.47678,-2.77878,-2.27188,2.83834,0.0503095,-0.103064,0.661571,0.0154831,-0.734486,0.678447
-1.90294,-0.299662,-2.20766,-1.61795,2.14372,1.61452,0.0994997,-0.0462736,0.499493,-0.310208,-0.786721,-0.533704
2.98446,0.309589,-1.77401,-0.517014,-1.12477,-1.03558,-0.543735,-0.0243607,0.387492,-0.793674,0.591624,0.141641
0.975728,-1.40851,-1.3449,2.77391,1.71501,-1.71353,-0.256504,-0.184213,0.562413,0.0937479,-0.112636,-0.989204
1.55072,0.309727,-0.532835,2.19582,1.38532,1.9377,-0.095073,0.702247,0.0834351,0.369231,0.825933,-0.426032
-1.54954,0.309695,-1.02572,-0.528071,-0.308344,0.891266,0.125925,-0.787848,0.186728,-0.210416,0.924623,-0.317486
0.383882,-0.783017,1.97737,-0.185821,0.756571,-1.29796,0.297883,0.238039,-0.0262792,-0.921589,-0.172764,-0.347601
1.67447,-1.77763,-2.13575,-2.43349,0.364696,-2.69921,-0.0710632,-0.371717,0.137082,0.230582,0.898516,-0.373498
2.42736,-1.61319,2.28258,-1.90763,2.1381,2.50189,-0.35791,0.165825,0.239483,0.975887,0.0494321,-0.212606
-0.53478,-0.354132,1.13013,3.14161,-0.210432,1.48027,0.69651,-0.28572,0.0293471,-0.555521,0.307119,-0.772706
0.173024,-1.69934,1.72138,3.14174,-2.43828,-0.117901,0.31591,0.166017,0.596634,-0.632771,-0.762586,0.134401
-1.24934,-0.582194,-1.12167,-0.296796,0.289116,-0.91687,0.226458,-0.334571,0.751076,0.469277,-0.86028,-0.199243
0.306376,0.309907,2.78198,-1.46526,0.112328,1.87599,-0.110639,0.079482,-0.0546619,0.902231,0.250083,-0.351338
-2.29492,-1.70406,-2.0635,3.05862,-1.07779,-1.46693,0.288937,0.161948,0.208734,-0.47271,-0.396642,-0.786906
0.182526,-2.29452,-2.38602,2.9458,3.06332,1.9686,-0.217018,0.0709366,0.031027,-0.826957,-0.183445,-0.531498
-1.67774,0.279193,2.82773,-0.930838,1.66496,-2.96756,0.11507,0.0493041,0.0122982,-0.965355,0.19385,0.174679
0.468739,0.281798,-0.46721,0.544167,0.764489,0.576672,0.629189,0.440956,-0.0453385,-0.596734,0.348209,0.722952
-0.753166,-0.757945,1.85095,-1.11013,-2.24615,1.3178,0.43259,-0.255947,-0.061642,-0.031567,-0.238194,0.970704
-0.125039,-0.512889,2.5313,2.53281,-0.334087,-0.33672,0.305285,0.0716363,-0.0407125,0.426942,-0.365592,-0.827081
1.88169,-1.84497,-0.143404,-2.44738,-1.91299,-1.76061,0.00780184,-0.381082,0.88268,0.114488,-0.937322,0.32912
2.54978,0.309901,-0.92086,1.34008,-1.54511,0.714694,-0.611126,0.279273,0.113979,0.0708517,0.862143,0.501686
0.971273,-0.575943,1.73337,2.18703,1.09267,2.1791,0.210672,0.501697,0.054122,0.180287,-0.635436,-0.750812
0.934967,0.0713078,-2.84964,-2.69406,2.81816,0.0402374,-0.0945531,0.0556955,0.133048,0.149394,0.737174,-0.658981
0.769442,-0.202446,-0.758295,2.48307,2.56033,1.18463,0.316616,0.458626,0.491521,0.531696,0.802903,-0.269531
-2.47701,-0.694634,2.64813,-3.14197,1.09067,0.22955,-0.143538,-0.25112,-0.0379831,0.830923,-0.446171,-0.332413
0.608378,-2.12986,-0.166225,-2.9586,-1.47138,-3.12764,-0.527391,-0.234316,0.69413,-0.536436,0.838889,-0.0922013
2.2009,0.309557,-2.741,-0.461086,2.21496,-2.02302,-0.165202,0.0412876,0.307144,0.00181306,0.59049,0.807043
1.21372,-0.61705,2.296,2.85379,0.786388,0.341109,0.0366455,0.410494,-0.0379684,-0.698425,0.0362093,-0.714767
-2.21456,-1.87268,1.69846,1.66829,-0.231936,-1.46437,-0.0120795,-0.197951,0.555677,0.580283,0.813972,0.0268562
-1.60134,0.309702,-2.93574,-0.0894618,-1.13589,0.111357,0.105965,-0.105921,0.239203,-0.911114,-0.307664,-0.274252
1.66691,0.309861,-2.61307,1.98731,-0.00880698,2.62231,-0.125141,0.160612,0.161261,-0.0720038,0.667178,0.74141
-0.437577,0.309506,2.8418,-0.541141,-2.121,-0.702625,0.0141952,0.113863,0.0451143,-0.883862,-0.304698,0.35489
-2.32857,-2.17959,-0.73887,2.47812,2.52493,2.03846,0.481514,0.350074,0.438981,0.300795,0.697206,0.650712
0.252159,-1.60705,1.41833,2.88724,0.291625,-0.260532,0.291659,0.187858,0.672975,0.633399,0.450069,0.629478
-2.11914,-1.68499,-0.547329,-0.924112,2.36566,-0.211675,0.244733,0.191269,0.915538,0.949706,0.241186,0.199719
-0.423456,0.019726,0.285789,-2.80971,-2.48904,0.0995277,0.824634,-0.251958,0.0388584,-0.881435,-0.265463,0.390643
1.44867,0.309814,-2.63091,-1.81465,-1.32043,1.3185,-0.101276,0.0708269,0.298113,0.343045,0.809719,-0.476104
2.49323,-1.46043,2.73178,-3.14159,1.60846,3.04625,-0.267541,0.0657579,0.1647,0.664409,0.744633,-0.0638967
-1.11776,-1.43577,1.81689,-0.241082,-1.65224,-2.2794,0.276765,-0.319162,0.270664,0.513849,0.426323,-0.744451
1.16141,-0.285193,0.945046,-2.43512,-1.87697,-2.60223,0.222456,0.786899,-0.0125007,-0.529452,0.835162,-0.148949
2.71671,-1.82143,0.708115,0.222297,1.23239,1.0231,-0.173874,-0.0411342,0.793295,0.501449,-0.766004,0.402227
-0.646833,-1.1937,-1.90577,0.904026,-1.4911,0.970619,-0.0608061,0.182702,0.556167,-0.852494,-0.0616918,-0.519084
-0.736141,-0.359305,1.22496,0.747229,0.0522952,2.77683,0.486452,-0.293456,-0.0561244,0.202251,-0.249142,-0.947113
1.67011,-0.578498,1.53135,-0.0917227,-3.05518,2.99529,-0.159309,0.497958,-0.059849,-0.0322453,-0.537477,0.842662
-2.38591,0.309356,2.82994,-0.942887,-2.02488,-1.47353,0.12154,-0.0354487,0.0142932,0.545483,0.633895,0.548293
1.59233,0.100816,-0.485908,-2.79946,-1.74827,2.36692,-0.12597,0.779769,0.288294,-0.706621,0.140908,-0.69342
2.21379,0.263809,-0.216763,2.9708,1.83474,-2.23415,-0.56129,0.567138,0.0538155,0.43846,0.40617,0.801735
-1.78545,-0.542945,1.46981,-2.05545,0.545752,1.75361,-0.0392508,-0.692443,-0.0454631,0.0829519,0.823479,0.56125
-1.13264,-0.492598,1.59623,-2.70847,0.119135,1.05919,0.372795,-0.538411,-0.0568508,-0.31002,0.798842,-0.515499
1.34922,-0.360642,1.15101,2.49147,-1.46726,-2.78583,0.0444715,0.694067,0.0541146,-0.919949,0.158818,0.358429
0.965735,-1.4136,0.855406,2.09542,-0.0793427,-0.954379,0.0835173,0.312652,0.713497,-0.437179,-0.71269,0.548587
-1.59785,-0.614082,2.22463,-3.14151,-0.0141678,2.73135,0.0975776,-0.429137,-0.0616613,0.0227791,0.36152,0.932086
2.96175,-1.45936,-1.88328,2.52623,-0.135851,2.72323,0.244267,-0.15535,0.36837,-0.340877,-0.0638065,0.93794
1.8386,-0.605712,2.15397,0.0365968,3.09842,-2.88629,-0.17501,0.225313,-0.0596885,0.103497,-0.219356,0.97014
0.493955,0.0608082,0.257231,1.32237,-2.90822,2.34763,0.566665,0.429106,-0.0527431,0.591278,0.502518,0.630767
0.0891874,0.310179,-0.772871,0.184859,2.67606,1.79692,0.768856,0.17834,0.0435006,-0.449159,-0.141212,0.882222
0.100915,0.310048,-1.12763,2.45791,1.01365,-2.1527,0.564668,0.166886,0.252209,-0.802251,-0.550116,-0.231875
-1.31058,0.309665,-2.92417,-2.75386,1.43841,-1.02561,0.1031,0.0370044,0.0992246,0.311663,0.827364,-0.467264
2.10209,-1.8341,-0.21483,-1.18136,1.65036,1.0415,0.0576277,-0.3135,0.942051,-0.452428,-0.223553,-0.863327
2.32755,0.310005,2.83989,0.665534,1.27972,-1.95825,-0.128494,-0.0229058,0.0367274,-0.0753292,0.606944,0.791167
-0.88491,0.035864,0.172481,-2.79258,0.797543,-2.5773,0.628243,-0.595272,0.0731117,-0.606001,-0.214311,0.766051
-0.283044,-1.83687,2.40528,1.95991,-0.283128,-3.09611,0.188289,0.0589086,0.36546,-0.700376,0.494343,-0.514877
-0.794887,0.142289,-0.0496598,0.880515,-3.08004,0.789609,0.591299,-0.44678,-0.0606518,0.65716,-0.731597,-0.181404
1.05771,0.309824,-2.75206,0.453758,1.60294,0.625759,-0.00128768,0.220077,0.250477,-0.973765,-0.0779816,-0.213779
1.33564,-1.90286,2.3724,-2.47369,-2.17088,-3.07402,-0.0369119,0.314407,0.353203,-0.731344,0.481518,-0.482986
0.913503,-2.04139,0.8069,-3.14159,-0.567608,3.08778,-0.179645,-0.0541196,0.869473,-0.563729,0.148227,-0.812551
0.470918,0.309695,-2.05447,-0.520373,-0.725292,0.285454,0.315511,0.283115,0.406526,0.505388,-0.456951,-0.731969
1.0844,-0.760956,2.85589,-3.01995,-1.21938,-1.95729,-0.00905268,0.216384,-0.0143098,0.0694176,0.888394,-0.453802
0.976585,-0.0835194,0.521936,2.73699,-1.3279,-1.32577,0.347294,0.70896,0.0526968,0.24611,-0.0563301,0.967604
0.966533,-0.626358,1.95319,1.82991,2.77538,1.54754,0.160453,0.424514,0.0522977,-0.0277903,-0.0255948,-0.999286
0.572156,0.309844,-2.46494,-0.706244,1.80585,-2.5626,0.121299,0.207945,0.377705,0.725479,-0.500977,0.471914
-1.61606,0.309683,-3.11248,0.0887871,1.84396,-1.50653,0.105686,-0.0789425,0.176132,0.0437691,-0.400442,0.915276
-1.52501,-0.304098,-0.594157,1.72321,1.94604,1.44971,0.1356,-0.574736,0.459023,0.147021,-0.753239,0.641106
0.125584,-0.85367,2.13846,-1.30039,-1.18421,-2.8046,0.374703,0.157322,-0.0614745,0.248607,0.912433,-0.325055
0.776965,-1.69952,-0.983198,0.935577,1.21812,2.58599,-0.299742,-0.141653,0.700991,0.15202,-0.968673,0.196371
-2.68697,-2.091,1.81819,1.54265,-0.0333955,0.762058,-0.02044,-0.13148,0.535569,-0.410455,-0.173731,0.895178
0.381253,-0.604906,2.36946,0.0088667,2.7406,0.00642307,0.127711,0.168789,-0.0350123,-0.311367,0.295705,-0.903111
2.01461,-2.24966,1.99533,-1.10194,0.974402,-1.40567,-0.186708,0.138497,0.49847,-0.528225,0.794269,-0.300192
-0.647082,-0.471528,1.44111,2.10801,-1.6223,2.90875,0.540076,-0.271281,0.0532022,0.637474,0.736251,-0.22707
0.397003,0.30971,-0.799053,2.33415,2.97459,1.82013,0.566351,0.355806,0.169613,0.936947,0.348351,-0.0279756
-0.405968,0.309972,-2.75961,1.05144,-0.907452,-0.220643,0.223134,0.0228932,0.193538,-0.200344,-0.750737,-0.629489
-1.35051,0.309885,-2.36302,-0.960948,0.381469,-0.72765,0.157827,-0.205321,0.400936,0.439971,-0.692615,0.571586
1.96632,0.309802,-0.978758,0.850821,-3.09931,2.35891,-0.368636,0.599618,0.10976,0.191637,-0.536774,0.821675
1.09636,-1.87526,1.38524,3.14161,-2.67815,-1.24124,-0.0175406,0.204772,0.762734,-0.191424,-0.689414,0.698617
2.49471,-0.986687,-0.977822,-0.34932,-2.95426,-2.88642,-0.18835,0.00547391,0.869968,-0.770167,0.355867,-0.529341
-0.845762,-2.08629,0.462612,2.25514,-2.02823,0.549037,-0.108044,0.286534,0.774235,-0.16687,-0.965723,0.198832
1.76917,0.310308,-0.335282,3.14173,2.59763,1.99849,-0.263583,0.757387,0.0638002,0.136073,0.412295,-0.900832
1.49674,0.310104,-2.65208,-2.69116,0.53607,-2.20382,-0.105779,0.0494767,0.210905,0.256584,-0.625477,-0.736846
-0.150789,0.309755,3.03682,-0.505398,0.0666412,-2.42765,0.0092062,0.109004,0.129863,-0.911294,0.0875573,0.402339
0.437674,-0.626442,2.56977,-3.14211,-0.0197139,2.01359,0.216137,0.221649,-0.0614273,-0.624951,-0.283115,0.727518
-0.912924,0.0933423,0.170752,-2.06544,1.51208,0.277412,0.632959,-0.640637,-0.0312165,0.604594,0.787816,-0.117525
0.688993,0.000349666,0.242513,-1.51344,-0.476228,1.77278,0.622337,0.653991,-0.0333099,-0.740141,-0.490469,0.460034
-1.47574,0.309988,-1.58154,1.08853,2.8123,2.19903,0.159683,-0.524818,0.241263,-0.255073,0.672934,0.694333
-2.50264,-0.60731,1.47581,-1.024,-0.120123,2.60385,-0.430224,-0.455593,-0.0612474,-0.551153,-0.537673,0.638074
0.872495,-0.616519,2.064,0.315193,-0.941253,-0.775161,0.110618,0.301557,-0.036328,0.0521173,-0.835962,0.546307
2.0078,0.309647,-1.8417,2.52289,0.0672906,1.24999,-0.243131,0.262585,0.29974,-0.282202,0.554027,0.783209
2.34665,-0.641477,2.15751,0.421038,1.13414,1.97103,-0.269533,0.118872,-0.0142937,-0.308837,0.818944,-0.483685
1.2179,0.14515,-0.157596,-0.401472,2.56342,-3.04148,0.191632,0.836112,-0.054089,0.26047,-0.866099,-0.426647
1.72672,0.309964,-1.06575,1.48268,2.14184,-2.98145,-0.205243,0.602739,0.157825,0.898872,-0.369585,0.235448
-1.13483,0.199984,-0.116511,-1.33918,3.00747,2.49002,0.4779,-0.767372,-0.0573057,-0.442983,0.69911,-0.561259
-1.79359,-0.520546,1.56603,1.26947,2.32553,1.70251,-0.0030951,-0.507648,0.0252841,-0.267915,-0.749562,-0.605291
-1.49209,-0.114063,0.594781,1.60786,-0.972691,-2.02265,0.162888,-0.677078,0.00299583,0.288692,0.928976,0.231649
0.56415,0.310021,-1.4996,-2.57585,2.09891,-2.2849,0.36026,0.357118,0.400414,0.155814,-0.570857,0.806129
-0.637734,-0.627918,1.96653,1.80242,2.353,-0.782514,0.413793,-0.170779,0.0517558,-0.102412,0.701992,0.704783
2.36961,-0.440869,1.09347,-0.489976,-3.13053,2.7956,-0.563867,0.396606,-0.0610797,0.618531,-0.616675,0.486961
2.98066,-0.718456,-0.832566,1.9035,1.62169,1.86295,-0.308708,-0.0604638,0.672246,-0.266661,0.334692,0.90381
-1.07404,-0.187011,0.746595,2.45007,2.77694,-0.0228867,0.44746,-0.596396,0.0537844,-0.129254,0.986537,-0.100191
0.153505,-0.601283,-1.91178,1.30099,-1.64369,0.0375022,0.103674,0.126489,0.526977,0.142944,-0.986386,0.0813052
-0.912879,-0.544134,2.5856,1.20213,2.22849,-1.17426,0.205836,-0.0878557,0.0537307,0.155671,0.298429,0.941651
-1.31299,-0.530835,2.77982,-3.1422,3.07414,1.33532,0.155047,-0.159917,-0.06047,-0.140747,0.595457,0.790962
-1.3977,-0.398719,1.12747,-2.19312,-2.26055,0.542265,0.241582,-0.747967,-0.0171101,-0.729276,0.334652,0.596795
-2.47113,-0.942109,0.489764,2.65681,2.47879,0.314832,-0.344681,-0.412637,0.660385,0.515747,-0.337733,-0.787363
2.83084,-2.28931,1.25078,0.655295,-2.87677,1.93287,0.00976458,-0.117777,0.659293,0.606461,-0.292147,0.739496
1.89925,0.0536824,0.0174241,-0.8141,-0.776491,2.96526,-0.387083,0.797441,-0.0312177,-0.781596,0.154686,0.604302
-1.46643,-0.108107,0.505888,-1.99191,-1.7089,1.49821,0.200107,-0.862614,-0.0147245,-0.17534,0.984418,-0.0132843
-0.0927667,0.309659,-1.34279,0.406241,0.491303,-2.31066,0.668462,0.0474318,0.219901,0.881278,-0.401426,-0.249412
2.76253,-0.533236,0.948183,1.90877,2.74338,2.71782,-0.649723,0.141313,0.211783,-0.681684,0.652016,0.331938
1.8714,0.309714,-2.50145,-1.28821,-2.06831,2.37812,-0.147234,0.106321,0.367937,-0.770649,0.341888,-0.537785
-1.78933,-1.98708,0.292661,-0.154298,1.42066,0.974959,0.134566,0.102468,0.893088,0.709256,0.634205,-0.307799
1.87232,-1.29364,-0.127761,-2.24147,2.49788,3.00745,-0.142101,0.0893684,0.9679,0.344024,0.896625,0.278766
1.02695,0.310099,-0.544606,-2.08046,-2.25853,-0.882275,0.349451,0.788869,0.114726,0.572692,-0.00172974,0.819769
1.58964,-0.60712,1.86397,2.84271,0.974664,1.46027,-0.119449,0.545453,0.0129865,-0.076608,-0.778996,-0.622331
-0.344019,-0.735059,2.25439,-3.14169,-1.28721,0.899034,0.441584,-0.0422607,-0.0126749,-0.928958,-0.301885,-0.214249
-1.47035,0.0964753,-0.477223,-0.195202,0.476223,-2.22293,0.192705,-0.82356,0.114606,-0.188044,-0.908651,-0.372817
1.13806,0.310311,-0.665228,-1.59501,-1.4733,-0.392085,0.261738,0.826893,0.130726,0.997772,-0.0332072,0.057859
1.53379,0.13807,-0.0267267,-1.19796,-0.08989,-2.11762,-0.0759774,0.897973,-0.056977,-0.00975486,0.998106,0.0607423
0.356235,0.309912,-2.1739,-0.748455,0.860442,1.98951,0.279809,0.220582,0.416762,-0.539242,-0.529551,-0.654824
-0.505166,-0.152198,2.75372,-0.660963,1.9753,2.63921,0.0488087,0.0977368,-0.0138941,0.112055,-0.982678,0.147605
2.86847,-1.67068,-1.55555,-0.147728,-1.2547,2.76814,0.408712,-0.227841,0.570988,-0.0483907,-0.905456,-0.421673
1.18568,-0.440571,1.07556,-0.820028,-2.54778,2.64066,0.168431,0.706065,-0.0553009,-0.756467,-0.559748,0.33829
-0.476221,-0.502994,1.60514,0.619813,-2.54369,-3.06643,0.455268,-0.112019,-0.0416731,0.30165,0.475999,0.826095
2.55311,0.309934,-2.9074,-0.0799719,-2.01917,0.842993,-0.153351,-0.0288829,0.247229,0.825282,0.169945,-0.538543
2.33023,-0.566788,2.59929,1.5572,-0.946285,-2.31295,-0.233945,0.0878887,0.0514782,-0.372274,-0.404235,0.835468
-3.00601,-0.594062,1.41041,-1.80046,2.27284,2.07887,-0.678483,-0.202721,-0.0111646,0.843029,0.489902,0.222032
-0.111686,0.310528,2.80203,-1.27716,-1.03923,1.77518,-0.0661114,0.117249,-0.0273385,0.931981,0.0715328,-0.355379
0.0729785,-0.0698006,0.546851,1.10597,-0.0559292,-1.4136,0.668016,0.158279,-0.0601488,-0.982424,-0.0805979,0.168367
1.10708,-1.45557,-0.454851,-1.58253,1.33112,-0.0821372,-0.148783,-0.0534816,0.970053,-0.779177,0.606444,0.158458
-1.47518,-0.486237,1.35503,0.412723,2.76504,2.27401,0.160043,-0.52544,-0.0387405,-0.183291,-0.579676,0.793965
0.0334968,0.309744,3.02335,-2.76451,-1.17909,-2.88203,-0.0349061,0.108042,-0.0454876,0.142716,0.898581,-0.41495
1.72287,-0.998455,1.61156,-2.09018,-0.0073629,-2.18443,-0.205633,0.621242,0.211866,-0.135661,0.857204,0.496786
-0.702834,0.191662,-1.76023,-1.27852,-1.64342,-0.899863,0.410526,-0.204724,0.491024,-0.260277,-0.592178,0.762614
2.1572,-0.60571,2.69223,-3.14164,-0.0926431,-3.11651,-0.222777,0.138079,-0.0567758,-0.360729,0.375847,0.853588
0.488182,-0.583388,2.69707,-3.14218,3.14152,-0.12774,0.15471,0.205746,-0.0614307,0.548437,0.291334,0.783799
-2.07587,0.073753,0.173761,3.14161,-1.69244,2.14786,-0.304803,-0.776843,0.0535083,0.542218,-0.138506,-0.828743
0.581088,0.309876,2.78603,1.51646,-0.200903,-1.47819,0.0296002,0.150022,-0.048903,0.845818,0.533392,0.00926774
-2.60005,-0.237492,0.850315,2.08522,3.00882,3.10282,-0.537854,-0.450913,0.0490236,-0.849042,-0.356361,0.390045
1.48883,0.310008,-1.3352,2.95072,-2.96589,2.44564,-0.0662479,0.526727,0.327682,-0.0629904,0.871741,0.485902
-1.6581,-2.07764,-2.72238,-2.50216,-2.18731,-1.99699,0.116701,0.0815085,0.0203654,0.279333,-0.677036,-0.680878
0.029477,-0.613438,1.94923,0.622523,-0.518174,-2.77813,0.347844,0.119454,-0.0118769,-0.649356,0.443993,-0.61742
1.99559,0.251929,-0.193568,-2.34907,-0.493506,1.40569,-0.459792,0.751637,0.0227432,0.337264,-0.55668,-0.759184
0.608851,0.309657,-0.896728,-2.87146,2.37004,-1.6282,0.513315,0.490949,0.266861,-0.200306,-0.188419,0.961444
0.566836,0.310104,-0.900483,2.40126,-0.57521,-0.128208,0.480155,0.435011,0.200329,0.351883,-0.415595,0.838725
1.34308,-1.29451,1.98336,0.29704,-1.12035,-0.835398,-0.0296141,0.355693,0.196449,0.412383,-0.895776,-0.165908
1.50189,-0.639154,2.50677,-3.14173,0.0532663,1.30925,-0.0870727,0.323658,-0.0600901,-0.0825347,-0.995956,0.0354799
0.0869772,0.309652,-1.52116,0.729326,-0.5275,1.43836,0.574896,0.159694,0.242996,-0.552851,-0.11493,0.825316
-2.59591,0.309946,-0.672273,-1.11688,-2.73058,-1.82045,-0.683403,-0.54264,0.0899074,-0.755867,-0.574427,-0.314163
-2.50996,-0.359447,-0.785088,2.81004,-0.868128,-2.88357,-0.31148,-0.363125,0.604757,0.68838,-0.410621,-0.597933
-0.0598812,-0.0326657,0.336069,-1.60879,0.823953,-0.0224666,0.895379,0.0556654,-0.0389803,-0.112283,0.741701,-0.661266
1.42309,0.310006,-1.79774,-0.509329,-1.34871,0.24318,-0.0309242,0.53383,0.389539,0.917174,-0.268754,-0.294216
0.385419,0.309719,-3.07435,-2.41096,0.405788,0.803516,-0.0823692,0.084373,0.06172,0.229624,0.388877,0.892215
-1.34539,-0.406714,1.26289,-2.32356,0.360926,3.02998,0.272122,-0.698374,-0.0487687,-0.345375,-0.0640034,0.93628
-0.0467529,-0.0609099,0.337018,0.75078,-0.877798,-2.08613,0.724927,0.0753522,-0.0408828,-0.56328,0.405919,-0.719685
2.21135,-1.00232,-0.566987,-1.42725,-1.66231,-0.620443,-0.232775,0.129644,0.933222,0.643355,0.4926,0.586038
0.271674,-0.0161072,-1.51161,1.44673,2.54408,2.13853,0.40372,0.225766,0.393551,-0.411373,-0.428628,0.804394
-1.52944,0.309782,2.84688,-1.65053,-1.47462,-1.98867,0.105671,0.0863305,-0.040609,0.36599,0.92545,-0.0979508
-0.324326,-1.91637,-0.555226,1.67058,2.9894,-2.88241,-0.328677,0.225654,0.666741,-0.50255,0.0143559,-0.864429
-2.53131,-0.240529,-2.39157,-2.5295,0.281097,1.09046,0.0747853,-0.0808929,0.340613,-0.423208,-0.452388,0.78501
-0.503751,-0.577054,1.40527,-1.47535,1.94529,0.798696,0.646889,-0.231923,-0.0434713,0.113435,0.678863,0.72545
1.17607,0.309312,2.84122,-0.636685,-2.77149,-1.34783,-0.11729,0.0022863,0.0398973,-0.210596,-0.713517,0.668239
1.30879,0.309666,-1.00269,0.446656,2.84232,1.92858,0.0835667,0.733004,0.118449,-0.0435086,-0.560841,0.82678
0.678774,0.309751,-2.11718,-0.370812,1.7333,-1.19597,0.235442,0.33015,0.394953,0.34159,0.739709,0.579781
0.881039,-0.594497,2.5424,1.89102,-0.197633,-0.610511,0.0866149,0.276522,0.0350644,0.750276,0.656687,-0.0764706
-1.3433,0.309666,2.80724,-1.23049,0.819306,-2.06233,0.088899,0.0999454,-0.0206559,-0.54755,0.836135,-0.0326547
-0.124631,0.0402197,0.239802,-2.89107,-1.11011,-1.41706,0.8565,0.00270061,0.0453003,0.537365,-0.205562,0.817914
1.13229,-0.323493,1.08789,1.20645,-2.46476,1.65982,0.155462,0.588585,-0.010356,0.350554,0.878679,-0.324091
2.69311,-1.61668,1.41785,-2.54228,0.985731,-1.07536,-0.409506,0.0759172,0.678353,-0.698782,-0.103597,0.707794
-1.36903,0.31031,2.99718,-2.29801,0.753178,1.22163,0.0944532,0.0828993,-0.0262232,0.362034,-0.602288,0.711464
2.17242,0.310235,-0.576964,2.84351,0.825287,0.943234,-0.504525,0.542051,0.142752,-0.791315,0.390391,-0.470548
-2.50659,-1.65552,0.0257185,-0.611466,-0.810141,1.81761,0.0526158,-0.0968107,0.963013,0.800916,0.370288,-0.470554
1.82174,-0.486847,2.82101,-3.14216,0.0585537,-2.3194,-0.148654,0.140339,-0.060812,-0.209508,0.977691,-0.01505
-0.838404,0.30983,-1.24652,0.763974,-1.21951,2.0193,0.518072,-0.412886,0.182334,0.297469,0.278087,0.913334
1.80064,-2.19942,2.07681,-1.50122,1.77763,3.06609,-0.15957,0.202888,0.485907,0.964923,0.159558,-0.208485
0.228127,0.309648,-1.11049,1.56213,1.23134,-0.729278,0.571985,0.24485,0.172742,-0.781861,0.540284,-0.311106
-0.240733,0.000199976,0.326522,2.4137,-2.13403,-1.25473,0.76366,-0.0750829,0.0503204,-0.571487,-0.130326,0.810196
-1.14121,0.157862,-0.117123,1.03504,-2.10294,2.80737,0.402585,-0.616713,-0.0385926,0.765468,0.283615,0.5776
-2.7608,-0.610204,2.02653,0.332351,-1.50923,-1.21974,-0.25233,-0.218588,-0.0381332,0.726948,0.660748,0.186975
-1.73983,-0.473648,1.44907,3.14162,-0.707712,0.818441,-0.00622169,-0.68528,0.011338,-0.385217,0.38355,-0.839344
1.97041,-1.15822,2.70905,2.51235,-1.76031,-2.88448,-0.199233,0.191189,0.143548,-0.996638,-0.0814796,0.00860869
-1.17405,0.309516,3.02558,-2.76637,-1.61972,-2.17225,0.088654,0.0708615,-0.0446169,0.340661,0.649453,-0.679824
-0.434243,-0.598342,1.95112,0.409121,-1.28877,-2.5449,0.357161,-0.0453228,-0.0364365,-0.205877,0.971279,-0.119294
-1.476,0.309696,-2.88564,-0.937478,0.185848,-0.68213,0.112374,-0.0287323,0.258047,0.188383,-0.465943,0.864528
1.15085,0.309775,-1.72951,-1.87539,0.430075,-3.0961,0.0835294,0.454786,0.44092,0.0116364,-0.995513,-0.0939082
2.01841,-1.32317,2.82196,1.79017,0.996858,-2.23143,-0.161713,0.0846355,0.203585,0.556983,0.0304645,0.829965
2.03844,-0.546723,1.77984,-2.85152,-0.0234447,1.50644,-0.362288,0.475255,-0.0554822,0.449312,-0.886364,-0.111706
2.90376,-0.560224,0.0651091,-1.92891,-2.17766,-0.0583442,-0.77153,0.0747197,0.572675,0.572791,0.704943,0.418289
0.26313,-0.487767,1.50355,-2.42639,0.0491738,1.5422,0.623931,0.281113,-0.0601297,-0.957593,-0.256497,0.131242
1.85176,-0.708005,2.51542,-3.1416,0.897424,-2.1042,-0.194411,0.279992,-0.0379627,0.129171,0.985896,0.106415
1.69816,0.309882,-1.43808,0.989382,-2.75275,-2.8626,-0.182683,0.56724,0.220271,-0.254441,-0.88237,-0.395832
2.54365,-0.667174,2.05713,-0.117289,3.12534,-1.98892,-0.320916,0.0865198,-0.0615198,0.824253,-0.553433,0.119662
-2.15475,-1.49405,1.25496,0.892097,-2.78344,-1.36955,-0.105303,-0.357325,0.530624,0.187774,0.411244,-0.891975
-0.585256,-0.295516,0.85613,-1.6671,2.06042,2.39647,0.74667,-0.36388,-0.0380136,-0.992726,-0.12027,-0.00543367
1.66848,-0.879062,-0.525866,3.07479,2.21665,2.84487,-0.1322,0.229877,0.812697,0.726122,0.4207,0.543837
1.08654,-0.219121,0.811076,2.22351,-1.71446,0.458019,0.233952,0.679201,0.0523338,0.79494,-0.395555,-0.460007
0.732519,-0.607067,2.1889,-3.14132,-0.016441,-2.89252,0.253682,0.374985,-0.0616908,0.180748,0.184006,0.966163
-0.0591071,0.309736,-2.28301,2.62957,2.88413,-0.145138,0.199487,0.0975361,0.245534,0.683557,0.211942,-0.698448
0.975535,0.30976,-0.975414,-2.53746,-0.482849,2.92658,0.306316,0.646984,0.296321,-0.852504,-0.449886,-0.266156
1.54348,0.037499,0.16228,-1.62247,-0.825182,-0.136945,-0.0844507,0.905408,-0.0185849,0.728501,0.0159534,-0.684859
-2.40528,0.309862,-0.496594,3.06075,2.50121,1.19656,-0.49365,-0.59473,0.123668,0.173808,-0.137256,-0.975167
-1.54009,-0.639619,2.02757,1.75237,2.45501,0.272467,0.121752,-0.408644,0.0517758,0.587368,0.762935,-0.270052
2.44554,-0.60244,1.45525,-1.11391,-0.31424,-0.911045,-0.555478,0.321898,-0.0568723,0.397107,-0.0849279,-0.913834
0.0957232,-0.00912109,0.30562,0.838326,3.12399,-0.439999,0.700618,0.176923,-0.0615396,-0.00558974,0.0154589,-0.999865
-0.995315,0.153076,-0.1739,-0.113271,0.0640941,1.24154,0.540484,-0.632588,-0.0612774,-0.225514,0.385677,0.894649
-0.0796905,0.310226,-2.79843,0.71837,-3.0155,-0.917448,0.194135,0.0939939,0.216574,0.650967,-0.128673,0.748122
1.36927,0.310014,-1.34493,2.94733,-2.20076,-2.45638,-0.00368763,0.527251,0.328476,-0.701763,-0.30925,0.64179
0.204567,0.30968,-2.58793,0.930505,1.2287,-0.715893,0.214942,0.156068,0.236819,0.427476,0.814611,-0.392013
1.66734,-0.0616521,0.459447,3.14156,0.80519,-2.40461,-0.187925,0.808126,0.0506529,0.551894,-0.160306,0.818361
-2.25011,0.310025,-0.378221,-1.59703,1.28583,2.3102,-0.47442,-0.761237,-0.0048469,-0.0297578,0.992458,0.11892
-1.36515,-1.57533,1.74567,-0.241683,-0.753212,3.05176,0.186774,-0.360858,0.353252,0.813554,-0.564067,0.141272
1.90324,-0.103448,0.35741,-0.0883676,-2.92129,0.0531116,-0.359947,0.708094,-0.0588581,-0.110257,0.987989,-0.108267
1.45852,-1.15939,2.61047,-2.23982,1.85899,-0.474686,-0.0766471,0.294396,0.0225513,-0.791091,0.594807,-0.142756
-1.59277,0.21909,-2.09429,3.14159,-0.776774,0.431699,0.104575,-0.209324,0.342637,-0.641023,-0.190992,0.743378
-2.35265,-0.188028,2.77427,-0.223134,-0.714347,-0.667204,0.0649513,-0.0894981,0.0291812,-0.35677,0.371091,0.857325
0.664248,0.143482,0.0292619,2.79532,-2.59973,-2.29153,0.555296,0.573385,0.0541947,0.126541,0.531332,0.837659
1.32064,-0.452676,1.15494,-1.86594,-1.06103,1.71734,0.0845059,0.771643,-0.0158085,-0.341392,-0.821255,0.457157
-0.347508,-0.754823,0.400742,-1.20738,-2.51101,-1.87414,0.763147,-0.160328,0.515473,0.95512,-0.158628,-0.250166
2.21722,-0.911391,0.218255,-2.81281,0.983428,-0.584903,-0.405393,0.356032,0.764126,-0.695533,-0.230477,0.680525
-1.76808,-0.980334,1.78222,0.218613,-1.5614,0.43994,0.023007,-0.441769,0.110804,-0.957469,-0.174276,0.22996
2.87451,-0.296839,2.96019,3.14152,-2.78361,1.47877,-0.126937,-0.0784295,-0.0510774,0.376875,-0.0697373,0.923635
-0.540939,-0.461692,1.48274,-2.74589,-0.314767,-2.54634,0.638237,-0.256064,-0.0414515,0.503419,-0.00336412,0.864036
0.971204,0.309778,-1.58616,2.88267,1.62875,1.45861,0.149156,0.411635,0.33833,0.468009,0.882737,-0.041739
2.41924,-0.070744,-2.34499,3.14159,-2.44218,-2.58815,-0.122983,-0.0371065,0.308775,0.264952,-0.963473,0.038985
-2.60014,-0.26688,0.978239,1.04091,-1.45835,-0.446537,-0.469902,-0.409969,-0.037762,-0.113566,0.97755,0.177481
1.72606,0.309862,-2.57898,-0.53788,3.05868,-1.82306,-0.136237,0.164562,0.349399,-0.0650836,0.549479,0.832968
2.60122,0.196396,-0.0510295,-2.01984,1.34618,1.13801,-0.823854,0.366978,-0.0222891,0.508532,-0.781895,-0.360604
1.88637,-1.41102,-2.75873,1.27268,-0.628771,-0.234239,-0.0689909,-0.140371,0.264676,0.289509,0.956544,0.0347614
0.830963,0.309818,2.93346,1.21646,3.02541,1.11527,-0.00902877,0.152013,0.0230596,-0.697504,-0.688505,0.198618
3.09809,-1.46335,-1.66001,-3.00698,1.76443,-0.626908,0.35593,-0.124746,0.425314,-0.0991975,-0.791145,-0.603531
-1.48664,0.271603,-0.316494,1.0206,3.10003,-1.53644,0.169526,-0.711163,-0.0603152,-0.0665246,0.805627,-0.588676
-1.53783,0.309673,-1.47248,2.72989,-2.31865,-1.15536,0.124444,-0.461915,0.319344,-0.325854,0.903665,-0.277863
-2.82033,-1.04412,-0.876247,-2.46523,2.59802,-2.83785,0.0442906,-0.100296,0.855474,-0.135808,0.474938,0.869477
2.10786,0.309741,-1.63404,1.7869,0.326782,1.39214,-0.328229,0.337891,0.255306,-0.196646,0.218752,0.95576
0.729893,-0.631895,2.47308,2.04814,0.989736,-3.03949,0.152675,0.283063,0.0315982,0.30772,-0.840453,0.446036
-0.556052,0.299586,-1.08019,1.62388,-1.8419,-2.73633,0.579173,-0.231424,0.176817,0.0782746,0.993844,-0.0783982
-2.06299,0.309684,-3.01605,-0.445422,1.97828,0.883991,0.0734466,-0.0940016,0.219661,0.628065,-0.0606073,-0.775797
-2.31598,-2.16153,-0.667437,2.98284,1.1335,-2.71002,0.50367,0.384938,0.469242,-0.819039,0.325721,-0.472315
-0.0742196,-0.00943479,0.256261,-1.68661,-1.60013,-0.167633,0.9048,0.0421738,-0.0150332,0.0956504,-0.995391,0.00687081
0.248496,-0.545863,1.6924,0.803398,1.81694,-2.69707,0.396519,0.213222,-0.0126421,-0.0929471,-0.926938,0.36352
-0.105182,-0.655341,1.70163,-2.07075,-0.383898,-0.0317459,0.622329,0.0440566,-0.0405287,-0.491168,-0.324576,-0.808334
-0.10667,-0.256486,0.861614,0.582142,3.1227,-2.06054,0.653871,0.0397598,-0.0615809,-0.989627,0.0970263,0.105942
2.74783,-0.731719,1.5359,0.955249,-0.588349,0.558517,-0.499313,0.0892516,0.108347,-0.422279,0.6851,0.593565
0.343882,-0.0498644,-2.85074,-0.99325,1.94145,0.714699,-0.0566794,0.0956403,0.273067,-0.00380721,0.746417,-0.665467
-1.39594,0.025078,2.88667,2.10087,1.45343,-0.161111,0.130684,-0.112326,-0.0388552,0.986024,0.0532925,-0.157847
2.73041,-1.36082,3.05526,0.376019,-3.05276,-0.393379,-0.00433087,-0.117187,0.160919,0.745206,-0.235557,-0.623844
-0.0877267,0.310401,3.11656,-1.95236,-3.07316,2.83306,-0.0560925,0.114505,0.0606793,0.215859,0.0464144,0.975321
-1.40462,0.243448,-0.267456,-0.903461,0.0678119,0.955084,0.253269,-0.850152,-0.0606482,-0.126627,0.991536,0.028674
-0.00908691,0.309683,-2.52787,1.48831,-0.459894,-0.24836,0.232306,0.107044,0.20198,-0.487317,-0.425824,-0.762363
2.90298,-0.506931,-2.90003,2.19895,2.18139,-0.0316386,-0.105009,-0.0867899,0.159032,-0.419889,-0.740642,0.52454
-0.210335,0.310136,-2.27194,-0.57131,-2.64069,-1.28506,0.325307,0.0421591,0.399761,0.309711,-0.204527,0.928573
2.3653,0.309842,-1.72437,1.74591,-0.401243,-0.320872,-0.386864,0.226907,0.257543,0.922302,-0.386215,-0.0140173
-0.573021,0.309849,-2.58753,1.20473,0.0593822,2.57363,0.255102,-0.0347028,0.212635,-0.086591,-0.0036683,0.996237
1.13798,-2.01216,-0.381407,-1.83521,-1.87801,1.55643,-0.330978,-0.456116,0.784246,0.382875,0.796025,-0.468777
-1.54327,0.31045,2.80754,-1.42029,-1.37909,3.04645,0.10687,0.0843198,-0.0379503,0.978803,-0.0433051,-0.200172
-1.8907,-0.633459,-0.555785,1.37326,3.08446,-0.286752,-0.0445934,-0.481698,0.611722,-0.227786,-0.861769,-0.453286
0.062348,-1.83481,-2.59444,-0.561384,2.80973,2.10359,-0.317696,0.0895291,0.096803,0.705317,-0.12178,0.698353
0.126865,-0.621242,1.87702,1.32764,-2.02785,-2.60099,0.399832,0.161033,0.0438652,-0.0493693,0.769329,0.636942
0.834819,-0.559365,2.50965,-0.0542118,2.27273,3.07955,0.0031701,0.166092,-0.0194104,0.742566,-0.315436,0.590843
-0.91944,-2.05028,-1.86912,-1.67256,1.54109,1.28999,-0.23807,0.492322,0.118059,0.587794,-0.314122,0.745537
-2.34853,-0.843441,-2.19994,1.40517,-1.92219,0.389843,0.087133,-0.0670792,0.451444,-0.337668,0.894811,0.292051
-1.43251,-1.83516,1.70336,0.864635,2.9721,-1.42584,0.137674,-0.197387,0.480592,-0.0525295,0.554188,-0.830733
-1.06024,-0.241239,0.915798,1.09193,-1.22952,-0.0991851,0.401228,-0.492995,-0.0358825,-0.833931,-0.429977,0.345947
-0.083551,0.309684,-2.45807,0.012165,-1.84725,0.282152,0.278695,0.0861925,0.338967,-0.451345,-0.889426,0.0721777
2.01064,0.309974,-1.87889,-0.588883,2.82579,2.30718,-0.304971,0.391719,0.404192,0.300842,-0.149413,-0.941897
-0.773375,-0.398153,-0.297322,-2.53348,1.86673,-1.36992,0.566151,-0.40016,0.599562,0.0306669,0.236788,0.971077
1.76282,-0.308914,0.892833,0.246298,3.11921,-2.99079,-0.233536,0.629278,-0.0617392,0.170157,-0.759254,0.628156
-0.388128,0.309912,-0.680191,2.22684,1.46598,0.947903,0.670366,-0.156171,0.128172,0.956795,0.235605,-0.17039
0.859448,-1.2683,-2.64266,-1.24467,2.82237,2.82898,-0.2398,-0.111041,0.181386,0.154607,-0.278013,0.948054
0.0902515,0.309671,-1.00949,3.06398,-2.21259,1.19419,0.626011,0.166248,0.27974,0.519918,-0.248741,-0.817199
-0.202847,-0.540025,1.66239,3.14162,1.11466,2.53617,0.629154,-0.017967,-0.00475883,-0.80485,-0.588107,0.0796656
1.24999,0.310153,-1.02853,0.388871,-0.944161,-2.98769,0.126822,0.727805,0.128053,-0.571049,0.819817,0.0424604
0.312148,-0.360613,-0.157222,2.58178,-0.0456401,-2.73571,0.589937,0.305064,0.47809,-0.757338,-0.200345,-0.621531
-1.03485,-0.580118,1.63121,-2.62495,-1.56676,-0.0162335,0.423178,-0.498754,-0.0180585,-0.851369,-0.524552,-0.00398252
0.242279,-0.689895,2.25378,-3.14164,-2.65672,-0.383637,0.38656,0.207966,-0.0319295,0.461512,-0.331166,0.823004
1.66603,-0.206801,0.780068,3.14171,2.75202,-1.00822,-0.184424,0.782843,0.0431882,-0.205875,0.0249175,0.978261
1.67955,-0.533973,1.64112,3.14162,-0.706809,1.93884,-0.176444,0.61037,-0.00304553,-0.128408,-0.976599,-0.172529
0.436256,-0.642707,2.08172,-3.14168,-0.462122,1.74387,0.393973,0.304105,-0.0325144,-0.935862,-0.351596,0.0232869
1.2014,0.258878,-0.405081,0.364684,-1.08858,0.0118618,0.179255,0.765291,-0.054895,0.663631,-0.739615,0.112087
2.53788,-0.529575,1.28824,-0.573578,-2.61301,-2.55034,-0.583929,0.270091,-0.0590291,0.426878,-0.802975,-0.415941
1.67682,-0.588939,2.69975,-3.14159,0.0737942,2.22684,-0.133185,0.220047,-0.0598595,0.0835461,-0.360059,0.929181
2.60441,-1.89958,1.68567,3.08903,0.93567,-2.3203,-0.24586,0.0193934,0.665971,0.781258,0.173008,0.599753
-2.35361,-1.18618,2.46612,3.14158,2.25984,1.19666,-0.17837,-0.334055,0.134478,0.875895,0.48046,-0.0443364
-0.558938,-0.172309,0.492793,-0.299308,1.01377,0.157897,0.726793,-0.325846,-0.0561692,0.00480653,0.985731,0.168262
-0.338331,-0.346061,1.17161,-2.57505,1.49547,-1.90985,0.752156,-0.148944,-0.0381307,0.761161,-0.619408,0.192268
0.231311,-0.486228,1.54332,-2.54616,-3.12559,-2.42878,0.620154,0.258199,-0.0615918,0.571529,0.147049,-0.807299
0.046972,0.309734,-1.29875,-0.0761623,2.11916,0.339826,0.697228,0.142045,0.241493,-0.0912884,0.801172,0.591431
0.0668504,0.309829,2.83949,0.304761,-2.11018,0.645295,0.034239,0.111687,0.0526741,-0.528279,-0.722399,-0.446163
-1.22354,-0.608977,1.47845,-1.30948,-0.313589,-0.0892552,0.321121,-0.566541,-0.0530372,-0.567706,0.665772,-0.484207
-1.6407,0.30967,-2.93232,-2.00028,-3.05839,-2.0995,0.110985,0.022397,0.162642,0.0987511,0.81018,0.577804
-1.27265,-0.0160249,0.210177,-1.40136,-1.21093,1.56216,0.368207,-0.826595,-0.0133701,-0.282581,0.892018,0.352777
-2.11681,-0.881522,1.93133,3.14159,-0.294262,2.89822,-0.19109,-0.524678,0.124037,0.589163,0.42754,0.685636
2.3879,-0.304994,1.01202,-3.07833,0.731253,-1.58465,-0.635807,0.44702,0.0299178,-0.495977,0.478162,0.724823
-0.880357,0.309731,-2.87853,0.0165179,2.19545,0.00974493,0.165505,-0.0289682,0.250896,0.312286,0.895566,0.31692
1.63607,0.31022,-0.752157,0.43987,2.89836,0.416251,-0.158458,0.750736,0.032532,-0.277657,0.870594,0.406168
-1.60036,-1.98217,-0.288275,0.169389,0.144376,-3.03108,0.119178,0.337503,0.826671,-0.131044,0.406344,0.904274
0.000827364,0.309723,-2.43367,-0.599918,2.65663,1.60602,0.237008,0.109346,0.379887,-0.376942,-0.0167279,-0.926086
-0.20368,0.309664,-2.39027,-2.80238,-0.820233,-0.627155,0.139684,0.0826031,0.285948,-0.777962,-0.443953,0.444613
-2.19354,0.309854,2.77928,-1.52273,0.0151435,2.08441,0.136254,0.00261824,-0.0614151,-0.515304,-0.704884,-0.487444
-2.4297,-1.17768,2.39742,-1.39823,1.47796,-1.21792,-0.166811,-0.288092,0.0202668,0.12253,-0.348772,-0.929163
-1.50834,-0.0158864,0.360459,-2.93021,1.89535,-0.486966,0.161622,-0.835633,0.0438063,0.83646,0.0447096,0.546201
-2.05771,-0.355745,1.16589,-2.79289,-0.468007,-1.41951,-0.257047,-0.7188,-0.00906316,-0.509143,-0.816384,0.272563
2.46788,-1.09386,1.35828,-1.41445,0.916159,-1.15501,-0.583983,0.326534,0.325553,-0.773959,0.20787,-0.598145
1.12757,-0.369188,0.561481,1.42482,-0.779303,2.9642,0.195952,0.667278,0.171943,-0.563217,0.426622,-0.707658
0.891085,0.309769,-1.65959,2.79621,-1.74654,2.42285,0.164541,0.377242,0.33057,-0.175936,0.961242,0.212276
2.04184,0.310187,-0.430745,2.04686,0.302552,-2.56927,-0.41738,0.579034,0.0395516,0.580364,-0.587646,-0.563782
0.221148,-0.734221,1.88047,-0.33033,-0.560484,-1.93078,0.374251,0.196015,-0.0483692,-0.506682,0.0780209,-0.858596
-0.218352,-1.66982,2.66662,1.83817,-1.59354,-2.74258,0.162665,0.0757111,0.272925,0.104574,0.920407,0.376717
-0.816124,-0.31145,1.09693,0.891356,-0.159246,-0.687057,0.482171,-0.353419,-0.0479713,-0.466028,0.316625,0.826176
0.383841,-0.360042,1.16692,-2.87727,-0.424266,0.908259,0.656564,0.382884,0.000979722,-0.297868,-0.393387,-0.869782
0.495433,-1.88255,-1.60569,0.8804,-0.695778,1.1881,-0.448773,-0.118444,0.441889,-0.08433,-0.317643,-0.944453
-0.0895389,-2.2736,0.777714,-2.45862,1.19615,-2.31207,-0.303072,0.136798,0.869659,-0.758934,-0.562782,0.32756
0.751682,-0.571848,1.86566,0.374511,-0.343789,2.73966,0.196091,0.332704,-0.0489196,0.0109708,0.434865,-0.900429
2.47396,0.0270714,0.270949,-2.71002,0.483588,-0.553575,-0.745202,0.448525,0.0330358,-0.960933,0.253944,-0.110091
1.08277,-0.248679,0.875503,2.03607,-1.67947,1.44383,0.225253,0.657102,0.0476883,0.319711,0.333787,-0.886776
1.60531,-0.627898,2.06254,-3.14159,0.873852,2.45249,-0.126027,0.486893,-0.0369499,0.615543,-0.676362,0.404526
0.409891,0.309774,-2.09087,-2.55427,-0.570149,-0.301676,0.17193,0.193712,0.378054,0.223423,-0.464852,0.856735
-0.581408,-1.56016,-1.56351,1.50672,2.12473,0.887301,-0.18501,0.252196,0.525533,-0.365126,0.882624,0.296071
2.34035,-1.12179,0.49575,3.08197,-0.48545,1.69994,-0.386227,0.2418,0.775128,-0.418724,0.345848,-0.839678
-1.44079,-0.646225,2.14137,-3.1416,1.7198,-1.5607,0.168293,-0.44527,-0.0388901,0.139148,-0.987268,0.0770749
0.385082,-0.593381,1.52703,-0.0976569,-0.390821,-1.68425,0.436722,0.294786,-0.0519416,-0.634372,-0.210589,-0.743791
-2.51042,0.310104,-1.01979,-3.03811,-2.7046,1.80678,-0.459026,-0.470708,0.29284,-0.529387,-0.509499,-0.678351
1.33901,-0.141319,-2.55526,-2.01727,-2.8295,-1.06047,-0.112648,-0.00211356,0.317733,-0.0543125,-0.883042,-0.46614
2.29077,0.310156,-0.975353,-1.46001,-1.1462,-0.393165,-0.605473,0.52484,0.251376,0.285938,0.950471,-0.121838
-0.665253,0.0260951,0.322212,-2.08394,0.652781,2.55618,0.765166,-0.461583,-0.0402769,-0.826797,0.00519858,0.562477
0.714024,-0.0548856,-0.959634,-2.39026,-1.73954,2.50091,0.38714,0.479905,0.536974,-0.301783,0.784232,-0.542133
-1.35965,-0.57712,1.91813,-2.92105,0.0488637,1.50692,0.219933,-0.505283,-0.0600199,-0.205975,0.975832,-0.0729828
-1.51428,-0.71376,1.73369,-1.03489,-1.25363,3.00763,0.1388,-0.520982,-0.0614658,0.957452,-0.253367,0.138173
0.930005,-1.15139,1.15023,-0.711795,-2.61605,2.69339,0.287478,0.568052,0.40618,-0.884438,-0.429652,-0.182119
2.09629,0.310639,2.84121,0.586601,2.40125,-3.04127,-0.127344,0.00201884,0.0415601,0.247599,0.910929,-0.330005
2.3158,0.309858,2.78174,-1.46821,0.107336,-2.89676,-0.0249662,-0.133924,-0.0550597,0.274889,-0.144741,-0.950519
-0.0857599,-0.591017,-2.95431,1.98264,-2.30867,-1.19723,0.0958725,0.10131,0.171107,0.906435,-0.348942,0.237938
-0.486369,-0.619023,2.21884,-3.1416,0.0786213,-1.03902,0.430595,-0.104202,-0.05907,0.767285,-0.360639,-0.530296
-1.78142,-1.34057,-0.765198,1.42186,-1.11141,-0.841849,0.115768,0.0194158,0.767027,-0.634502,-0.112168,-0.764739
0.865218,0.309756,-1.23458,-2.62813,1.53016,-0.109216,0.307974,0.529846,0.35958,-0.760338,0.639076,0.116053
0.382239,-0.629215,2.31638,-3.14181,-3.13892,3.09176,0.323069,0.247517,-0.0612907,-0.154297,-0.0591549,-0.986252
-1.05625,0.309835,2.79646,-1.3378,-2.70285,-2.44399,0.0556215,0.123401,-0.0356746,0.040486,0.589905,0.806457
-0.336336,-0.635697,2.11654,2.89141,-0.925443,-1.07147,0.476331,-0.0509057,-0.0175898,0.745691,-0.665949,0.0213719
0.0540327,-0.606896,2.02192,0.308978,0.31376,2.17437,0.310063,0.126079,-0.0415112,0.739678,-0.135429,-0.659193
0.524501,0.0465628,-2.74715,1.75415,2.98246,0.242532,0.0722433,0.167898,0.181479,0.239293,0.316152,0.918034
-0.677906,0.309945,2.80304,-1.2727,-0.35941,-2.16876,0.00725426,0.134295,-0.0264903,-0.605601,0.741851,-0.287933
1.3395,-1.15902,1.78883,-1.04565,2.57369,-0.138837,0.0141813,0.536362,0.161018,-0.330608,0.919953,0.210677
2.57358,-1.42124,2.80121,2.5115,-0.627577,-1.17241,-0.229193,0.0167818,0.193546,-0.600697,0.653569,0.460446
-0.28275,0.309639,-2.48933,0.873063,-0.558305,0.944731,0.291464,0.028983,0.256697,-0.962386,-0.0436415,-0.268156
-0.781187,-0.680322,2.0745,-3.14164,-2.03194,-0.300981,0.426553,-0.26926,-0.0130115,-0.448027,-0.760224,0.470459
-2.29219,0.309775,-2.35109,3.14159,-3.04613,0.626815,-0.0122053,-0.179147,0.266316,-0.644646,-0.616044,-0.452683
0.35415,0.309709,-0.328246,2.88416,1.99392,-0.955053,0.685462,0.369814,0.0579665,-0.605283,0.337679,0.720837
0.894312,-0.308366,0.983229,-1.99826,-0.183818,-0.876433,0.417601,0.694486,-0.0501052,0.461204,0.387624,-0.798147
0.806958,-0.567751,-0.941786,-2.5223,-1.6216,-2.64269,0.134751,0.29849,0.768767,-0.871158,0.358302,0.335713
-2.14743,-0.91528,2.6862,1.34463,-1.49838,1.17548,-0.00588723,-0.209253,0.136267,-0.350277,0.165912,-0.921835
-1.84988,0.310168,-0.919912,-0.321506,-2.82343,-0.226571,-0.116063,-0.801257,0.127576,-0.494849,-0.620316,0.608549
2.16007,-0.0919499,0.583069,1.20881,-2.65716,0.46052,-0.466004,0.50069,-0.0446189,0.158634,0.513369,-0.843379
0.779959,0.310027,-1.1865,0.401385,-2.26422,1.1343,0.420204,0.569186,0.176768,0.104785,-0.353678,0.92948
-1.84045,-1.46551,1.31488,-1.50225,0.93472,-1.08819,-0.035135,-0.536843,0.57843,0.118631,-0.972148,-0.202125
0.00613321,-1.13163,2.9046,-1.67998,-0.897924,1.211,0.0924816,0.109719,-0.00467253,-0.129887,-0.276144,0.952299
-0.347324,0.129193,0.0527066,2.36907,2.45499,-1.83063,0.746626,-0.154196,0.0420629,-0.406299,-0.0261282,0.913366
-2.22732,0.309792,-2.56962,-1.10572,1.13334,-1.27205,0.00445057,-0.17305,0.354642,0.266532,-0.0908962,0.95953
1.71927,0.213555,-0.309852,0.0143902,-0.952816,1.69488,-0.228293,0.788425,-0.0575322,-0.0983235,-0.0245357,0.994852
2.78649,-1.42555,1.69306,0.133427,-1.91009,-0.969464,-0.415686,0.0377342,0.318856,0.324688,0.448585,-0.832676
1.0922,0.310635,3.03337,-3.09548,-1.53416,-2.25523,-0.0982051,0.0477251,-0.0536334,-0.638252,0.141729,-0.756668
-1.01237,-0.815287,-2.45038,3.08286,1.98709,0.806516,0.0498509,0.126208,0.256909,0.613033,0.213282,0.760724
-0.4321,-0.00107341,-1.45497,-3.14168,1.00516,-1.94606,0.387047,-0.0582951,0.490114,-0.98934,0.115497,-0.088697
0.705411,0.309737,-1.83402,-1.92259,-1.44364,1.77621,0.229632,0.338915,0.441715,0.0740603,0.328816,-0.941485
0.12921,0.309688,-0.55214,1.55457,1.84911,-2.18739,0.674209,0.19767,0.0295967,-0.750793,-0.658235,-0.055116
-1.7653,0.309716,-0.813821,2.06102,-2.29474,2.48941,-0.0192331,-0.662367,0.147777,0.468329,-0.703336,0.534777
0.377111,0.310123,-0.955338,1.6713,-2.10718,-2.67806,0.552205,0.336109,0.146302,-0.858872,0.486796,0.159274
0.298698,-0.650042,2.38565,0.485227,-1.05325,-1.20672,0.157706,0.162766,0.0167272,-0.517975,-0.483275,0.705796
-2.44153,-0.389997,0.97189,-0.846767,-3.07587,-0.491357,-0.499881,-0.563819,-0.0561946,-0.781167,-0.582349,-0.22505
-0.975053,0.309756,-2.2888,0.778455,-1.64657,-0.824803,0.279608,-0.217937,0.285377,-0.16556,-0.961844,-0.21782
2.05366,-0.611538,0.504212,0.411378,2.43413,0.550635,-0.426167,0.577817,0.284872,-0.850196,0.428889,0.305321
2.21484,-0.541188,1.76818,-2.79289,-0.0124031,2.99492,-0.442217,0.407176,-0.0616601,0.0750292,-0.120362,0.989891
0.141855,0.309777,-0.613511,0.853968,2.73406,0.869815,0.706815,0.2112,-0.00376431,0.859117,0.380917,0.341789
0.168275,-0.53509,1.70206,-2.91893,-0.386757,1.33649,0.585889,0.210245,-0.0377716,-0.890386,-0.240084,-0.386745
0.663714,-0.64857,2.04729,1.8361,0.83124,0.393634,0.259405,0.34144,0.0536612,0.0397206,0.897206,-0.439823
-0.272912,0.310015,-2.63609,-2.2598,-1.63632,-2.77216,0.0698279,0.0938004,0.257034,-0.0867153,0.990563,0.106134
-0.0856094,0.113634,0.0904087,-3.14158,0.0458529,-2.3782,0.831861,0.0381616,0.0541731,-0.567418,0.0154567,0.823285
0.761792,-1.22765,-0.317191,1.75678,2.26195,1.73361,0.0210931,0.170963,0.788967,0.163315,-0.0168218,0.986431
0.239046,-0.553566,1.61187,-2.54689,1.18043,-0.099327,0.603924,0.259525,-0.0370348,-0.152073,0.910084,-0.385514
-1.49318,0.0953161,0.132063,3.05631,0.498043,1.55265,0.172296,-0.807701,0.0539842,-0.00111512,0.126108,-0.992016
2.12257,-1.48308,1.61024,-2.57662,-2.39584,2.5498,-0.348088,0.357273,0.53565,-0.538986,-0.198657,-0.818553
-1.09865,-0.617955,1.86398,2.47663,-1.86028,1.08924,0.335306,-0.416603,0.042762,-0.666841,0.329806,-0.668245
-2.77819,-0.621227,2.25841,-3.1417,3.1416,2.51266,-0.348182,-0.249187,-0.0611317,0.598719,0.227681,-0.767917
3.01745,-2.19892,2.99206,-1.96061,-0.516167,1.49063,-0.125168,-0.0943778,0.116388,0.941768,-0.0776842,0.327168
1.2979,0.310579,3.01793,2.78115,0.159057,-2.02057,-0.0955182,0.0636922,-0.0610604,0.222182,0.538352,-0.812904
1.17025,-0.231991,0.76857,3.12605,1.91855,2.57103,0.210591,0.777262,0.0684456,0.720749,-0.327033,-0.611204
2.47162,-0.658858,1.65071,0.761298,0.172176,2.47369,-0.426445,0.198586,0.0381847,-0.283927,0.39654,-0.873007
-2.46077,0.222347,-1.69058,3.08563,2.74879,1.23734,-0.211154,-0.311506,0.390036,-0.643652,-0.682605,-0.346068
-0.516172,-2.2081,-2.68082,1.26709,-1.98325,-3.04881,-0.14419,0.207327,0.128522,0.720862,0.639767,0.266564
-0.910121,0.309865,2.80238,-1.27985,-1.6739,0.801222,0.0378566,0.12916,-0.027469,-0.132127,-0.957891,-0.254924
2.79392,-0.769736,2.34058,-0.0542203,1.9455,0.838959,-0.235244,-0.0308454,-0.0124388,-0.922738,-0.327053,-0.203937
-1.92374,-0.0628865,2.79839,0.226327,0.434305,1.18685,0.0862143,-0.0817267,0.0540459,-0.0249706,-0.523765,-0.851497
1.23597,0.310167,2.79605,-1.35623,-1.38668,2.45488,-0.129515,-0.0400857,-0.0375596,-0.521337,0.815196,-0.252314
1.48028,-0.0639308,0.472139,2.89195,-0.667238,-0.1,-0.036474,0.805692,0.0540642,0.684394,0.72869,-0.0248322
2.41848,0.310075,-1.3687,2.58612,2.98671,-1.43749,-0.448902,0.250613,0.2973,0.724574,-0.666845,-0.174099
0.576416,-1.70697,1.6822,-2.02958,3.09584,-2.8574,0.291166,0.31946,0.563945,0.60583,0.34146,-0.718592
0.148589,-0.0392411,0.386393,1.12787,-2.18909,-2.55884,0.675442,0.211475,-0.0366706,-0.688265,0.584925,0.429132
1.95298,0.309855,2.90381,-1.64792,1.86825,2.88225,-0.0710214,-0.115975,-0.0126646,0.762334,0.581262,0.284572
-1.35155,0.309798,-2.4742,-3.1417,0.94628,-2.54204,0.129789,-0.0806097,0.231786,-0.69671,0.0472512,-0.715795
1.17538,0.310158,2.91693,1.81918,-2.7445,0.974301,-0.0609263,0.137398,-0.0380787,-0.0352009,-0.648327,0.760548
1.67629,0.309911,2.99482,-1.71421,1.68175,-0.439529,-0.100444,-0.0879852,0.0251214,-0.849385,-0.519731,-0.091786
-1.28652,0.309733,2.81093,-1.19279,2.17237,0.33964,0.0834356,0.103627,-0.0155083,0.781383,0.0974377,-0.616398
-1.2787,0.183088,-0.159263,1.37769,1.4859,1.31614,0.310919,-0.654948,-0.0135105,0.514024,-0.837787,0.184098
0.792134,-0.0915433,2.77299,-0.67894,-0.0337191,-1.66015,-0.0876695,0.0665531,-0.00657562,-0.663695,-0.668413,0.335757
0.0118276,-0.597734,2.04671,-3.01103,-0.0114784,0.757403,0.492298,0.114981,-0.0618336,-0.693213,-0.0165403,-0.720543
1.4392,-0.244749,-0.881133,-1.93191,0.000327902,-1.8897,-0.0309075,0.598303,0.640523,-0.0304642,-0.230936,0.972492
-1.03008,-0.777897,-1.26168,-2.17812,-1.62781,3.05661,0.115324,0.0199663,0.782287,0.905189,0.424899,0.00967443
-0.629146,-0.600491,2.07168,-3.03549,-3.1247,1.46414,0.455804,-0.196739,-0.0616162,-0.804418,0.583237,0.112897
1.13993,-0.314162,0.82498,-1.15405,0.822869,2.46231,0.236262,0.77533,-0.0470101,0.537702,-0.195878,0.820066
2.53233,-1.02791,-1.04374,2.59521,-1.66103,-2.32071,-0.0492489,-0.0987313,0.715153,-0.0448103,-0.796463,-0.603025
1.7867,-0.590316,1.63825,-2.32252,0.680193,-0.694735,-0.243612,0.601247,-0.0417479,-0.565776,0.324285,-0.758114
-0.559016,-0.634274,2.51172,-3.14212,-0.0165756,-2.95954,0.324243,-0.0740912,-0.0614642,0.406229,-0.234901,0.883063
0.552272,-1.60124,-2.52454,-0.356157,1.46298,-0.840004,-0.33157,-0.0761148,0.208907,-0.951348,0.193209,0.240017
-1.23347,-0.658912,2.19714,1.59855,-2.82872,-1.04456,0.218288,-0.292591,0.0519752,-0.305426,0.403718,0.862396
-1.26934,-0.637041,2.4462,-3.14179,-3.12722,-0.464706,0.205474,-0.293217,-0.0615318,0.179652,-0.621057,0.762898
-0.851694,-0.586143,1.92262,0.351542,0.236307,-0.820991,0.313418,-0.192293,-0.0462125,-0.307664,0.593636,0.743598
-0.349624,-1.07421,-0.0944758,0.328442,-1.59626,1.56296,0.438077,-0.0435455,0.760629,-0.70228,0.247718,0.667412
-1.5394,-0.607983,2.09402,-3.13748,-2.98513,-0.493095,0.124052,-0.472729,-0.0512921,-0.124579,-0.405828,0.905419
1.43123,-0.969403,2.67039,0.121121,-1.12963,1.34814,-0.0944745,0.112096,0.0741979,0.332416,0.930933,-0.151204
-1.18228,-1.43443,-2.48221,2.63062,0.403919,-0.77548,0.0511615,0.163145,0.209146,0.444369,-0.344755,-0.82685
0.782092,-0.604112,1.97973,3.1394,2.19482,-0.979144,0.291036,0.442972,-0.0356696,0.213091,0.849681,0.482323
0.725533,0.132319,-0.167701,-0.23651,-1.27505,-2.78668,0.555051,0.638172,-0.0442101,-0.328396,0.907663,-0.261352
-0.514378,-1.44571,-2.44905,2.71139,-1.84045,-1.43495,-0.0729694,0.16661,0.206799,0.746292,-0.571686,-0.340917
-0.359962,0.310046,-1.37407,-2.91367,2.65157,-2.50953,0.529692,-0.0827306,0.365889,-0.097432,-0.369055,0.924286
-1.51479,0.309909,-1.04739,-1.08129,-1.55663,0.237515,0.153022,-0.779494,0.246538,-0.982883,0.169963,-0.0710927
1.68457,-0.541321,1.6675,3.14162,1.84043,0.879421,-0.178653,0.602008,-0.00525708,-0.523334,-0.833329,-0.178001
-1.71973,-1.73945,-2.8591,-2.09898,-1.77241,2.3243,0.119485,0.0607337,0.0317773,0.725096,0.314916,0.612424
2.25635,0.282133,-0.8701,-3.14169,-1.26835,2.77644,-0.516308,0.458867,0.267157,-0.669078,-0.590365,-0.451447
1.64971,0.146415,0.0169474,2.56081,1.42769,2.26477,-0.169438,0.758112,0.0498837,0.613097,0.27744,-0.739688
-0.721298,-2.13825,-2.31321,-2.24354,0.792187,1.15082,-0.147001,0.274618,-0.0181603,-0.279842,0.632618,0.722137
0.881149,-2.05597,1.75202,-0.885454,2.05929,1.21158,0.0837133,0.27305,0.547277,-0.753267,-0.425449,0.501579
0.343319,0.309675,-1.66941,0.224655,2.66864,2.79604,0.502599,0.295581,0.303238,-0.477765,-0.625943,-0.616389
-1.36234,-0.625375,1.92256,0.965286,-1.48193,-1.98596,0.184942,-0.346895,0.0206662,0.242484,0.794975,0.556073
-1.33401,0.309476,2.82985,0.0789061,0.709793,-0.0240039,0.110751,0.00634954,0.0532057,0.811098,-0.583914,-0.0341288
-0.970545,0.309792,-1.35599,-1.00066,-1.7055,0.719267,0.477194,-0.5039,0.342472,-0.972074,0.100337,-0.212141
-1.26463,-0.413976,2.87338,-3.14153,0.0791941,-2.60142,0.14757,-0.104699,-0.0606646,0.233054,-0.962364,0.139788
-0.969188,0.281148,-0.228792,-1.97364,-0.62635,-1.35258,0.593089,-0.671075,-0.0167902,0.448416,-0.877417,0.170478
0.984846,0.311046,2.84202,0.484052,0.294726,-0.667953,-0.0592075,0.108174,0.0468527,0.338314,0.922131,0.187667
1.80805,0.309979,-1.57301,-2.34871,2.07517,-0.643983,-0.219072,0.44157,0.417718,-0.535612,-0.763806,0.360167
-1.28649,0.30993,-2.13883,-1.11412,-1.08926,-1.84281,0.195453,-0.279708,0.431585,0.247643,0.00148914,0.96885
1.91989,0.309799,-2.45518,-0.356536,-1.55461,0.578739,-0.187423,0.195788,0.364789,0.894516,-0.0102865,-0.446917
-2.1536,0.309917,2.79663,-1.33594,-2.60496,0.157309,0.135174,0.00674062,-0.0354133,-0.413354,0.290369,-0.863032
-0.483373,0.31019,-0.898726,2.58341,1.84148,1.59961,0.621574,-0.202994,0.216134,0.796571,-0.449473,-0.404287
-2.62019,0.309592,2.99352,-2.59031,-0.608949,1.89592,0.0927344,-0.0726073,-0.0488494,-0.618223,-0.565832,0.545559
0.822445,0.310012,-1.29909,1.71901,1.35687,2.38952,0.299117,0.482556,0.216702,0.911535,-0.0670826,0.405714
0.701169,0.309978,-1.75193,2.31726,0.593763,2.11783,0.221832,0.33014,0.287869,0.899835,0.378851,0.216262
2.09626,-0.630248,-1.41027,-0.681211,-1.51437,1.93042,-0.196946,0.12206,0.775827,-0.103476,-0.522008,-0.846641
0.241687,-0.0658814,0.346017,0.652827,-0.546702,-1.28933,0.677801,0.279499,-0.0476733,-0.851964,-0.35874,-0.381395
0.613746,-0.626154,2.46651,1.16679,-0.0254323,2.52233,0.122894,0.220097,0.0539333,-0.607794,-0.402866,-0.684313
-1.30101,-0.0575595,-1.15168,-2.69926,-2.78211,0.911436,0.237764,-0.450286,0.548652,-0.171593,-0.188075,-0.967049
-0.874394,-1.17894,0.290935,1.68436,2.49607,-0.666657,0.30321,-0.192465,0.720067,0.360786,0.305593,-0.881162
-2.39588,0.0774352,-2.7787,-0.210929,0.635485,-2.51992,0.00763867,-0.141528,0.315643,0.0433278,0.696854,0.715903
1.30549,-0.497438,2.55666,2.45917,-0.306755,2.73986,-0.0313094,0.301052,-0.0361799,-0.413154,-0.460611,0.785583
0.422647,0.0920855,-0.0245359,0.613918,-0.560282,2.27288,0.643732,0.4092,-0.0499081,0.685354,0.68455,0.248356
2.06673,-0.681219,2.43231,-3.14159,2.68431,-2.55569,-0.263938,0.258464,-0.0460658,0.128485,0.535598,-0.834642
1.29978,0.0903675,0.193407,1.36345,-2.88213,-0.84333,0.083691,0.708926,-0.0517903,-0.0481183,-0.810458,-0.583817
0.105567,-0.844752,1.75863,2.55169,1.48472,-2.57167,0.537262,0.16669,0.18609,0.190964,-0.823288,0.534537
2.34892,-1.71995,1.89328,-2.65823,-1.16165,-1.11839,-0.345181,0.194746,0.516754,-0.196464,0.770688,0.60617
-2.09303,-0.587455,2.41486,-0.0714962,-0.851125,-1.55102,0.0142101,-0.194128,-0.0372727,0.47611,0.857075,0.196832
2.12647,0.310161,-0.885316,-1.13623,1.96996,-1.08075,-0.529286,0.645488,0.186077,-0.815736,0.491633,0.304749
-0.964922,-0.31145,1.05449,-2.15107,-0.0134194,-0.833556,0.537795,-0.584603,-0.0613126,0.346581,-0.516105,-0.783273
-2.81387,-0.448144,-1.7104,-2.75892,-2.19556,-2.93411,-0.0338557,-0.126796,0.580461,0.556789,-0.649023,0.518417
0.520377,0.309936,-1.63284,-0.16905,0.102605,2.25873,0.462274,0.390714,0.33234,-0.592716,-0.414619,0.690492
-1.74651,-0.568955,-0.641546,0.642429,1.50031,2.13396,0.0118012,-0.557912,0.605409,-0.450353,0.509807,0.732993
-1.67132,0.30971,-2.14545,1.75317,-2.62527,-0.0228187,0.0775014,-0.319263,0.243862,-0.578205,-0.814421,0.0489698
0.238148,0.309724,2.94982,0.315724,1.71609,0.999085,0.0277232,0.11905,0.0916663,-0.538785,0.420127,-0.730208
0.454976,-0.552875,2.58564,1.3151,-0.0342029,-1.10315,0.137293,0.188676,0.0538519,0.567114,0.260275,0.781433
0.212059,-0.591333,1.92164,0.422388,-1.70478,2.54856,0.322285,0.181038,-0.0377569,0.383961,0.923316,0.00784258
1.58774,-0.049901,-2.43999,2.04182,2.86898,-1.33286,-0.111737,0.151745,0.262966,-0.074052,0.624449,-0.777547
-0.10742,-2.06486,-2.4884,1.92499,-0.668452,-0.595658,-0.204259,0.131809,0.158493,0.781566,-0.600289,0.169728
2.02371,0.309559,-1.69194,-2.79536,0.933867,-1.65466,-0.271791,0.309054,0.393224,0.446856,-0.764332,0.464883
2.28579,-0.188199,0.0391858,2.65516,2.18862,0.983696,-0.573616,0.494176,0.303081,-0.495619,-0.117911,-0.860499
-1.30226,0.310382,2.83217,0.112666,0.970086,-3.07491,0.111387,0.00661585,0.0537718,-0.940264,0.314584,0.130153
-0.802319,-0.624306,2.1715,0.213224,-1.78957,-0.329785,0.259975,-0.111884,-0.0367142,-0.91196,-0.385428,-0.14062
1.45793,-0.634311,2.33466,-3.14159,3.09713,-1.21418,-0.0650364,0.395352,-0.0601671,0.0943144,0.969834,0.22478
-1.59437,0.30972,-1.27328,2.41811,-1.19757,-1.24773,0.096521,-0.53701,0.27077,-0.273019,0.961996,0.00499153
0.804452,-1.08,-0.501786,-1.15063,1.26593,0.504245,0.0834068,0.244036,0.943054,-0.567784,0.61442,-0.547822
2.57122,0.189767,-0.498151,-0.722836,2.10141,-0.385438,-0.793165,0.379135,0.0794175,-0.905813,-0.368457,0.209147
-2.39784,0.309744,-1.73113,0.757406,3.05742,-0.560733,-0.309885,-0.433405,0.272951,-0.682074,-0.724246,0.101213
-0.894268,0.309773,-2.27891,0.245686,2.58597,1.44328,0.301845,-0.201591,0.335533,-0.571767,0.819233,-0.0440422
1.14213,-2.28235,2.92965,-0.90766,2.36234,0.443131,-0.0744432,0.0997037,0.0830323,-0.365166,0.728364,0.579776
0.780537,0.30978,-2.41003,1.52292,-1.25159,-1.32226,0.10674,0.259323,0.218833,0.494276,0.160779,-0.854308
2.44174,-1.37266,-2.64893,-3.14171,0.576459,1.18475,0.00107271,-0.143594,0.143225,0.567875,-0.746467,0.346849
-0.507312,-0.823625,-0.687975,0.207894,-1.14934,-2.2903,0.405548,-0.10054,0.767527,0.988437,0.138588,0.0615249
1.71667,-1.60083,-0.54132,-2.19321,-0.661805,1.65257,-0.0625099,-0.325428,0.878761,-0.180916,0.886047,-0.426837
1.68019,0.310145,-0.903077,1.7269,-2.3597,-0.848768,-0.178832,0.628489,0.138595,0.515486,-0.427875,-0.742427
-2.90899,0.309741,2.80433,-1.2599,0.471843,0.680055,0.101256,-0.0881844,-0.0247178,-0.694457,-0.527703,0.489141
1.13668,0.0244896,0.289715,2.83801,1.88516,2.90386,0.237012,0.770727,0.0521678,0.963853,-0.1184,-0.238683
1.38008,-0.325333,-0.716984,-2.70836,2.21142,-2.62889,-0.00360556,0.557121,0.641366,0.713748,0.0114455,0.700309
2.21821,-0.461387,2.55731,2.61865,-3.1345,-2.12736,-0.255073,0.156366,-0.0612395,-0.514391,0.674082,-0.530108
-0.362733,-0.519853,1.31995,-1.87809,-0.723865,-2.47419,0.717019,-0.155381,-0.0259097,0.95469,0.194052,0.225633
-1.32296,-1.50367,-3.13905,-1.77207,-0.735063,-1.22086,0.109156,0.0135702,0.0280719,-0.254498,0.0685084,-0.964644
0.738534,-2.06115,1.85518,2.36054,-0.632268,0.0625182,0.00404104,0.151287,0.596471,0.763757,-0.102313,0.637343
-0.0286993,-0.67745,2.20794,1.09569,-2.2972,0.0593965,0.303312,0.100488,0.0459749,-0.56881,-0.730228,-0.378447
-0.00763004,-2.07249,-0.86253,0.851336,-2.19761,0.152484,-0.50498,0.113006,0.588682,-0.422931,-0.797302,0.430627
-1.31596,-0.626885,2.57608,-3.14158,0.0170146,-2.04755,0.178034,-0.250441,-0.0609946,0.243312,-0.964973,0.098117
2.18427,0.309805,-0.32237,1.48157,-2.91345,0.853907,-0.493872,0.511829,-0.0451014,-0.347692,0.751932,-0.560097
0.986091,0.310045,-0.519426,2.99138,0.113998,-1.19471,0.32577,0.689915,0.129618,-0.0269683,0.0349498,0.999025
-2.12539,0.309735,2.84179,-0.58595,-0.0837304,0.202634,0.113332,-0.0243155,0.0428908,-0.558439,-0.745957,0.362896
-0.219518,-2.05982,-2.98429,3.14159,1.30046,-1.26165,0.0409302,0.102702,0.124304,0.968719,0.0842669,0.233414
-2.2771,-0.717926,2.20896,-3.14169,-2.16306,-2.5387,-0.206235,-0.409914,-0.0147172,0.129259,-0.901457,-0.413119
0.925774,-0.324244,1.11489,0.973671,-1.25965,2.32213,0.265017,0.533787,-0.0360511,-0.112281,0.931634,-0.345618
1.62141,-0.600511,1.94755,3.14168,1.06003,0.367649,-0.135823,0.523774,-0.0321659,-0.800419,-0.290151,-0.524539
2.81265,-0.647041,2.02271,-3.14159,-0.77709,-0.729671,-0.516026,0.0608097,-0.0210936,-0.547579,0.739201,-0.392096
0.791802,-0.534361,1.67309,0.731482,-0.130285,1.84282,0.231152,0.389491,-0.0226767,0.566575,0.623563,-0.538666
2.13475,-0.205842,0.833369,1.13579,-2.18863,-0.374733,-0.434692,0.483098,-0.0361723,0.888275,0.014676,-0.459078
-2.94211,-1.88266,-1.3858,2.20062,1.77753,0.126295,0.449546,-0.0204726,0.398402,0.204364,-0.949237,0.239131
2.16088,-1.42167,-0.863787,0.200802,1.24849,2.79091,-0.0286519,-0.153376,0.852239,0.987975,0.125582,0.0901963
0.402553,-0.637162,2.46333,-3.1416,-3.1274,-1.90389,0.264638,0.231318,-0.0614387,0.763502,0.330146,-0.555039
2.56887,-2.24872,-1.67716,-1.17687,2.54768,2.11811,0.47179,-0.434093,0.107113,-0.367934,0.583759,0.723775
-1.05507,-0.607161,2.24001,3.02633,2.96425,-0.926561,0.301704,-0.310875,-0.0548234,0.470423,-0.614976,0.632856
1.40789,-1.9179,1.17368,-1.97782,-2.21809,-2.04092,-0.0781005,0.197817,0.840963,-0.257215,0.663139,0.702913
-2.57574,0.309817,-2.41042,0.185471,-1.3566,2.99529,-0.19103,-0.250634,0.330008,0.694049,-0.704397,0.148733
-2.68222,-2.11046,-0.0534916,0.427031,-0.823195,1.1925,0.357002,0.0548251,0.794655,0.664175,0.630723,-0.401323
2.40403,0.309887,-3.06266,2.68676,1.60189,1.4694,-0.108948,-0.0484843,0.01381,-0.0217864,-0.116903,0.992904
-0.832134,0.309827,-2.07413,0.737486,0.972443,-0.536243,0.356971,-0.229889,0.295523,0.650774,0.340297,-0.678742
-1.33713,0.310552,2.79571,-1.34279,2.84837,-0.428524,0.0876055,0.103327,-0.0364462,0.122712,0.619835,-0.775078
1.66763,-0.650162,2.09752,1.69269,-1.38976,-2.05803,-0.146,0.374079,0.0518021,-0.450093,-0.129783,0.8835
-2.33095,-0.508986,2.51729,-0.360578,-0.263115,2.59904,0.00291993,-0.15534,-0.0517723,-0.149497,-0.480508,-0.864155
1.19393,-1.25006,-0.612515,0.895752,-1.00102,0.77739,-0.0650338,0.132279,0.814403,0.265206,-0.960708,0.0818853
0.383762,-0.59533,-2.61387,-2.54539,-0.182395,2.46178,-0.121728,0.0685608,0.219261,0.853536,0.496768,0.157152
0.465354,-0.616721,2.97575,-0.944878,2.75203,-1.78152,-0.0712604,0.0863555,0.043621,-0.854524,-0.517977,0.0385686
0.373049,-2.39962,-0.246564,0.593097,-2.37872,-2.37625,-0.574787,-0.107745,0.606721,0.615084,0.775842,-0.140503
1.91635,-0.354496,-2.30539,-0.698438,2.85496,1.18357,-0.113065,-0.00817275,0.510847,-0.0480792,-0.181648,-0.982188
1.67256,0.268393,-0.432118,-0.757184,-1.30192,-0.47908,-0.197186,0.856544,-0.0168813,0.828317,0.310104,-0.466612
-2.90652,-2.248,0.0660704,-1.73423,-2.10985,1.46658,0.567668,0.0237185,0.809275,-0.660155,-0.0663036,-0.748198
-0.24437,-0.599936,1.94636,3.14163,2.69074,-1.11274,0.540988,-0.0224048,-0.0322519,0.809166,-0.00318533,0.587572
1.78626,0.309742,2.84207,0.447602,-2.38934,1.28199,-0.118253,0.0297873,0.0485249,0.320571,-0.554511,-0.767953
0.52437,0.309786,2.79606,-1.34186,-0.717596,1.48879,-0.124002,0.0543715,-0.0362491,0.883907,0.449005,-0.130781
-0.533033,-0.90711,-3.0795,2.02625,-1.95994,-2.41145,0.132139,0.0487694,0.166493,0.974173,0.225655,-0.00819747
0.188988,-0.634636,2.07959,0.497834,2.4912,0.816736,0.277398,0.164187,-0.0136108,0.394592,0.497514,-0.772514
2.71507,0.309565,-1.07136,-2.90938,1.63828,-0.524879,-0.628561,0.165736,0.312109,-0.0808787,-0.911626,0.402985
0.320667,0.309699,-2.73595,-1.98061,-1.45727,-3.08568,-0.0169265,0.109391,0.245368,-0.395546,0.913921,-0.0910574
-0.884172,-0.880903,1.38125,2.72802,1.83886,0.663487,0.479267,-0.412522,0.323086,0.421931,0.683664,-0.595465
2.21059,-0.0631947,-0.946623,1.12243,1.10824,1.8202,-0.459035,0.433971,0.35408,0.0468399,0.307037,0.950544
1.64387,-0.189745,0.713128,0.918067,-0.792699,-2.63428,-0.157282,0.653515,-0.0389424,-0.591488,-0.447009,-0.671062
-0.832276,0.309952,2.78796,-1.41296,-2.73195,-2.49886,0.026075,0.133495,-0.0468168,-0.108823,0.593112,0.797731
1.07075,-0.416009,1.37249,0.673997,-0.199482,2.16115,0.153711,0.508984,-0.0539812,0.2852,0.752061,-0.594193
-1.94786,-0.617693,2.08441,0.286964,-0.819811,-0.681092,-0.00682024,-0.31367,-0.0376132,-0.335555,0.69511,0.635787
2.53353,0.243209,-0.589653,-2.82872,1.49548,-2.22801,-0.701118,0.355016,0.214598,0.407528,0.458565,0.789708
-2.04075,-0.556362,1.776,-2.97518,2.2973,-0.178032,-0.169349,-0.574457,-0.0373253,0.631481,-0.381289,0.675167
0.476924,0.309716,2.85669,-1.56243,0.591498,0.286327,-0.122909,0.0593517,-0.0275045,0.0286996,0.61692,0.786503
-2.41647,0.3098,-2.17579,-3.14173,-2.30608,-2.26767,-0.0773663,-0.214401,0.307324,0.958561,0.213441,0.188691
-2.93812,0.0731949,3.00423,-3.14215,-0.315812,2.3321,-0.01569,-0.114686,-0.0615262,-0.551721,-0.332615,0.764834
-2.14223,-0.665493,2.08479,2.2257,1.03467,0.168966,-0.145713,-0.42843,0.0467255,0.518138,-0.761097,-0.390211
-1.86584,-2.13794,-1.36163,-2.14066,2.08602,0.0730417,0.294153,0.592523,0.234433,0.703278,-0.670519,-0.236229
-2.34959,-0.76422,-1.04855,-1.59309,-0.625774,0.0800993,-0.0544375,-0.210554,0.855434,-0.978032,-0.159851,0.133793
-2.70564,-0.207092,0.809099,1.42101,-3.02425,-2.6382,-0.546807,-0.375143,-0.00422578,0.0920487,-0.0702478,0.993274
-1.35343,-0.644281,1.99838,1.57873,2.54318,1.13547,0.19382,-0.371461,0.0539422,0.198985,0.200575,-0.959257
-0.22001,0.310098,2.81101,1.22683,-0.741895,2.96813,0.122381,0.084478,-0.0148272,-0.264702,0.74118,0.616916
1.59446,0.309664,-2.34146,-2.49594,-0.129898,0.732433,-0.112367,0.134633,0.328326,0.0775328,0.794741,0.601976
-1.74964,0.310005,-1.46077,-1.24386,0.263826,-0.0162443,-0.00448859,-0.638387,0.387111,0.12862,-0.754219,-0.643903
0.466368,-1.50571,3.03943,2.42683,-1.21557,1.14847,0.0503494,0.147546,0.185923,-0.335342,-0.599052,-0.727105
-1.40189,-0.662788,2.06052,-3.1416,-2.32519,2.07592,0.190944,-0.470398,-0.0194217,0.212286,0.852791,-0.477161
2.68255,0.310027,-3.10277,0.243294,0.1714,0.03725,-0.128099,-0.0584403,0.172113,-0.789325,0.200005,-0.580486
-2.00753,0.309574,-2.04981,2.78996,2.31802,0.330359,-0.00961596,-0.27865,0.299196,0.374423,-0.83842,-0.396055
-1.20999,-1.62489,1.05077,1.55556,-1.78655,-0.910681,0.182506,-0.174503,0.67396,-0.766482,0.334645,-0.548195
-2.6709,0.30958,2.98063,-0.121732,-1.83667,-0.211354,0.0321973,-0.106085,0.112374,-0.203971,0.954712,0.216613
-2.25866,-0.648343,2.32846,-3.14149,0.199528,-1.6499,-0.163306,-0.370652,-0.0544424,-0.646585,-0.762176,-0.0318726
0.370512,-0.0513442,0.247626,-0.071259,-0.800986,1.88586,0.703726,0.39046,-0.0594388,0.229418,0.327823,0.91646
1.84674,-0.940874,0.940873,2.67047,1.74476,1.88195,-0.268397,0.547226,0.516929,0.159542,0.543335,-0.824217
-0.925398,-1.34217,2.729,0.0453026,2.24294,2.26249,0.131909,0.0062729,0.104387,0.0270863,-0.865716,0.499801
0.50934,-0.197235,0.55947,-0.36912,2.96815,-1.87951,0.631444,0.477676,-0.0612058,-0.229983,-0.188501,-0.954764
-0.0106269,-0.548695,1.65049,2.21999,-2.86581,-3.01947,0.558,0.103226,0.0540513,0.964234,0.260038,-0.0513125
1.16772,0.310989,2.83785,0.258143,0.169662,-3.09546,-0.0858115,0.0770314,0.0532861,-0.212789,-0.929014,0.302743
-1.21284,0.30969,-2.98692,-2.42967,2.25656,2.32603,0.0905603,0.0694421,0.098924,-0.319819,-0.659176,0.68059
-2.60771,-1.05294,-0.0192134,-1.02147,0.892164,-1.01295,-0.357637,-0.338211,0.850182,-0.565907,-0.813221,0.135723
-1.0114,-0.166393,0.575788,1.74074,-0.940869,-1.72424,0.463857,-0.535177,0.0552311,-0.36034,0.808259,0.465696
-1.71241,-0.444339,2.62605,-0.275799,0.922613,1.13654,0.09827,-0.0840567,-0.0183243,0.199339,-0.978185,-0.0584633
-1.53172,0.309701,-0.857695,2.59715,-3.07377,2.04242,0.134675,-0.650804,0.207553,0.0698098,-0.997531,-0.00765719
2.60664,0.101826,-0.0717635,0.00531038,-2.01288,0.401852,-0.753793,0.319814,-0.0604235,0.0736588,0.923298,0.376954
1.27062,-0.644065,1.5596,-0.909456,2.61449,1.18143,0.0667299,0.584719,-0.0613085,-0.0837431,0.375239,0.923137
-1.84208,-2.2193,0.387197,-1.13823,-2.2757,-0.510929,0.196778,0.300151,0.900078,-0.513191,0.634324,0.578159
-2.76793,-1.90805,1.78766,2.68161,1.15692,0.938505,-0.143449,-0.173484,0.616479,-0.399337,-0.737777,-0.544257
2.29047,-0.26189,0.710251,-1.0492,-0.345522,-0.532779,-0.62093,0.542827,-0.048915,0.470788,-0.0945107,-0.877169
2.51659,-0.457825,1.2476,0.348608,-0.756682,-1.60681,-0.527279,0.245833,-0.0412297,0.712483,-0.544526,-0.44256
-2.87664,0.309554,-2.74163,-2.36169,-0.77553,-2.61506,0.0161606,-0.108712,0.207532,0.593464,-0.46613,-0.656143
0.557475,-0.40192,1.25982,1.32455,1.55548,0.383824,0.426111,0.394278,0.0130387,-0.223417,0.953263,-0.203405
-1.80204,0.30996,3.05236,-3.09714,1.15242,3.10283,0.106885,-0.0222976,-0.045938,-0.980879,-0.181978,-0.0689949
-0.363902,-0.461936,1.2381,-2.16954,-1.41078,1.75482,0.743036,-0.166197,-0.0129221,-0.835205,0.511412,0.202216
0.10698,-0.351888,1.04172,-2.0325,-2.70974,-1.89039,0.777527,0.193276,-0.0353907,0.841283,0.222602,-0.492638
2.63329,-1.95018,-0.67716,0.799629,-2.18897,1.79868,0.302748,-0.293617,0.700929,0.704389,-0.603189,-0.374165
-1.81916,0.310294,2.79638,1.40877,1.06331,2.95424,0.0798643,-0.129106,-0.0357842,-0.764462,0.478696,0.431796
-1.09026,-0.694811,-1.41984,-2.13729,-0.426276,-1.70338,0.114685,0.0161238,0.738975,-0.386735,0.860116,0.33262
2.23672,-0.564749,1.83709,0.396465,-0.345254,-1.63183,-0.320682,0.231499,-0.0490268,0.600915,-0.798284,0.0405442
-2.65205,-1.30256,-0.380186,0.687563,0.484916,0.968077,-0.0794794,-0.166023,0.837234,0.975081,0.220113,0.0277143
-1.0516,-0.638679,2.42865,-3.14171,0.0241495,-0.848954,0.267602,-0.248267,-0.0609181,0.306159,-0.503553,-0.807899
-2.65453,-0.590985,1.88299,3.14182,-3.06456,2.81806,-0.436604,-0.354746,-0.0251179,0.0745622,-0.0430742,-0.996286
1.36215,-2.0948,0.28051,1.19984,-0.0842518,2.7965,-0.159116,-0.224565,0.760475,0.0408355,0.575183,0.817005
1.33146,-0.605898,2.36359,0.00802731,-1.94463,-2.76192,-0.0625131,0.204247,-0.0358899,-0.910612,-0.0844373,0.404544
2.83369,-0.617621,1.9076,1.89941,1.49863,1.82737,-0.471176,0.0353066,0.0529325,0.138161,0.221662,-0.965286
1.20996,-2.36893,-2.29091,2.35446,2.69738,-0.693278,-0.19204,-0.199747,0.0575612,-0.306168,0.124886,0.94375
1.26303,0.117362,-0.10091,-0.0618076,0.0629139,-2.1496,0.143944,0.813168,-0.0616111,0.209484,0.545506,-0.811505
-1.8384,-2.386,-0.869991,-0.717876,1.02499,2.24419,0.308612,0.712786,0.399531,-0.60928,-0.206349,-0.765635
1.07966,0.310024,-1.44511,0.0355406,0.861519,2.27342,0.212493,0.628723,0.27213,0.201839,-0.662374,0.721472
2.67191,-1.1332,0.612172,-0.102797,-1.80149,-1.84198,-0.562661,0.16318,0.592544,-0.575554,-0.000314656,-0.817764
0.748333,-0.600218,1.90415,0.603935,0.922917,-1.44763,0.19309,0.328227,-0.0178535,-0.735033,-0.548794,0.398185
-0.491576,-0.391884,0.948105,-1.28371,-2.07663,-2.55119,0.746958,-0.276121,-0.0263098,0.404354,0.607796,-0.683434
-0.401357,0.094067,0.126713,-2.86023,1.91385,-0.20536,0.826387,-0.232141,0.046306,0.184811,0.9231,0.33724
-0.641311,-0.365295,1.16003,1.51053,-0.326281,0.953257,0.547264,-0.272365,0.0244732,0.668405,-0.730631,-0.139331
-0.0676346,0.309693,-1.56639,0.810314,-3.06302,0.86542,0.572912,0.0705923,0.247317,0.250279,-0.0679582,0.965786
-0.704624,-0.688037,3.05265,1.18506,1.21477,1.52058,0.136361,0.0273312,0.170904,-0.259252,0.282176,-0.923669
-1.36208,-0.592231,1.89266,3.1416,1.23288,-2.53642,0.220451,-0.514075,-0.0263229,-0.660549,-0.625872,0.414679
1.38331,0.309665,-1.00046,-1.7045,-0.969458,1.3864,0.0365415,0.778194,0.27906,0.0383295,-0.609071,-0.792189
0.173073,-0.450278,1.28245,-2.1754,1.16773,-0.328131,0.709104,0.234773,-0.0372539,0.0768002,0.897419,-0.434444
-1.83246,0.309978,-2.67352,-2.94732,-0.522085,-2.62455,0.0932371,-0.0737821,0.181509,0.41458,-0.127698,-0.901009
-0.0878745,0.310063,-1.03793,-0.192757,-1.58621,-0.57012,0.779522,0.0408958,0.163146,0.36191,-0.876881,-0.316386
2.41992,0.197991,-1.34895,0.910894,-2.00066,2.45439,-0.521845,0.313841,0.271812,-0.116091,-0.833889,0.539585
-1.98359,0.281363,2.78381,1.56278,-2.97786,-2.13889,0.0552536,-0.145918,-0.0508143,-0.274575,-0.845566,-0.45785
0.512606,-0.660716,2.2539,1.51803,-2.45124,0.309268,0.228741,0.25398,0.0524286,-0.334181,-0.884138,-0.326533
-0.595555,0.309686,-2.40533,-0.539513,-0.923933,2.50094,0.271618,-0.0522073,0.381858,-0.230924,0.929271,-0.288323
2.01875,0.310196,-0.904013,1.31222,-2.90493,1.49823,-0.3875,0.554383,0.107647,-0.291986,0.646871,0.704487
0.434061,0.266417,-0.228274,-1.84652,-2.1498,1.25551,0.765157,0.474991,-0.0154152,-0.765392,-0.640869,-0.0588427
-0.149086,-0.512766,1.56955,3.14162,-0.896992,2.03897,0.654672,0.0120427,0.00263129,-0.852988,0.484712,-0.193558
-0.0378988,0.309659,-1.38952,-0.0783902,3.1033,-1.73096,0.68007,0.0834422,0.267622,0.839651,-0.0379471,-0.5418
-0.0500375,0.137425,-0.0440075,-1.29203,-0.361931,3.01392,0.904036,0.0640133,-0.0400723,0.236012,0.33982,0.910396
-0.388992,-0.269032,0.922801,2.99413,2.88346,-2.35846,0.751075,-0.189886,0.0463394,0.802447,-0.52443,0.284696
-1.67408,-1.56,-0.518249,-1.88114,-1.81116,2.97579,0.134869,0.242476,0.921679,0.92386,-0.378242,0.058452
1.7103,0.309185,3.01869,-3.14178,-2.93601,-0.143114,-0.10835,-0.013325,-0.0605309,0.0713534,0.944918,-0.319436
-1.59555,0.309707,-2.32526,-0.967945,-2.78192,1.1681,0.102907,-0.253545,0.407187,-0.125345,0.510351,-0.850783
-1.09722,-2.3324,0.385592,1.52348,-0.500438,2.6994,-0.0845798,0.404372,0.675296,0.635491,-0.289193,0.715905
-1.87208,0.309842,-1.57955,1.95943,0.0333592,-2.97431,-0.0325271,-0.47249,0.261163,-0.225565,-0.61505,-0.755536
1.49258,0.309701,-2.6454,1.94535,1.40133,-1.2203,-0.0955969,0.177188,0.155089,-0.313669,0.329338,-0.890589
-2.01903,-2.26935,-0.627347,1.50735,-3.05347,1.67224,0.341393,0.458072,0.492636,0.439992,0.894403,0.0803096
0.862513,0.309935,-1.89798,3.14158,0.502107,0.372109,0.114441,0.301393,0.350093,-0.113187,0.557041,0.822735
-1.19975,-0.54227,1.7488,-2.87828,0.359045,-1.15975,0.318533,-0.517674,-0.0484793,0.475215,-0.834199,-0.27979
1.20333,-2.36016,-0.964418,0.644286,0.897755,1.48124,-0.333679,-0.562991,0.401866,-0.206597,-0.342016,-0.916702
1.18387,0.310013,-1.85911,-0.675227,-2.80334,-1.16969,0.0832115,0.49348,0.409208,0.311295,0.420633,0.852152
-1.14804,0.309735,-2.15918,-1.97841,-0.94698,-2.60988,0.196739,-0.171273,0.40996,0.346395,0.935229,0.0731994
1.4273,0.309658,-0.982727,0.0734345,1.96627,-0.897014,0.00135453,0.772653,0.126034,-0.478427,0.715217,-0.509483
1.68438,-0.606998,2.10707,-3.13014,0.196103,-1.58964,-0.161861,0.455876,-0.0540813,-0.109348,0.990964,0.0776755
1.51315,0.310054,-1.15935,-0.0569675,0.0251904,1.40114,-0.0664336,0.743391,0.195626,-0.0549422,-0.878289,0.474963
-0.523856,-0.629956,1.70218,2.02924,-2.18588,-2.31923,0.511091,-0.169199,0.0896046,0.592283,0.299689,0.747922
-1.59858,-0.582001,1.83292,0.650108,0.879222,2.71301,0.0983049,-0.391718,-0.0188816,-0.706004,-0.185491,-0.683485
1.47604,-1.14523,2.55489,2.61135,-3.03249,0.484516,-0.0792075,0.320233,0.149431,0.00890479,-0.92467,0.380665
-0.780428,-0.50582,1.22863,-0.995551,0.739205,-0.411759,0.568144,-0.408924,-0.0555422,0.047531,0.821756,-0.567854
0.487642,-0.531323,1.63188,3.14162,1.625,-1.38167,0.504113,0.390914,-0.0022961,0.681486,0.573925,0.454079
-1.5013,-0.594234,1.79644,2.75026,-1.32868,2.03534,0.147917,-0.553147,0.0264009,0.383757,0.750524,-0.538001
-1.30719,0.309695,-2.06921,0.987078,2.6383,-2.7822,0.208889,-0.355088,0.277129,-0.52498,0.212413,-0.824183
0.204876,-0.710576,1.81537,-1.72535,3.11298,-2.55082,0.519647,0.21946,-0.0610539,-0.339314,-0.0947777,-0.935886
-1.48972,0.105645,-0.041037,-0.634479,0.0887445,0.325794,0.178854,-0.853447,-0.0606743,0.00535907,0.970845,-0.239649
0.641818,-0.63733,2.43452,0.44224,-2.70029,0.703715,0.0782387,0.194739,0.0184907,0.259318,-0.212749,-0.942068
1.24796,-0.611954,1.18072,-2.26401,0.616805,1.77897,0.141507,0.76702,0.133793,-0.201278,-0.978461,0.0458449
-1.14326,0.309764,-2.86289,-0.698724,-0.205835,1.30057,0.127556,-0.0167022,0.271413,0.102007,-0.355466,-0.929106
-0.924865,-1.06826,-2.85096,1.91253,2.02768,0.833258,0.093776,0.056926,0.226379,0.00266336,0.999047,-0.043576
1.32487,-0.402612,1.003,-0.53848,-1.11371,-1.45691,0.0666964,0.714061,-0.0603902,0.071753,-0.132989,-0.988517
1.17524,-0.18388,0.781474,-2.09118,3.1416,1.915,0.221587,0.813941,-0.0611338,-0.371668,-0.890086,-0.263837
-0.528136,-1.0401,2.08722,-2.4627,2.0147,-1.15475,0.490996,-0.160087,0.101388,0.987665,-0.153669,0.0300712
1.04104,-0.310808,0.762067,0.168978,2.02364,1.98455,0.260858,0.661458,-0.0289442,0.50856,0.153028,0.847319
-0.139624,0.309937,-3.04779,1.25515,-0.535533,-2.49861,0.152165,0.0888376,0.105308,0.708253,0.312874,0.632841
-1.4049,0.309992,-1.70731,-0.0576177,1.41999,1.17323,0.201194,-0.540665,0.334933,0.225183,0.973093,0.0488113
2.93612,0.216456,-0.119288,-2.34279,0.208226,-2.46265,-0.883158,0.072566,0.018961,0.0185057,0.16048,0.986866
-0.974507,-0.617355,2.50913,1.58526,-0.403527,2.88003,0.232929,-0.148834,0.0523407,-0.205053,0.97756,0.048265
0.999624,0.288021,-0.278858,1.78924,2.08405,-0.0238123,0.290673,0.654221,-0.013801,-0.805085,0.35813,-0.472843
-1.09983,0.263304,-0.402271,1.1978,1.60113,1.15449,0.422292,-0.588795,-0.0134903,0.724702,-0.532468,0.437362
1.119,-0.81411,-2.90753,-1.78939,0.635854,-3.07829,-0.142887,-0.0444359,0.115399,0.765082,0.219063,-0.605525
1.21884,-1.78243,-0.958939,2.58632,1.32142,-2.72571,-0.252733,-0.37156,0.563992,0.930526,-0.0376532,-0.364285
-0.621946,-0.605617,2.48433,1.25739,-2.77926,-1.26582,0.250536,-0.045299,0.0519457,-0.294459,0.0801292,0.952299
-0.704258,-0.657247,1.70143,-0.323434,3.11948,3.02443,0.429729,-0.221871,-0.0614088,-0.523936,0.416313,0.743084
1.05309,0.041931,0.238253,2.50613,-2.68985,0.359468,0.285554,0.721946,0.0516126,0.0248811,-0.782015,-0.622763
2.90761,-0.394533,2.88392,-3.1416,0.0612201,2.00011,-0.159603,-0.0741657,-0.0607756,0.221542,-0.0266248,0.974787
-1.13894,0.309775,-2.44703,-0.814656,1.50521,2.54813,0.187911,-0.146956,0.383535,-0.817747,-0.202023,-0.538958
-2.91787,-0.00671744,-0.0638217,-0.277908,-3.08599,-0.6811,-0.803218,-0.294698,0.030698,-0.930102,-0.167353,-0.326961
0.0695559,-0.446842,1.37015,1.33127,2.7428,-2.04317,0.537593,0.146868,0.0197449,-0.412109,-0.205822,0.887583
2.12921,-0.619421,2.25393,-3.14164,-3.12335,-2.42513,-0.312731,0.294572,-0.0615781,-0.3335,0.507857,-0.794266
-1.40089,0.309899,2.83258,0.889782,-1.50004,1.41093,0.122136,-0.0663985,0.0194236,-0.285099,0.722701,-0.629621
0.166063,0.309678,-2.59984,-0.917526,-0.475141,2.47184,0.120105,0.130803,0.349142,-0.704887,0.2455,-0.66548
1.24172,-1.0808,-2.01132,-0.776248,-2.78258,2.0377,-0.185588,-0.20571,0.554282,0.143867,0.910658,-0.387304
0.34316,-1.23941,-0.578344,1.45765,0.0978736,-2.58132,0.0345976,0.128269,0.782806,0.947172,0.250518,-0.200263
1.71891,-1.49155,-3.00987,1.1695,-0.481023,-0.257128,-0.0981559,-0.0817822,0.222213,0.325435,0.851128,0.411914
-0.126053,0.310514,-2.25112,-1.70063,1.47103,-2.13978,0.229548,0.0809335,0.408112,-0.51456,-0.475175,0.713749
-1.87399,-1.53025,-0.566973,-0.468594,1.12889,-0.344111,0.142485,0.0898819,0.932341,0.656465,-0.751657,0.0637625
2.12608,-2.06796,-2.79822,3.14159,-0.655321,2.93893,-0.0668781,-0.0992448,0.0895873,-0.339678,-0.584806,0.736628
1.57626,-0.415857,0.330922,2.16702,1.5197,-1.01036,-0.11296,0.696461,0.340436,-0.526891,-0.728306,0.438128
-0.0789981,-0.741415,-0.699489,-0.816507,-2.10333,2.7242,0.444702,0.0742876,0.825121,0.0429182,0.786625,-0.615937
2.4533,0.309922,2.84192,-0.50212,-1.27201,-1.97684,-0.0444813,-0.104741,0.0469891,0.174469,-0.632241,0.754872
2.46815,-0.446897,1.0989,-0.781259,-0.385658,-3.02949,-0.620917,0.355779,-0.0590381,-0.958123,0.286252,0.00775036
1.60942,-0.604771,1.864,1.8678,1.87885,-0.674814,-0.127157,0.463923,0.0520783,-0.734021,-0.274365,0.621238
0.105984,-1.37995,-1.88677,1.39928,-0.608901,-0.191908,-0.228372,0.0854712,0.485158,0.474825,-0.514121,-0.714297
1.01965,-0.625359,1.91136,2.06195,-2.75126,1.39852,0.155319,0.461116,0.0541411,-0.1314,-0.338327,-0.93181
-1.41814,0.309875,-2.64238,-2.309,0.866132,-2.77888,0.113907,-0.0225738,0.250119,-0.76432,0.283891,-0.578983
0.0202041,-0.636619,2.04837,-3.1416,-0.526719,-2.37065,0.49502,0.119175,-0.0304949,0.582405,0.372406,0.722578
-0.712264,-2.0889,-0.992893,2.3102,0.354708,-1.7179,-0.334374,0.432933,0.413979,0.563357,-0.553702,-0.613223
-2.30622,-1.95646,1.12403,2.19289,-3.14159,0.0543525,0.0731701,-0.0818168,0.753275,-0.175512,-0.19399,-0.965175
1.72191,0.31032,-0.65196,2.57056,1.35352,0.0775223,-0.213192,0.674998,0.148687,-0.991473,0.0439698,0.122667
2.5629,-1.66431,2.52614,-0.132587,-1.09902,2.87614,-0.187469,-0.0079048,0.143991,-0.890235,-0.445145,-0.0965857
-2.24483,-1.18845,1.65499,2.50522,0.845723,0.00431607,-0.222361,-0.453233,0.400322,0.176343,-0.978404,0.107832
2.38641,-0.936433,1.6815,-1.48268,-2.81333,-1.28452,-0.514509,0.33442,0.0954721,-0.551408,0.644084,-0.530193
1.91356,-0.819594,3.08742,2.2369,0.699675,-0.965647,-0.14679,0.0865868,0.118534,-0.645662,0.719322,-0.256312
-1.21431,-1.06959,-2.85667,-2.3719,0.726958,2.31935,0.0771807,0.105512,0.0900874,-0.250256,-0.624076,0.740204
1.21292,0.310005,-1.80572,1.926,1.14,-1.50311,0.0360165,0.407911,0.26463,-0.212335,-0.392328,-0.894982
-1.50402,0.309653,-1.58889,-0.10687,-0.176623,-2.30844,0.149646,-0.601934,0.317964,0.174558,-0.839279,0.514919
2.59804,-0.698057,2.41564,-3.14183,1.4528,-1.913,-0.366154,0.0937238,-0.039534,-0.630208,0.770156,-0.098479
-1.31795,0.309838,-1.66501,2.74248,2.21326,1.19018,0.204648,-0.355742,0.325471,0.526486,-0.848745,-0.0494434
-0.389739,-0.605209,2.13198,-3.09846,-3.11899,-0.968511,0.468296,-0.0743534,-0.0608291,0.756911,-0.324742,0.567122
-1.5987,-0.550376,0.759803,0.968474,2.8046,2.51035,0.0907327,-0.66127,0.193651,-0.273905,-0.245936,0.92978
-2.06947,-1.05228,-1.27754,-1.03612,2.41171,-2.53132,0.1343,0.0183893,0.835154,-0.703673,-0.149606,0.694595
1.4858,-0.412965,0.987249,-1.35724,-1.6906,1.6765,-0.04208,0.791793,-0.0204519,-0.164686,-0.69892,0.695981
2.04663,0.281532,-0.236324,1.58696,2.82318,-1.09969,-0.420268,0.577256,-0.0408395,0.293218,-0.879176,-0.375597
-1.64644,0.2665,-0.333395,1.01526,-0.362859,-0.95025,0.0540919,-0.730646,-0.0517297,-0.131906,0.990725,-0.0326434
0.942656,-0.173744,0.46753,0.0573313,1.88976,-2.31345,0.359168,0.680279,-0.0398334,0.253656,-0.743472,-0.618796
-0.245002,0.30992,-2.90695,0.322269,0.408803,1.2141,0.163642,0.0715953,0.224006,-0.458116,0.257615,-0.850744
1.87682,-0.325227,0.909417,-1.60336,2.2784,-0.64201,-0.34827,0.739987,-0.0409822,-0.816181,0.563085,0.129552
-2.6966,-1.42218,0.938442,0.959508,0.812841,0.416181,-0.284118,-0.256419,0.607766,0.623287,-0.438678,0.64736
-2.34203,-0.325443,2.67274,-0.593054,-1.73379,2.50696,0.0540478,-0.100994,-0.0375096,0.146854,-0.988949,0.0203323
-0.722811,0.30992,-1.86117,-0.446475,0.749579,-1.67648,0.446106,-0.247946,0.390909,0.607306,-0.631511,0.482051
-2.91115,-0.445321,-2.55305,0.60112,-0.117378,1.76571,-0.0329394,-0.119842,0.397833,0.790012,0.162048,-0.591288
2.0805,-0.600301,2.28513,2.99764,-0.0690412,-2.12706,-0.290771,0.296485,-0.0576337,-0.438279,0.709427,0.551928
2.66489,-2.38634,0.129049,-1.16817,0.75485,2.21676,0.469313,-0.365212,0.774742,0.364538,0.275955,-0.88936
1.08043,-0.566947,1.69363,1.63761,-1.59962,0.49051,0.135498,0.485578,0.0512036,0.84843,-0.282992,-0.447306
0.15385,0.308824,2.78986,1.47847,-3.03609,-0.0220584,0.088803,0.124226,-0.044081,-0.0947314,-0.121231,0.988094
1.74828,-0.133591,0.634283,2.63228,1.2767,-0.271993,-0.242414,0.733218,0.0521205,-0.956286,0.109774,0.271048
-2.12066,-0.430412,-1.00555,0.836755,2.19485,-1.08672,-0.164226,-0.476811,0.577018,-0.056215,-0.81443,-0.577532
2.36349,0.117119,-3.13774,-0.864364,2.70866,-1.48138,-0.0542853,-0.0997487,0.156514,0.496316,-0.541729,0.678381
-0.019405,-1.90047,2.26399,1.03163,2.79893,3.01162,0.137928,0.106494,0.33526,-0.0420396,-0.332408,0.942198
-0.628262,-0.465643,1.41593,2.02346,1.25981,0.84647,0.543121,-0.259642,0.054176,0.63374,0.319352,-0.704548
-1.81477,-0.57119,0.916178,-2.86747,-0.0145234,-2.0996,-0.0828863,-0.78482,0.263357,-0.0146852,-0.0893239,0.995894
-1.16061,0.0222422,0.307702,1.62042,1.60663,1.87435,0.382459,-0.605811,-0.0123085,0.0810969,-0.935595,-0.343635
-0.0991679,0.310309,-2.68195,1.64426,-0.556163,-2.6246,0.195915,0.0901965,0.161734,0.921203,0.369549,0.121732
1.78022,-0.421501,-1.39506,2.29008,-0.512355,0.447235,-0.158574,0.221068,0.559267,0.53676,-0.399319,0.743258
1.24307,-0.161074,0.615408,1.13918,1.20151,0.4754,0.114686,0.676415,-0.0126743,-0.635403,0.707027,0.310445
-0.711036,0.30993,-0.886092,-2.95568,0.805243,2.06004,0.599848,-0.372611,0.260772,-0.194901,-0.279331,-0.940206
-1.06856,0.141729,2.82605,0.974272,-0.590319,-0.633237,0.14493,-0.037147,0.0272013,0.0356449,-0.997012,-0.068533
0.370452,-1.28435,0.722257,2.96517,2.02499,3.03077,0.322406,0.24231,0.775887,0.693308,-0.688826,0.211763
0.980143,-0.655875,2.75319,-3.14196,1.59905,-0.417264,0.0327248,0.244801,-0.038312,-0.556623,0.810765,-0.181193
-2.47249,-0.896355,1.97721,-1.9262,-1.23288,2.98162,-0.340798,-0.408655,0.0122042,0.500889,-0.791336,0.350566
-1.92476,0.309871,-2.56642,-0.944156,2.81981,3.13545,0.0501227,-0.17926,0.357626,-0.62502,-0.779012,0.0499104
-2.73138,-0.325177,1.09896,-2.68665,-0.505832,-2.41924,-0.664843,-0.408155,-0.0174371,-0.224316,-0.493963,0.840049
1.04259,-0.273561,0.934901,3.14172,-0.118205,-2.96204,0.297269,0.726017,0.0377555,-0.433499,-0.512679,0.741106
1.62936,-0.995601,-1.15483,-2.48014,-1.56448,2.94426,-0.104399,-0.0842331,0.781686,-0.9903,0.13716,-0.0221954
-0.349596,-0.542697,-1.7336,-1.28051,0.43543,0.877849,0.104481,0.0780867,0.693872,0.881794,-0.0346788,-0.470357
-2.29554,-2.06075,-1.71531,1.53773,2.06281,3.01853,0.374459,0.258236,0.290249,-0.78337,0.434779,-0.444183
0.15195,-1.90034,-2.95899,-2.73674,2.37429,1.51113,-0.00523784,0.10962,0.0791257,-0.949529,-0.103524,0.296105
-1.17854,-0.554917,2.56419,0.143319,-1.09278,-2.66609,0.145057,-0.0651089,0.00994828,0.497322,0.862871,-0.0901367
-1.2458,-1.33799,-2.11133,2.35871,-2.06661,-1.47374,0.0421861,0.216636,0.340162,0.207883,-0.883924,-0.418883
-0.213687,-0.501585,0.969282,-2.15723,1.96777,0.529426,0.821329,-0.0665382,0.127879,-0.359907,0.892604,0.271522
-0.0677737,0.309675,-2.79233,-0.148848,-0.751204,1.11776,0.147936,0.0993596,0.282408,-0.179692,-0.287227,-0.940857
0.453407,-2.26573,-2.2746,1.18972,-1.15547,-0.304929,-0.370483,-0.0591051,0.121731,0.664756,-0.646961,0.373552
1.42797,-0.182815,0.760142,1.37317,1.80105,0.535999,-0.0142835,0.667515,-0.0125801,-0.771384,0.516657,-0.371527
-1.22075,-1.1781,-0.945952,2.56763,2.00138,2.37741,0.0736919,0.116424,0.730052,-0.60776,-0.248277,0.754312
-0.943175,-1.52559,-1.63934,-1.01242,-1.21143,-2.73528,-0.178461,0.431867,0.55283,0.399656,0.913477,-0.0763893
-0.378658,0.218381,-0.123889,-2.36384,0.493866,-3.12779,0.856048,-0.223113,0.0209441,-0.691499,-0.235007,0.683082
-0.518071,-0.394917,2.68401,2.36223,2.72209,-2.96412,0.252672,-0.0183872,-0.0368901,0.0022222,-0.462727,-0.886498
0.290416,-0.652329,2.40814,2.17654,-1.39523,1.10666,0.287667,0.199894,0.0281629,-0.430161,-0.588593,-0.684485
0.419055,-0.661575,2.11389,0.838971,0.73196,-2.4134,0.239287,0.226077,0.0232078,-0.588488,-0.80821,0.0218576
1.24525,-1.64446,0.64642,2.38111,2.78516,-0.470282,-0.0751727,0.118582,0.824994,-0.387231,-0.17459,-0.905301
-2.91382,-2.42125,0.0131246,-0.417477,2.61569,0.0183095,0.591024,0.0249522,0.722063,0.919562,-0.302067,0.251319
0.490038,-0.587254,1.80037,1.92736,1.13622,1.57631,0.381862,0.327408,0.0518667,0.0012909,-0.00498302,-0.999987
0.433282,-0.825038,2.22675,-2.1659,-2.95884,-2.16186,0.335251,0.27535,-0.0536348,0.11991,0.167051,-0.978629
-2.18568,0.309746,-2.25346,-3.02584,-0.0500533,0.855779,-0.00909749,-0.202094,0.300828,-0.351975,-0.44153,0.825327
-1.58911,0.309685,-3.06698,-2.44697,-1.32697,2.02131,0.109906,0.0402796,0.0619948,0.407038,-0.850745,0.332496
1.01388,-2.36362,-2.34748,3.0542,1.12241,0.219802,-0.203101,-0.119682,0.00332939,-0.84216,0.311338,-0.440267
-1.49811,0.140817,0.077374,-1.95892,0.70824,-0.223737,0.174009,-0.886734,-0.0393923,0.657587,-0.296948,-0.692388
-1.1027,-0.637957,2.1406,2.86466,-0.939306,2.82479,0.303686,-0.358763,-0.0170515,0.46659,0.777028,0.422517
-1.91912,-0.576518,1.82899,-3.08748,0.536026,0.963636,-0.0921046,-0.573434,-0.0269968,0.500755,0.525305,-0.687967
0.0262955,0.309675,-2.60011,2.36703,-0.912149,0.128969,0.136087,0.112767,0.160259,-0.574517,-0.799635,0.174684
1.19935,0.310048,-2.09738,2.64052,0.520191,-2.20014,-0.0112715,0.271781,0.280339,0.173464,-0.360738,-0.916394
-2.18287,0.30977,-1.42263,-1.15166,-0.717569,0.680767,-0.284687,-0.595496,0.371956,-0.355257,0.383274,-0.852581
-1.32526,-0.540679,2.77033,-3.14198,3.06365,1.91192,0.154274,-0.166597,-0.0601533,-0.25606,0.914635,0.31285
-1.00365,-1.03152,-1.6182,0.739267,-2.61906,0.716248,0.071504,0.090913,0.670627,-0.767065,0.503568,0.397531
-1.46408,-0.543676,1.7329,0.555007,2.77951,2.29193,0.152898,-0.40256,-0.0387007,-0.142392,-0.866436,0.478553
0.505092,-1.98791,-1.448,-1.98007,-2.03998,-1.02405,-0.595163,-0.20436,0.3027,-0.212537,-0.647418,-0.7319
1.00933,0.309849,-2.29511,-1.48771,-2.7846,-2.89533,0.0226168,0.24096,0.40811,0.128383,0.84064,0.526159
-0.356205,-0.515594,1.56794,2.11879,0.393817,1.89352,0.569395,-0.0953981,0.0526112,-0.343064,-0.00219995,-0.939309
-2.24621,-1.23392,-2.25819,1.95101,0.510436,1.50707,0.168536,0.0358004,0.352768,0.648993,0.760353,-0.0259094
2.91907,-0.586813,1.75388,2.45537,-1.65353,-0.806788,-0.562261,0.0153141,0.0476897,-0.124147,0.734975,0.666633
-1.65408,-2.19751,-1.5884,-0.520883,-2.33416,-2.87945,0.162832,0.638503,0.23513,0.693305,-0.0833043,0.715813
0.331749,-1.26774,-0.974414,-3.14168,-1.76306,1.20281,-0.216388,0.0409033,0.743031,0.846118,-0.0820033,0.52665
1.5893,-0.913586,1.9672,3.14161,2.91043,-2.60693,-0.119047,0.53374,0.13148,0.181243,0.860519,-0.476086
-0.540339,0.309815,-1.36926,-2.87932,2.46825,-1.32761,0.509788,-0.178533,0.367794,-0.630962,0.553618,0.543501
-1.80263,0.309994,3.05482,-2.58358,1.37858,1.36512,0.116437,0.0181569,-0.0208595,0.0430963,-0.689974,0.72255
1.43954,-2.02177,-0.92255,2.5323,1.74655,0.838571,-0.177837,-0.513109,0.461819,-0.677527,-0.102921,0.728262
-2.7721,-0.616329,-2.45555,-0.0976546,-1.54742,-3.00971,0.0833767,-0.0847596,0.456762,0.38293,-0.91447,0.130803
1.14642,-0.787498,1.86918,-1.93606,-1.67455,1.35547,0.12929,0.551227,-0.0181049,-0.103711,-0.745651,0.658216
2.04795,-0.118897,-1.7035,1.71143,-0.804081,-2.88733,-0.25073,0.247301,0.425403,-0.938454,0.297423,-0.175624
-1.96266,-0.0639175,-2.97776,3.10364,-0.721646,1.27709,0.090191,-0.067543,0.0609625,-0.116544,0.21874,0.968798
-2.14255,0.309841,3.05869,-0.0210927,0.787897,-1.54165,0.0691091,-0.0943113,0.14048,-0.104068,-0.199917,0.97427
1.70381,-1.09539,1.30208,2.1006,-0.23801,0.666709,-0.175598,0.489337,0.450108,0.054855,0.987102,0.150402
1.90345,-0.0477705,0.236481,0.362614,-1.57449,-0.171364,-0.351419,0.682903,-0.0447551,0.959485,0.24027,-0.147166
-1.12726,0.309887,-0.934495,-0.637214,-1.28647,0.56376,0.447523,-0.687599,0.160153,-0.982209,0.176768,-0.0633862
2.16716,-0.89522,-2.67909,-0.22719,2.58205,-2.95594,-0.00699086,-0.184044,0.331099,0.125594,0.743836,0.656455
0.0777688,0.310267,2.79482,-1.34765,0.379898,-2.03717,-0.0885249,0.102583,-0.0373505,-0.939341,-0.240446,-0.244591
2.73737,-0.158052,0.73935,1.06295,0.0745854,-2.43547,-0.643423,0.156528,-0.0523906,0.668478,-0.224295,-0.709104
-0.578414,0.310005,-1.71452,0.793889,2.13083,-2.63962,0.49838,-0.195039,0.268801,-0.494505,-0.564142,-0.661218
1.61906,0.309684,-0.35368,2.10978,-2.42313,-2.89771,-0.14344,0.707267,0.021849,-0.644495,0.103552,0.757564
-1.55246,-0.399658,1.30465,0.869091,0.43693,-0.0962664,0.119054,-0.539003,-0.0348365,0.422743,-0.0801993,0.902694
0.292897,-0.604983,1.98974,3.14172,-2.75198,-2.95553,0.461686,0.253236,-0.0371097,0.227165,0.458388,-0.85923
-1.64812,-0.00245408,0.364548,1.55847,1.00525,-3.04148,0.0545264,-0.709226,-0.0163117,-0.81619,0.340675,-0.466663
1.02323,-1.18761,-1.05011,-1.46756,0.606787,1.80936,-0.163116,-0.0578494,0.871545,0.29991,0.233013,-0.925072
1.70258,0.309913,-1.8273,1.75993,0.476279,-0.500491,-0.161152,0.385123,0.259355,-0.284157,-0.917422,-0.278553
0.0668076,-1.55898,-2.97963,0.446821,1.7921,1.10445,-0.146778,0.0995736,0.182829,0.638489,0.482361,-0.599717
0.042661,-0.470794,2.58211,-0.348059,-0.968548,1.00255,0.0792853,0.112634,-0.036291,0.903702,-0.405305,0.138023
1.45949,0.309761,-0.688189,-2.0691,0.0747951,-1.86445,-0.0163003,0.836803,0.177279,0.0648626,0.385598,0.920384
-1.306,-0.900872,0.599456,2.88818,1.49673,2.36293,0.259389,-0.539518,0.619203,-0.600051,-0.499664,-0.62472
2.26934,0.309819,-2.92457,1.59507,-1.1884,-2.40218,-0.177697,0.0418693,0.107246,-0.98698,0.109327,-0.117977
0.303168,-0.655151,-1.19115,1.01155,0.536311,-0.113304,0.254162,0.19387,0.662016,-0.618847,0.338369,-0.708897
-1.33789,0.30973,-3.01951,-0.313947,2.98806,1.48656,0.119973,-0.0328579,0.217774,-0.0335829,0.197318,-0.979764
-1.38114,-1.95587,-2.9114,-2.12373,-1.46394,-1.75995,0.100105,0.057497,0.0235684,0.306866,-0.606842,-0.733196
-0.822385,-0.178884,-1.43752,-1.87016,-1.88968,1.42568,0.33062,-0.195626,0.645696,0.0980436,-0.307373,-0.946525
0.1104,0.310373,2.81281,-1.17016,1.57508,-1.60882,-0.0868773,0.100188,-0.0125614,-0.917275,-0.139932,0.372862
-3.08495,-1.82227,-2.83857,-0.100159,-2.21664,-1.14365,0.226329,-0.0964924,0.104463,0.876793,0.381084,-0.293273
2.48333,0.310047,-1.23484,1.12292,2.99095,-2.66997,-0.558998,0.294308,0.179902,0.835614,-0.477203,-0.272079
0.530282,-0.368232,0.937687,-1.55426,-2.18721,1.4007,0.63986,0.501674,-0.02169,-0.59182,-0.507094,0.626582
1.82442,0.310233,2.79626,1.41585,0.946581,-2.8388,-0.132167,0.0748826,-0.0364713,0.702702,0.375774,0.604156
0.498542,0.309889,-1.26021,-0.974383,2.2014,1.11961,0.581579,0.440895,0.311493,-0.988053,-0.13693,-0.0707232
-2.01689,-0.578977,-0.158476,-0.688125,2.62748,0.454763,-0.220682,-0.714427,0.57176,0.53723,0.0993703,0.837561
1.47569,0.310067,-1.05831,-1.21263,-2.16815,-0.187373,-0.0346068,0.786589,0.262341,0.805088,-0.114824,0.581935
1.69647,-0.595123,1.65144,-2.59457,-1.59374,-0.15191,-0.188454,0.620827,-0.0171337,0.961379,0.274654,0.0177466
0.179118,0.309695,-2.95322,1.32623,-0.122898,1.11715,0.129937,0.134451,0.123284,-0.953971,-0.227322,-0.195613
0.126325,0.309687,-0.534187,-1.63312,1.39034,2.44915,0.857225,0.218895,0.0737346,-0.550832,-0.833228,-0.0481147
-0.554681,0.309831,-1.64399,0.307015,-0.520281,-2.22526,0.548591,-0.211486,0.291938,0.968816,-0.244255,0.0416507
-1.35319,-1.04479,-1.40666,1.36259,2.4897,-1.54075,0.105447,0.0286709,0.662562,0.211398,-0.871686,-0.442125
1.73012,-0.28968,1.01477,1.17228,0.865557,-1.62896,-0.20474,0.586163,-0.019219,0.195637,-0.938484,0.28456
2.42402,-0.53702,2.52686,-0.154934,2.5167,-0.100757,-0.157817,-0.00713591,-0.0270251,-0.150876,-0.640871,-0.752676
0.81651,-1.51682,2.48066,-2.54723,-1.98455,-0.956773,0.154167,0.323468,0.192543,0.942097,0.232224,0.241918
2.53602,-0.352145,0.894221,-0.547887,-2.49722,-2.37227,-0.666831,0.328923,-0.0612697,0.223225,-0.679412,-0.698978
1.8129,0.111354,0.0890843,-3.14163,-0.318347,2.31954,-0.303906,0.775358,0.0565908,-0.0199876,-0.807749,-0.589187
2.41385,-0.345055,0.883015,-1.18185,1.98681,-1.21047,-0.665179,0.446403,-0.0437665,-0.719066,0.208666,-0.662875
1.54051,-0.450867,2.67689,0.518782,2.60054,2.22909,-0.105862,0.110194,0.0506291,0.338841,0.779447,-0.526924
1.33274,-0.216335,0.742779,-1.87976,1.12266,-3.10378,0.0935801,0.848515,-0.0371272,0.905947,-0.0857169,0.414623
1.31533,-0.275312,-1.53046,1.39324,-2.2086,2.01464,-0.0157439,0.37166,0.499455,-0.48449,-0.48979,0.724828
-0.333006,-1.38096,0.948982,0.371284,0.368829,2.99469,0.453543,-0.0413801,0.576272,0.745436,-0.635208,0.20208
-0.823936,-0.500545,1.49896,2.74847,-0.994247,0.495794,0.514313,-0.394893,0.0412225,-0.457146,-0.591662,-0.664043
0.631156,0.273961,-0.361264,1.14115,-1.2691,1.44656,0.514964,0.511576,-0.0384014,0.751566,0.40276,0.522429
1.6209,-0.524702,1.26353,-0.524803,-1.47443,-1.45632,-0.140951,0.631431,-0.0545749,0.124657,-0.21577,-0.968454
-2.93034,-0.273637,-2.65349,2.803,1.56746,0.985188,-0.0139192,-0.114617,0.193566,0.21857,-0.518397,0.826736
-0.20983,-0.567242,1.72056,2.9322,-2.49889,-2.92925,0.603838,-0.0169982,0.0144765,0.737934,0.441883,-0.510091
0.7782,0.145833,2.83181,-0.431185,2.30582,1.44411,-0.0905562,0.0640003,0.0417565,0.280298,0.407895,-0.868939
-1.70436,-1.03114,3.13056,-1.09672,0.328862,-1.83727,0.116065,0.0441656,0.0641265,0.00614539,0.684366,-0.729112
-1.59427,0.309734,-1.04094,-0.0690181,0.978341,-0.883813,0.0911727,-0.767019,0.15562,0.518745,-0.320341,-0.792645
0.968594,-2.24111,-2.34339,2.02843,2.93156,2.6686,-0.238216,-0.153871,0.112037,0.421379,0.28537,-0.860816
1.37037,-0.329391,0.894507,-1.18584,0.0763592,-2.67976,0.0500059,0.794415,-0.0604171,0.26308,0.951963,0.156702
-0.492084,-0.639934,2.40713,-3.14144,3.08976,-0.135363,0.36638,-0.0725603,-0.0602487,0.311219,-0.108584,0.944115
0.511083,0.164855,-0.0221492,-2.69681,2.37701,0.197804,0.696684,0.515829,0.042407,-0.940691,0.250655,0.228633
0.629653,-1.87269,-1.887,0.148598,0.829353,1.08543,-0.459391,-0.199657,0.352043,0.347934,0.679201,-0.646242
0.800762,-2.11224,2.7984,-1.88841,-1.96422,-2.39526,0.0418962,0.199992,0.170752,-0.116457,0.853954,-0.50715
1.5232,-0.630409,1.93034,2.6223,2.45377,2.21522,-0.0845318,0.51948,0.0289832,0.369872,-0.250718,-0.894615
0.476223,-0.493874,1.40141,-2.48131,-1.57637,0.666915,0.581289,0.422655,-0.0181818,-0.189554,-0.981867,0.00253465
-1.50147,-0.603879,2.01025,0.305536,0.163788,2.91635,0.131076,-0.312002,-0.0431569,-0.152608,-0.0966733,-0.983547
-2.0089,0.309741,-0.478694,3.14166,2.07767,0.939715,-0.230159,-0.748591,0.118874,0.529323,-0.0860448,-0.844046
-0.757491,-1.16681,1.21365,2.13222,-3.04221,-0.773072,0.424625,-0.251335,0.515667,-0.760889,0.621823,-0.185429
1.99665,-0.631641,2.27603,0.209924,-1.17598,0.44807,-0.191641,0.158254,-0.0246023,0.545761,0.810775,0.211636
0.913598,-0.998752,-1.04509,3.08903,0.0744847,2.82236,-0.105052,0.0425264,0.748183,0.512004,0.547881,-0.661573
0.264974,0.213017,-0.168401,-1.54849,-0.659158,1.29154,0.841637,0.341479,-0.0245143,-0.895487,-0.417918,-0.153127
1.48902,-0.43486,1.11831,-0.0697891,-3.13918,0.786517,-0.0569093,0.641884,-0.0568701,0.0821612,0.981664,0.172002
-0.639639,-0.508578,1.42048,-2.23184,1.09672,-0.251695,0.629219,-0.332083,-0.0375279,0.619846,0.612843,-0.490117
-2.11395,0.30976,-1.06734,-1.70724,-0.0646954,1.77343,-0.293681,-0.697637,0.302935,0.409119,0.652485,-0.637876
1.15041,-0.74634,2.34351,-3.14164,-1.60812,2.23782,0.0620881,0.406341,-0.0168899,-0.88517,-0.465261,-0.00239538
0.40829,-1.83739,1.67308,-1.43363,-0.555915,-2.42577,0.2959,0.246931,0.565872,0.428011,0.619015,0.658504
-0.741515,0.040496,-2.38199,0.475963,0.866261,-1.98407,0.252156,-0.0829312,0.380856,0.38385,-0.766489,0.514931
0.821482,-0.949459,2.25496,-1.483,-1.25153,-2.44088,0.170035,0.343018,-0.0369632,-0.292972,0.750586,-0.592274
1.96963,0.310075,-1.64594,-0.978748,1.9208,-0.470758,-0.320265,0.478904,0.405042,-0.820746,-0.208225,0.531995
2.30107,-1.81936,2.36354,-0.957954,-0.677639,-2.13657,-0.260819,0.127661,0.211362,-0.731878,0.313542,-0.605017
1.0177,-0.106047,0.344125,-0.0922887,1.77933,-1.26261,0.322154,0.729594,-0.0520079,-0.292596,0.0909738,-0.951899
0.802922,0.30994,-2.05056,0.953724,-1.73623,1.15799,0.203132,0.367518,0.279313,-0.133512,-0.707951,0.693527
-1.82018,-1.89721,1.39695,-0.559498,2.54688,-2.28986,0.0340836,-0.308419,0.633572,-0.453743,-0.286323,-0.843882
0.863103,0.0577131,0.268954,1.23812,3.12653,-2.19594,0.372867,0.603735,-0.0617927,-0.522718,-0.624551,0.580261
0.310615,-0.592485,1.90076,0.509634,0.563918,-1.70378,0.311868,0.214747,-0.0291698,-0.919509,-0.369598,0.133795
-2.67331,-0.608698,2.08649,0.187792,-0.331641,-0.830697,-0.210293,-0.228685,-0.0494229,0.503,0.500477,0.704637
0.873672,-1.83214,-1.73098,2.62885,0.891112,1.48596,-0.335105,-0.230169,0.282977,-0.58528,-0.596289,0.549443
1.49623,-0.41208,1.02642,-0.608054,1.16826,-1.10666,-0.0560003,0.715517,-0.0613699,-0.424205,-0.149797,-0.893091
-1.55243,-0.629675,-0.610402,-2.21512,1.04202,-0.602243,0.117243,-0.439588,0.800461,0.715455,-0.207581,0.667109
-1.02307,-1.1972,-0.660258,-2.48754,-0.720761,1.16918,0.0701992,0.0945185,0.895083,0.282018,-0.957743,-0.0565119
-0.199907,-2.05053,-1.49803,0.541292,0.214276,-2.35763,-0.51119,0.214942,0.404722,-0.60926,-0.0301907,0.792396
-2.91046,-1.1992,0.0243141,0.190386,-2.76781,-3.05958,-0.349203,-0.194314,0.794693,0.516632,-0.252273,-0.818199
