Fabiaho/6DOF-Inverse-Kinematic/src/user_input/data/ur5/ur5_test_data.csv
Shoulder_Pan,Shoulder_Lift,Elbow,Wrist_1,Wrist_2,Wrist_3,TCP_X,TCP_Y,TCP_Z,Orientation_X,Orientation_Y,Orientation_Z
-1.84583,-0.601368,-0.68355,-1.4954,1.8554,2.79774,-0.0292505,-0.505567,0.794482,-0.904425,0.122092,-0.408791
-0.0657126,0.309694,-2.18343,-0.86677,-1.96165,-2.44922,0.331183,0.0875918,0.42116,0.564818,0.676057,0.47321
-0.477423,-0.596567,1.87554,0.671065,1.8164,-1.51193,0.384566,-0.07606,-0.0126988,-0.802124,0.479223,0.35629
0.556049,-1.01812,1.89886,2.7087,-2.42494,-2.29745,0.378778,0.363905,0.233691,0.428058,0.779828,0.456766
-1.68003,-0.260476,0.936283,-2.59862,-2.03901,2.48742,0.0206792,-0.812642,-0.0141152,0.752738,0.367842,-0.545965
1.16651,-0.486941,1.17842,-1.18066,-2.58613,1.77168,0.18375,0.706942,-0.0456498,-0.336734,-0.519529,0.785302
1.86043,0.309655,-3.1291,-3.14159,1.36495,2.32926,-0.105389,-0.0285395,-0.00594403,0.54152,0.540337,0.644043
-1.35221,-1.95499,-2.37669,2.64808,-3.05607,2.91676,0.0607978,0.229646,0.129665,0.0569631,0.127572,-0.990192
-0.97707,-2.0772,-1.02584,-1.6499,-2.96558,-0.0548451,-0.297048,0.635194,0.4721,-0.153264,-0.0854511,-0.984484
3.01906,-1.62117,-0.969535,2.11319,3.0646,-2.82753,0.296442,-0.146482,0.634877,0.703909,-0.012978,-0.710172
2.29642,-0.636529,2.46529,-3.14179,-0.0152252,-2.54845,-0.302783,0.176851,-0.0616169,-0.508372,0.554073,0.659213
-1.43367,0.309861,-2.51674,0.947736,-0.944733,-1.5928,0.143916,-0.244458,0.24608,0.148279,-0.944144,-0.294289
0.436051,-0.433632,1.12456,-1.27871,0.0300479,-2.92517,0.625054,0.411671,-0.0609949,0.8567,0.366821,0.36264
-0.269179,-1.10585,0.693459,-2.46511,1.53495,-0.99485,0.582969,-0.0475987,0.717624,0.37395,0.461447,0.804505
2.86095,-0.260546,0.85208,-1.86985,-0.223551,-2.67923,-0.824769,0.124147,-0.0473801,-0.70715,-0.00265798,0.707058
-0.54558,-0.706199,1.12472,3.14168,-2.455,-2.34981,0.672307,-0.28043,0.292027,0.902765,-0.0270128,0.429286
-0.17655,0.165981,-0.202254,0.00498033,2.68996,1.8598,0.820628,-0.0355325,-0.061438,-0.303682,-0.0721687,0.950036
-0.93469,-0.571196,-0.952753,-2.82299,2.77205,-2.85445,0.258598,-0.166429,0.744575,-0.245922,-0.250105,0.936467
-2.2207,-0.145556,0.493867,-1.15326,2.59114,0.271763,-0.43194,-0.748677,-0.0486842,0.173879,-0.603933,0.777838
-1.365,0.309996,-1.65797,-1.57098,1.98743,-0.238416,0.211539,-0.479205,0.434378,0.802123,0.505972,0.317162
0.439723,0.309787,-0.303527,3.14158,-0.858819,-2.09963,0.675263,0.438297,0.0517878,-0.455975,0.207608,0.86544
-2.09486,-0.585778,2.53647,0.290707,-1.87573,1.14846,0.0271785,-0.1711,0.0186558,-0.657831,-0.356845,-0.663265
2.89103,-0.0398507,0.412344,2.15963,-1.76285,2.46591,-0.739918,0.0767104,0.0409445,-0.655061,-0.622963,-0.427565
-2.42897,0.0482884,-2.24383,2.04532,2.52035,1.14249,-0.0869613,-0.219397,0.293219,0.00840119,-0.31223,0.94997
0.0378977,-1.20941,2.67348,2.27911,0.711213,2.07085,0.241308,0.118378,0.174723,-0.783689,-0.342918,-0.517918
-0.437548,0.309982,-2.21195,0.310894,-0.82874,0.753131,0.383054,-0.0586861,0.332371,-0.838163,-0.201581,-0.506801
-0.357697,-0.641112,2.45362,-3.14196,3.09159,2.3178,0.355406,-0.0163167,-0.0601236,-0.831185,0.274423,-0.483552
-2.09338,-0.0260968,2.74903,-1.07732,0.152194,0.26881,0.108509,-0.0303001,-0.0521411,-0.0410835,-0.364168,0.930427
-2.67446,-0.598348,1.49879,-1.54712,-3.07222,-0.765969,-0.532891,-0.391019,-0.0543537,-0.90778,-0.4019,-0.12005
-0.0112122,0.309686,-3.03518,-2.141,-2.90362,-1.13036,-0.0462996,0.109676,0.103653,-0.831323,-0.0911871,-0.548258
-0.928771,0.309797,-1.91675,3.08936,-0.451211,-0.221,0.264851,-0.171947,0.343229,-0.517903,-0.0178188,0.855254
1.6113,-0.226358,0.870052,-2.50911,1.54637,-2.41954,-0.142201,0.813394,-0.0233848,0.724216,0.656993,0.209456
-1.60457,0.310057,-1.0447,-1.70845,0.888976,1.95709,0.0835354,-0.759931,0.294905,-0.266104,0.786947,-0.556689
1.48966,0.034958,0.141869,-1.55091,-2.06472,2.77739,-0.0355525,0.909572,-0.0131936,-0.855351,-0.3678,-0.364825
1.10078,-2.24146,1.28271,2.55414,0.878667,-0.234443,-0.15773,-0.0694995,0.745482,-0.765891,0.145702,0.626244
-0.759999,-2.04892,-0.74993,1.09503,-1.51641,-2.55667,-0.266327,0.403716,0.610876,0.965855,0.230572,0.118158
-0.359955,0.309796,-2.72339,0.373806,-2.98674,-2.67432,0.22224,0.0329837,0.263366,0.797725,-0.153095,-0.583264
-1.58287,0.167195,-0.0527208,-1.52215,0.645867,1.58587,0.0982541,-0.903401,-0.0417436,0.00281349,0.984697,0.174252
-1.04176,-0.532659,1.69161,0.601109,-2.24021,-1.33842,0.311341,-0.316281,-0.0366597,-0.651838,0.757154,0.0427325
2.0254,0.309792,-1.48472,2.01414,-0.622712,3.00976,-0.311293,0.388345,0.258276,-0.798623,0.317302,-0.51139
0.502106,-0.593581,1.82329,1.90971,-1.24328,3.07487,0.371121,0.32828,0.0518717,-0.735908,0.673722,-0.0673656
-0.0911425,0.309643,2.81883,-1.10043,0.78991,0.756568,-0.06212,0.115282,-0.00370413,0.885416,0.437749,0.156247
1.4381,-0.0250257,0.411126,1.55793,1.20398,-0.989884,-0.0155578,0.708394,-0.0134068,-0.601272,-0.632648,0.488086
-0.605546,0.0440593,0.231777,-2.9685,2.08394,-0.671292,0.755309,-0.390152,0.0488817,0.325514,0.604343,0.727194
-0.0332006,-0.495009,1.40162,-2.47543,-1.56877,-1.36991,0.713656,0.0855077,-0.0180014,0.972725,-0.231951,-0.00233896
-2.47827,-1.04907,1.29262,-1.37945,-1.58582,-2.18487,-0.467276,-0.503675,0.32315,-0.226426,-0.908125,-0.352193
-1.51671,-0.310003,1.08167,0.987384,-1.34479,-1.63605,0.141044,-0.586141,-0.0370047,0.0103149,0.984975,0.172391
0.339954,-0.512513,1.66219,-2.75293,-3.06247,0.251556,0.553155,0.311419,-0.0573424,-0.238555,-0.165576,0.95691
2.8183,-0.287999,1.01347,1.15687,0.805396,0.138466,-0.613908,0.0905733,-0.0213668,-0.550914,-0.568643,0.610851
0.571013,-2.2589,-0.961727,2.40017,-2.31834,-2.54141,-0.556822,-0.22797,0.321943,-0.301381,0.5257,-0.795493
-1.35376,-0.101252,0.614225,1.08999,-3.02415,-0.0140686,0.25086,-0.630764,-0.0573426,-0.124321,0.0196898,-0.992047
-1.70789,-1.57583,-1.80648,1.12356,1.68808,-0.213944,0.150487,0.292134,0.480738,0.948889,-0.223191,0.223151
1.49726,-0.345426,1.16997,0.928269,-1.70452,1.28432,-0.0667484,0.579576,-0.0378088,0.348105,0.913474,-0.210685
-2.63777,-0.482536,-2.65621,-0.726852,-0.00791435,-0.381684,0.121414,-0.0577038,0.358396,-0.396314,-0.210093,0.893754
-0.359003,0.309583,-1.97515,1.67667,1.34116,-2.6811,0.381603,-0.0266199,0.255524,-0.120201,-0.886612,-0.446622
-0.274462,-0.296492,0.723138,-0.861953,-1.6861,-1.46139,0.802968,-0.112696,-0.034814,0.385046,-0.221094,-0.896023
-1.65289,-0.390528,0.993989,-0.942338,0.0516207,-2.9832,0.0474898,-0.753868,-0.0609202,-0.13135,-0.975029,0.179069
-1.44361,-0.259298,0.774438,-1.56371,-0.34107,1.40923,0.214076,-0.813589,-0.0423274,-0.171467,0.916695,0.360928
1.05038,-0.6291,2.43346,0.336558,0.543892,-1.0797,-0.00859052,0.204522,0.00872196,-0.472552,-0.333758,0.815659
-1.73719,-2.41673,-0.937128,-2.22963,2.11967,-2.89535,0.233942,0.73394,0.215902,-0.725836,0.673602,0.139364
1.09961,-1.12704,-1.7451,-1.08406,2.19634,-0.876656,-0.217316,-0.186114,0.64236,-0.832564,-0.491801,0.254891
-1.92973,-0.478222,-2.16433,2.56559,-0.429497,-0.271988,0.0880773,-0.0759676,0.378099,-0.076078,0.939074,-0.335189
0.0279482,-2.18075,-0.761778,-0.758609,-1.29934,-0.165781,-0.68098,0.0901555,0.595307,0.163033,-0.945987,0.28023
-2.32619,-0.601259,1.97009,-3.12434,1.39815,-2.68976,-0.278538,-0.454985,-0.0373194,-0.919988,0.315823,0.232115
0.953569,0.310012,-1.06814,2.21718,-0.551825,-2.91263,0.255653,0.548798,0.218646,-0.493372,0.186986,-0.849482
-1.54492,0.30972,-1.40666,-2.16344,0.522538,2.4862,0.123929,-0.569538,0.402635,-0.411326,0.599499,-0.686594
-1.51473,-1.573,-2.74451,0.044623,2.40615,-2.5191,0.09567,0.243231,0.192365,-0.559421,0.240355,0.79327
-1.65429,-0.725993,2.77975,1.49718,-1.9209,1.22163,0.0943142,-0.181841,0.110751,-0.280077,0.50676,-0.815323
0.852015,-2.16528,0.419585,-0.962133,1.2253,-1.62725,-0.257637,-0.128708,0.913394,0.304841,0.267802,0.913977
2.33825,0.310131,-0.980878,3.1416,-1.37155,-2.89812,-0.53205,0.394287,0.277413,-0.476119,-0.876634,0.0694524
2.15772,-1.31322,0.133242,0.224239,1.76205,0.835862,-0.276402,0.218482,0.8082,-0.253312,-0.807857,0.532165
2.18545,0.309559,-1.47524,-1.11377,-1.83086,2.8973,-0.453202,0.452777,0.381787,-0.753806,-0.558101,-0.346843
1.47115,-0.41085,1.34261,0.788654,0.313558,0.152016,-0.0558827,0.538216,-0.0418399,-0.274535,0.318791,0.907195
-0.634782,0.309791,-2.63521,-0.16992,2.35969,-2.65809,0.220186,-0.0266028,0.320922,0.259315,-0.965766,-0.00718658
0.698353,0.30986,-0.869027,0.897851,0.144046,2.56605,0.470412,0.537411,0.0783735,0.815668,0.527505,0.237539
-0.218418,0.310108,-1.20529,-0.874537,1.5752,-2.3328,0.748819,-0.0544008,0.284251,0.54333,-0.827766,0.139984
1.31117,-0.607173,2.15111,0.0580935,3.06947,-3.1416,-0.0374701,0.284109,-0.057511,0.0776424,0.0116106,0.996914
-3.00544,-0.577661,-0.0256635,2.53736,0.155624,1.0313,-0.570286,-0.188296,0.577422,-0.962404,-0.212211,0.169542
0.11819,-2.33129,0.401044,-0.829321,0.0833587,-2.5485,-0.405747,0.061737,0.852078,-0.546359,-0.134404,0.826697
-0.961639,-0.70122,2.58768,-3.14159,1.56732,2.35277,0.257122,-0.177784,-0.0389052,-0.963406,0.149326,0.222598
2.20061,-0.62308,2.419,0.241388,1.27583,-1.04427,-0.190127,0.07555,-0.00261741,0.0275248,-0.854126,0.519338
2.38969,-0.738032,2.58758,-3.14162,-2.5402,-2.47254,-0.291828,0.123465,-0.0280372,-0.608699,-0.0384102,-0.792471
-1.46961,-0.503643,1.63079,0.4868,0.0936664,2.78025,0.153647,-0.432727,-0.0559217,-0.0554223,-0.320263,-0.945706
-0.183733,0.309919,-2.45426,2.75237,0.689879,-2.19103,0.155466,0.0821286,0.211339,-0.162838,-0.345991,-0.923999
-0.885419,-0.339346,0.902852,-1.0825,-0.0415889,-1.1529,0.57778,-0.534241,-0.0610789,0.0510135,-0.0890524,-0.99472
-0.0869804,-0.385129,1.12038,-2.00499,-2.83251,3.13395,0.781729,0.0413971,-0.0423565,-0.26226,0.328202,-0.907471
0.929004,0.309948,-1.72738,2.71191,-2.77676,-0.00217095,0.136223,0.364612,0.321354,0.437112,-0.0111103,-0.899338
0.245935,0.309713,2.89883,-0.201544,-0.791231,-1.98036,-0.0258889,0.106038,0.0796594,-0.457393,0.177188,0.871434
0.83951,-0.769018,-0.993071,3.14159,-1.2329,2.49819,0.0108521,0.175536,0.751816,-0.13481,0.980008,-0.146321
-1.10846,-0.651143,1.98618,-3.1416,-1.26479,2.33565,0.330387,-0.418239,-0.0125409,0.256302,0.965988,0.0342967
-0.00964617,0.309685,-3.02165,1.43566,0.265066,-0.966174,0.139802,0.107806,0.0955498,0.629475,0.142853,-0.763776
-1.60152,-0.588669,1.87204,3.14163,0.905308,-1.67765,0.092034,-0.558521,-0.0241881,-0.112575,-0.931834,0.344982
1.13285,-0.386172,0.91454,-0.0690439,1.51191,2.24054,0.193976,0.671622,-0.0333493,0.722506,0.0816236,0.68653
-1.26768,-0.212791,0.80684,0.917361,-0.433499,-1.79531,0.296998,-0.58395,-0.0462538,-0.197662,0.945287,-0.259542
-1.80257,-0.289298,0.974746,-2.25799,1.29591,-2.00564,-0.0788297,-0.809173,-0.0377339,-0.602895,-0.789353,0.115927
0.906988,0.309559,-1.74298,1.08278,1.51413,-1.57225,0.21656,0.454008,0.259351,0.21283,0.269722,-0.939124
2.22033,0.309845,-2.39244,1.75099,-0.632727,2.99468,-0.23418,0.127879,0.212068,-0.893227,0.208922,0.398116
1.68881,-0.0662989,0.273779,-0.251719,2.61039,-0.183972,-0.204008,0.793589,-0.0580434,-0.595216,0.790326,-0.14527
2.58107,-0.597388,-1.88762,-0.956507,-2.83233,1.67244,-0.068812,-0.0856783,0.658074,-0.343579,0.179192,-0.92187
0.194404,0.30954,2.83757,0.237672,1.97698,-2.94851,0.0135976,0.113923,0.053725,0.588767,-0.802951,0.0928615
-0.528144,-0.616422,2.29056,0.0681487,-0.73089,-2.83579,0.23903,-0.0130877,-0.0391461,-0.0400931,0.760373,-0.648248
-3.01591,-1.64125,-0.230033,-1.29723,-2.07163,-2.15255,0.161075,-0.0896662,0.982395,-0.178932,-0.50844,0.842302
-1.45407,-0.508808,1.52086,2.56793,1.01527,-2.64647,0.180532,-0.602355,0.0492941,-0.767949,0.129929,0.627194
0.398153,0.309904,2.78522,-1.43681,0.172676,-3.13409,-0.117315,0.0690675,-0.0504024,-0.0196391,-0.194654,-0.980675
0.389431,0.309718,3.02366,-2.17102,-2.37574,-2.39325,-0.103557,0.0754853,-0.00320401,-0.964634,0.153191,0.214508
-1.25858,-0.581739,1.74077,1.60486,0.921292,2.34467,0.250446,-0.420579,0.0512015,-0.569363,-0.0480657,-0.82068
1.70778,-1.30156,-3.05702,-2.40161,-2.84344,1.74911,-0.11094,0.00549947,0.0468096,0.0306554,-0.603928,0.796449
-0.967616,0.31014,-1.27048,1.48556,-2.96242,1.23136,0.420104,-0.417479,0.198965,0.380135,-0.656471,0.65157
1.16531,0.309988,-0.475861,-2.26241,1.26333,-0.79499,0.236398,0.827385,0.0958535,-0.365844,0.839792,0.401133
-1.67269,0.30966,-1.92514,-2.8693,-2.67903,2.72177,0.0785723,-0.304627,0.372862,0.346235,-0.619917,0.704148
-1.39482,-0.634095,1.96031,2.67614,0.84042,-0.657459,0.196598,-0.482173,0.0220717,0.72193,-0.691963,-0.00211026
1.63363,0.309938,-1.10979,0.309804,0.216157,-0.646752,-0.154313,0.714342,0.157367,-0.145448,-0.414063,-0.898553
3.1237,-0.65852,0.249479,-0.452181,2.84056,-0.0362224,-0.769657,-0.0953981,0.44358,-0.654475,-0.284655,0.700453
0.0599717,-0.699867,2.19806,-3.14156,-2.38403,2.97394,0.4406,0.135802,-0.0214461,-0.154899,0.669438,-0.726539
0.758103,0.268143,-0.303618,-1.50188,-1.31537,-2.75202,0.575877,0.695583,-0.0126928,-0.33409,0.91629,0.220901
1.37455,0.309948,-2.31497,1.1292,1.55588,-2.21695,-0.0461352,0.32771,0.254767,0.711189,0.489706,-0.504379
-0.365509,-0.645403,2.00774,1.96803,2.2926,-1.78067,0.448503,-0.0547744,0.0540155,0.241797,-0.259976,0.934851
0.806397,-0.680837,2.21496,-3.14177,-2.66381,-1.52267,0.225196,0.392566,-0.0318265,0.705709,0.704029,0.0794884
-0.079177,0.310136,-0.455084,2.41016,-0.531799,-0.273757,0.726506,0.05185,0.076681,0.283646,-0.512242,0.81065
-0.869537,0.309842,-2.4433,-1.08173,0.0087577,-2.01892,0.205049,-0.0736441,0.385746,-0.324428,0.378311,0.866964
-0.94055,-0.7493,0.648551,-0.0525683,-1.91328,-2.20537,0.510084,-0.514025,0.32455,0.407653,0.388688,-0.826281
-1.15303,-0.653813,2.12585,1.66592,-2.94728,-2.97743,0.252185,-0.299089,0.0519619,0.566604,-0.806901,0.166943
1.13311,-1.77215,1.17634,1.49258,-2.47929,1.2888,-0.0286241,0.196354,0.66662,0.531116,0.731233,0.428035
0.207682,-0.767811,-0.531358,1.48638,-1.83111,1.55056,0.362424,0.187917,0.66922,0.191125,0.0202897,0.981356
1.56748,-0.615803,2.2141,-3.1416,0.0394575,1.79205,-0.107722,0.43112,-0.0600583,0.00544496,-0.96925,0.246017
-0.854943,0.31005,-1.50924,-0.751689,-0.0400878,0.217563,0.499124,-0.407544,0.360081,0.076469,-0.147549,-0.986094
-0.439342,0.127439,0.0573064,-2.6745,-1.59674,-1.59081,0.828869,-0.268946,0.0383331,0.557805,-0.240054,0.794498
-0.428981,-0.609251,2.1436,0.0959518,0.120049,-3.1005,0.289429,-0.0123558,-0.0539938,-0.140708,-0.0672242,-0.987766
-1.03465,-0.103327,0.576411,-2.5019,-1.05436,-3.07085,0.531508,-0.680817,-0.0038753,0.666831,0.575825,0.473035
-1.73498,-2.29977,-0.805754,1.60704,2.66014,0.0337739,0.202592,0.555038,0.413455,0.451623,-0.105551,0.885944
1.5625,0.298894,-0.475676,0.164504,-0.606452,2.01181,-0.10256,0.794334,-0.0616487,-0.240463,0.341616,0.908557
-0.874991,0.309822,-2.66653,1.08657,1.79921,2.61258,0.223299,-0.0970989,0.20877,-0.991509,-0.124587,-0.0372514
0.269316,-0.32073,1.12839,0.797242,-0.121039,2.09813,0.529907,0.259498,-0.057097,0.799927,0.283832,-0.52873
-0.489669,-1.48905,-2.48583,-0.318899,1.49477,0.76071,-0.227124,0.244733,0.260893,0.915321,0.330597,-0.229986
0.00488243,-0.621972,2.05353,-3.14166,1.46302,-1.07046,0.493043,0.111559,-0.0385312,0.873746,0.481213,0.0707292
0.244116,-0.569281,1.77849,3.14159,1.89375,-2.32451,0.54153,0.247371,-0.0151575,0.893192,-0.446324,0.0547989
0.0842619,0.309695,-0.72425,-1.39002,-0.347436,2.08823,0.843659,0.180796,0.13955,-0.963984,0.087604,0.25112
-2.05582,-0.66541,2.19004,0.712947,1.30572,3.06455,-0.0330789,-0.296877,0.0182512,-0.804109,0.538023,-0.252864
0.326754,-0.865125,2.18068,-1.29618,2.09373,-0.896942,0.318073,0.223044,-0.0615149,0.107243,0.607156,-0.787312
-1.22293,-1.15086,0.0554151,0.730574,-1.89484,-0.0964507,0.234389,-0.326196,0.737576,-0.774394,-0.632281,0.0231252
0.0738058,-0.356273,1.13382,3.09494,2.54796,-2.7712,0.73096,0.163495,0.0326909,0.8532,-0.459779,-0.246277
2.16399,0.309844,-0.664776,-3.14159,-1.42571,-2.70246,-0.503988,0.552287,0.18464,-0.591416,-0.72491,0.353174
0.585999,-2.05202,-1.36933,0.216744,1.92088,-1.31246,-0.543327,-0.229641,0.452046,-0.256295,0.11791,0.95938
1.27717,0.309877,-0.819368,3.14165,2.87059,0.942129,0.0984158,0.702618,0.233503,-0.179691,-0.0503643,-0.982433
0.927487,-1.44038,0.622663,2.26234,-0.439039,1.79896,0.0504082,0.249201,0.78482,0.518181,0.851471,-0.0805375
-0.743441,-0.497523,1.57804,-2.85115,-3.09465,0.759344,0.553062,-0.360223,-0.0352645,-0.625618,0.528967,0.573406
-0.741706,-2.19583,-3.03506,2.64692,-1.49022,-1.51282,0.0706384,0.0833162,0.173429,0.353407,-0.402132,0.844626
-1.36688,-0.650316,2.42757,1.66005,-1.40482,-1.42231,0.164691,-0.257412,0.0530917,-0.0797817,-0.334687,0.938946
2.05567,-0.192905,0.802944,1.15843,-1.0767,1.46421,-0.397577,0.520495,-0.035496,-0.376181,0.915003,-0.145802
2.15363,-0.56879,1.81431,0.540368,-2.54301,2.8139,-0.306314,0.266345,-0.0334104,-0.710368,0.108291,0.69545
-1.52524,0.30971,-1.34113,1.88349,-3.10715,1.6243,0.1334,-0.529476,0.233869,0.0344621,-0.715551,0.69771
-1.19702,-0.830695,2.06132,-1.24398,-1.28291,2.00757,0.254508,-0.349974,-0.061436,0.41704,0.0475593,0.907643
0.202255,-0.55416,1.81995,0.308547,-0.00756462,-2.93562,0.354773,0.184171,-0.0610042,-0.205237,-0.034527,-0.978103
0.695318,-0.639227,2.17952,-3.14172,0.421739,2.40837,0.273806,0.370591,-0.046466,-0.334741,-0.675393,0.657109
-2.07198,-2.2434,-0.342435,1.49524,-0.832286,3.12696,0.342711,0.398391,0.584819,0.505293,-0.616579,0.603746
2.78047,-2.13105,2.44829,-0.321405,-2.86946,-0.347316,-0.176295,-0.0500915,0.232175,-0.759292,0.556934,-0.3366
-0.364609,-1.95669,-2.31103,-1.33971,1.41436,-3.12711,-0.323476,0.240293,0.0549515,-0.247104,-0.962868,-0.108741
0.665221,-2.16599,-2.67485,-1.78374,3.03371,0.65048,-0.190384,-0.0106269,-0.0371306,0.374147,0.402429,0.835503
1.72064,0.310435,3.02012,3.01009,-2.81022,1.33763,-0.110014,-0.00246907,-0.0614796,0.0334287,0.282164,0.958784
-1.58799,0.309677,-3.03915,-3.11526,0.0949732,-2.20584,0.109045,-0.00706789,0.0310604,-0.0595623,-0.191905,-0.979604
0.0441958,-0.42063,1.12558,-1.79014,-2.68102,-2.42674,0.764842,0.143082,-0.0356509,0.248896,0.346986,-0.904241
-0.866324,-2.04368,1.28104,-2.57209,-2.06387,-1.94173,0.12971,0.0159308,0.831389,0.236491,0.214794,0.947595
-1.02417,-0.675438,1.64864,-1.60116,0.959412,1.37951,0.409285,-0.462658,-0.0459782,-0.212724,0.649096,0.730358
-0.509455,0.310628,2.91215,1.86222,2.52159,1.20332,0.142155,0.0456131,-0.0433915,-0.564084,0.554232,0.612076
2.67086,-1.82416,2.71398,-2.79715,-2.79185,-1.6859,-0.254266,0.00692223,0.227082,-0.885282,0.406351,0.226176
0.825316,-0.570607,1.78305,3.14161,-2.82343,-0.399407,0.315863,0.503054,-0.0154164,0.25061,-0.153413,0.955855
-1.66038,-0.60751,1.96009,3.08011,-0.679427,1.47213,0.0617573,-0.532507,-0.0250582,0.0220271,0.937094,-0.348381
-1.84355,-0.00522118,-2.67963,-0.303323,-2.18937,1.3275,0.0815666,-0.113587,0.357907,-0.111869,0.328655,-0.937801
1.56205,0.309715,-0.74056,1.96555,-1.30645,1.96711,-0.103317,0.667523,0.120028,-0.364505,0.928751,-0.0675109
-2.04824,0.309812,-2.33975,0.843728,2.61383,0.963462,-0.049486,-0.333185,0.275701,0.520031,0.379718,0.765102
0.0074384,-0.608456,2.06359,-3.14062,3.10186,2.28838,0.487197,0.112777,-0.0467078,-0.673039,-0.03113,-0.738951
-1.00956,-0.149646,0.453149,-0.145885,0.411212,1.62213,0.507395,-0.602014,-0.0581854,0.0907905,-0.18295,0.978921
-0.778785,-0.362504,1.14467,2.95387,-2.9992,2.80474,0.595295,-0.434123,0.041819,0.513219,-0.318306,-0.797049
-0.935993,0.309813,-1.03787,2.24586,-1.01395,-2.1548,0.445508,-0.420842,0.215582,-0.108005,0.935941,-0.335186
2.41073,-0.914355,0.00735848,-0.736754,2.72849,-2.01028,-0.516227,0.316198,0.741688,-0.579178,0.748617,-0.322684
-0.191405,-2.38346,-0.559392,-0.661928,-2.08753,-1.23656,-0.701224,0.247061,0.543499,-0.610971,-0.17213,0.772713
1.87994,-0.250803,0.881661,-3.14125,-1.98463,1.86974,-0.342598,0.713918,0.0396853,-0.114375,-0.528172,-0.841399
0.641133,0.309845,2.94332,-0.628569,-1.34764,-2.147,-0.0907936,0.0684361,0.0855262,-0.733956,0.115235,0.66935
1.86095,-0.630898,2.33775,0.212686,0.987625,0.91478,-0.162101,0.1614,-0.0164275,-0.733769,0.677915,0.0448843
-0.765156,0.309987,-1.99091,-0.89529,0.949259,1.61707,0.373012,-0.206879,0.429309,-0.428447,0.359308,-0.829055
1.27951,0.309992,-2.98636,3.14153,2.29885,-1.88076,-0.101185,0.0425754,0.0508913,0.0433217,-0.648346,-0.760113
2.1347,-0.128976,-0.588765,-0.0558611,-2.69366,0.71211,-0.510801,0.603502,0.334086,0.260227,0.201904,0.944202
-1.57644,-0.640065,1.59757,-1.74732,2.30361,-3.05736,0.105572,-0.634465,-0.0444087,-0.738339,0.413682,-0.532656
-2.35828,-1.15346,0.594047,-2.69144,0.0720066,2.27095,-0.273301,-0.426204,0.779933,0.360868,0.424788,-0.830259
-0.568212,0.30961,2.83137,-0.915323,-1.12768,-1.96134,0.00603408,0.125646,0.0170723,-0.516882,0.738047,0.433728
-0.647185,-0.602394,2.08227,-3.04958,3.13175,-0.892515,0.449113,-0.20261,-0.0607618,0.625468,-0.464967,0.626575
0.199004,0.309989,-1.53442,-2.47053,-0.264318,-1.33517,0.45695,0.203502,0.408993,-0.300961,-0.122912,0.945682
2.1669,0.310117,-1.22066,1.36307,0.302166,-1.55808,-0.429376,0.43848,0.184152,0.248454,-0.372962,-0.893963
-2.50404,0.283981,-0.959446,-1.40915,-2.96495,-2.28999,-0.57508,-0.561825,0.261862,-0.713711,-0.672746,-0.195009
-3.10865,0.309526,2.83572,0.815376,-2.02042,-2.92786,-0.0780562,-0.111782,0.0257726,-0.415779,-0.894298,-0.165406
1.46917,0.138318,0.0735706,-1.72709,-3.08742,-0.98493,-0.0173928,0.905358,-0.0571917,0.117297,0.855139,0.504954
-0.338584,-0.554887,1.57431,-2.39108,2.39741,2.13719,0.658306,-0.116099,-0.0397775,-0.974588,-0.0421555,-0.220002
-2.61254,0.301489,-1.82067,0.506065,1.93149,-0.512708,-0.38206,-0.349802,0.304596,-0.088307,-0.996092,0.00134581
2.95963,-0.21251,-2.86633,0.0799617,1.25928,1.46192,-0.0565581,-0.100576,0.297085,0.0879161,-0.121347,-0.988709
-2.33542,0.310381,2.83472,0.165131,-2.86779,-1.9687,0.0591544,-0.0960059,0.0540388,-0.286095,-0.449584,0.846182
1.58288,-0.0664206,0.474112,1.94744,-2.71478,2.83433,-0.117805,0.715794,0.0286998,-0.404539,0.822141,0.40054
2.46761,-2.19605,2.15863,0.0189106,0.410309,-3.08772,-0.181394,0.00519329,0.353795,-0.46752,0.883212,-0.0368907
0.841285,-0.969224,2.64537,-1.23353,1.20904,-1.80912,0.0244294,0.191089,-0.0360557,-0.0624679,-0.40115,-0.91388
0.301097,0.309643,2.77962,-1.49943,-0.0491364,-3.08338,-0.110259,0.080052,-0.0590623,-0.0882127,0.0239498,-0.995814
-1.58652,0.310001,-1.3142,1.01339,-0.892431,-1.52469,0.0994731,-0.616058,0.195816,-0.0352783,0.0386635,-0.998629
-0.876276,0.310171,-0.545309,-0.877962,-2.03544,-3.10534,0.641375,-0.599448,0.00900158,0.580614,0.698848,-0.417731
1.245,-0.0393005,0.230829,0.143948,-2.78562,-2.94684,0.14579,0.772567,-0.0581846,-0.622243,-0.773571,0.120009
1.74996,-0.296984,0.868609,-1.98721,-1.70481,1.26018,-0.255278,0.797065,-0.0133089,0.464572,-0.865449,0.18754
2.50029,0.309964,2.84577,1.84139,-0.0230058,-1.19378,-0.148134,-0.0256215,-0.0615183,-0.62713,0.478762,-0.614406
2.48296,-1.35789,1.31202,0.323594,-0.388272,0.0164805,-0.427177,0.192579,0.431529,0.931929,-0.242574,0.269567
0.313669,0.309745,3.05181,-3.14158,-1.95745,-1.47604,-0.0324203,0.104232,-0.0471708,-0.146471,-0.139636,-0.97931
-0.296832,-1.59842,2.66847,1.08411,0.0562265,0.864184,0.125233,0.0758368,0.222042,0.959146,-0.255217,0.122081
-0.110991,-0.617427,1.91748,-2.87013,1.56874,2.22464,0.554817,0.047992,-0.0428215,-0.856239,-0.516576,0.00182194
-1.56928,0.31003,-0.656773,2.95399,0.367473,-1.42576,0.110248,-0.725273,0.174253,0.051336,0.387936,0.920256
2.81876,0.169518,0.02496,1.34702,-3.1416,-0.631084,-0.707148,0.121468,-0.0611188,0.536866,-0.179607,-0.824328
-2.9125,-1.01414,-1.19425,-1.11637,-1.08791,-1.81956,0.0502896,-0.100351,0.858246,0.330924,-0.146741,0.932178
-2.91892,-2.23244,-0.779051,2.92552,0.283124,2.86256,0.650189,0.0353044,0.381067,-0.933177,0.064057,0.353662
0.369132,-1.85778,1.58784,3.14167,1.39639,1.18369,0.177466,0.185688,0.692605,0.15499,0.4586,-0.875022
1.72782,0.309875,-2.58209,-2.46939,-2.1152,0.869825,-0.116725,0.0392588,0.256446,0.423956,0.850404,-0.311566
-0.670594,-1.97178,-2.83176,-2.42231,0.341638,2.93656,0.0258403,0.118822,0.0342063,0.0917817,-0.49148,0.866039
1.63508,0.205818,-0.291508,-0.0630921,2.22694,-2.36286,-0.161659,0.812163,-0.0577311,0.583733,-0.288425,-0.75899
-0.170952,-0.261091,0.710975,-1.1357,2.2284,1.89895,0.83032,-0.0325793,-0.0449574,-0.784401,-0.123439,0.607847
-0.00935451,0.309704,-0.632128,-0.392422,2.33633,3.12635,0.839845,0.101298,0.0124405,-0.539942,-0.715908,-0.44265
1.50742,0.31003,-1.19246,-0.143663,-2.28156,-2.81041,-0.0623892,0.740314,0.213383,-0.717873,0.00389553,-0.696163
-1.24601,0.309746,-0.620979,0.0622284,0.620979,2.0094,0.359207,-0.724772,-0.0119991,-0.198551,-0.184639,0.962541
-1.75463,-1.82227,2.67731,-0.919518,-1.55599,1.07555,0.0784764,-0.175031,0.110348,-0.455544,0.149508,0.877569
-1.03165,-1.16729,2.341,3.04923,-2.54498,-0.997502,0.30011,-0.28903,0.162796,0.0108589,-0.611731,0.790991
-0.308682,0.309982,2.82638,1.0052,-1.12958,-0.422084,0.120948,0.0759976,0.00860552,0.27836,-0.954561,-0.10644
-0.379842,-0.562842,-1.64977,1.71874,2.672,-1.59719,0.197876,0.0385289,0.546792,0.416426,-0.179107,-0.891353
1.76104,0.309711,-2.8635,2.7554,-0.777786,1.17674,-0.118415,0.0376987,0.0844097,0.280267,-0.0306581,0.959432
-2.30371,-0.542922,1.67294,3.14161,-2.81658,-3.13549,-0.331566,-0.531478,-0.00564859,-0.0368468,-0.518205,-0.854462
1.53801,0.309921,-2.90709,-0.804504,1.586,-2.55689,-0.10762,0.0484241,0.254163,0.829083,-0.156947,0.536646
-2.40695,-0.935194,-0.331701,2.27317,-1.85475,-0.614227,-0.141827,-0.275203,0.754799,-0.255441,0.826427,-0.501765
-3.10493,-0.870598,-2.1992,2.28591,-0.684379,0.831831,0.0545226,-0.107224,0.375272,0.875238,0.458182,0.155009
1.39805,-0.606636,1.66904,-2.07885,-0.0246076,-0.0782269,-0.00085806,0.630104,-0.0610102,-0.054589,-0.455578,-0.888521
-0.515061,-0.701754,2.61434,-3.14159,1.24138,-2.21473,0.299425,-0.0440595,-0.037764,0.432547,-0.897588,-0.0850773
-0.393183,-0.574306,1.79926,3.14161,-2.37642,-1.34449,0.576481,-0.120947,-0.0169012,0.736632,-0.473803,0.48258
0.0628125,-0.116172,0.396522,-1.28017,-0.947207,-0.428696,0.870123,0.164092,-0.0212652,0.108926,-0.732935,-0.671521
-2.89966,-1.62638,0.290211,-0.40611,-2.62702,2.80484,-0.130007,-0.144506,0.911157,0.291264,-0.40658,-0.865943
-1.43334,0.30967,-2.09661,-2.59442,-1.00303,-2.12685,0.139794,-0.214014,0.373529,0.318125,0.948018,0.00761436
-2.20022,-0.282568,2.67748,-0.739307,-0.293086,0.858202,0.0729596,-0.0852279,-0.0507437,-0.627735,-0.541131,0.559577
-0.746955,-0.649741,1.98118,-3.1416,-1.25913,-0.104003,0.45817,-0.275477,-0.0123508,-0.516119,-0.812287,-0.271683
-0.965351,-0.702132,2.57976,-3.1419,1.57652,1.84298,0.258346,-0.18146,-0.0388466,-0.743937,0.602443,0.28917
-0.329327,-1.11702,2.54726,0.486348,2.78559,3.06032,0.17933,0.0540588,0.114847,0.259556,-0.455821,0.851386
-2.78759,-1.56008,2.72129,0.46902,-3.02379,-0.483479,-0.0243284,-0.125357,0.159951,0.448187,0.276575,-0.850079
0.450698,-0.438946,1.35078,3.14173,2.03932,0.553443,0.582306,0.403046,0.0175971,-0.916439,0.399768,-0.0180215
2.53878,-2.11224,-0.347585,1.32233,1.68802,-0.302146,0.298669,-0.338069,0.660811,-0.798648,-0.601335,-0.0236015
-3.00516,-1.06805,-2.55012,3.14159,-2.39444,-2.15914,0.114255,-0.0944878,0.197526,0.0316519,-0.37633,-0.925945
1.5205,0.309736,-0.934073,-2.58736,-2.35517,2.0878,-0.0729935,0.72098,0.283327,-0.328846,0.426258,-0.842712
3.12138,-2.30414,0.984305,3.14157,2.31026,2.0054,0.276493,-0.114761,0.808373,-0.942606,0.330199,0.0496271
1.97542,0.310253,-0.445976,2.71817,-2.10777,-2.93841,-0.392891,0.640166,0.0927165,-0.898685,-0.0392901,0.436832
-0.74677,-0.582362,-0.43066,-1.38124,-1.39484,-0.426321,0.534212,-0.345728,0.725133,-0.316858,-0.928212,0.194995
-1.40484,0.309721,-3.10841,-2.04963,-0.20766,0.474931,0.0980009,0.0756413,0.0786811,-0.12547,-0.360825,0.924155
-0.829513,-2.2893,-2.69014,-2.33745,-2.30919,2.32629,0.0164107,0.143721,-0.0176776,-0.207739,0.977888,-0.0240911
-3.11479,-1.63641,-0.789527,-2.62148,2.06691,-2.47116,0.416049,-0.0980343,0.739483,0.690693,0.707852,0.147946
-1.17997,-0.593694,2.01651,0.143431,0.0137874,1.14744,0.221095,-0.250089,-0.0614781,0.351844,-0.839072,0.414926
1.81894,-1.17873,-0.554852,1.28831,-2.10748,2.63022,-0.140089,0.108503,0.783554,-0.575915,-0.778469,0.249617
0.195356,-1.26645,3.09566,1.79707,1.26084,-0.691442,0.0486798,0.120899,0.19915,0.352989,0.817692,0.454729
-1.68939,-0.621265,2.68334,2.33815,-1.86184,-0.0169195,0.0787323,-0.26177,0.0197461,-0.942559,0.18483,0.278244
-1.73822,-1.76667,-0.980501,3.14159,1.90625,2.70715,0.187814,0.456301,0.569382,-0.825582,0.255084,0.503336
0.763199,0.309773,-2.36665,-0.865123,1.24012,-0.725412,0.0995327,0.246255,0.398795,-0.213407,0.77519,0.594591
-1.66016,-0.311967,1.0345,-2.99824,2.86885,3.04719,0.0399251,-0.777482,0.0215436,-0.316141,-0.523308,-0.79133
-0.114399,0.309818,-1.12016,2.89987,0.449578,-1.72967,0.60151,0.0407539,0.290701,-0.929933,0.0376438,0.365796
-0.0737538,0.145368,-0.196102,-0.234435,-1.79674,0.923491,0.844652,0.047038,-0.0433408,-0.137821,-0.57913,0.803501
3.02707,0.260253,-2.28385,-0.423532,2.99534,2.78343,-0.310165,-0.0741931,0.405245,-0.468821,0.191311,-0.862326
0.205339,-0.627451,1.98963,0.67694,0.364738,0.378292,0.311411,0.176351,-0.00235199,0.638705,0.471624,0.607969
0.205976,0.30936,2.83431,-0.856267,-1.52452,0.4808,-0.0798754,0.0948179,0.0227498,0.548874,-0.790121,-0.272849
0.188935,-1.82569,2.69624,1.89622,-2.7668,-3.00475,0.0884807,0.128046,0.288559,0.725443,0.507942,0.464464
2.4209,-0.900209,2.34417,-1.47854,-0.611567,2.83016,-0.31021,0.127184,-0.0615642,-0.937924,0.0963726,0.333184
-1.91925,-1.64386,1.69655,3.14162,1.24389,-2.26042,-0.0222667,-0.380963,0.586883,-0.510559,0.359291,0.781178
-2.19282,0.144951,-0.182246,-0.856937,-1.35843,2.31212,-0.427735,-0.783915,-0.0168658,0.819641,0.0103438,0.572784
0.0500664,-0.620705,1.92947,1.81696,0.565546,-2.73814,0.439812,0.131325,0.0521204,-0.756993,-0.531401,0.380229
-2.53257,-1.3033,-1.87591,1.30751,-0.796738,1.72991,0.217657,0.0187329,0.512346,0.865201,0.465314,-0.186845
-1.9396,-1.64287,-0.668554,2.02131,-2.12597,2.83241,0.198497,0.210815,0.71186,0.959903,0.23812,0.147937
-0.613245,-1.53708,1.80475,0.855473,-0.14915,0.0338699,0.314111,-0.0875885,0.369205,-0.41036,0.107191,0.905602
-1.17432,-1.1699,3.06327,-2.53987,-0.667484,-0.813092,0.138729,-0.0487285,0.0328936,-0.38981,-0.170515,-0.904971
0.681197,0.309739,3.02868,-2.87341,-1.16876,-1.8835,-0.0860922,0.0707187,-0.0482782,-0.426151,0.0189782,-0.904453
-0.385882,-0.779646,2.22063,1.32965,-0.228759,-0.744953,0.336355,-0.0188306,0.0872082,0.327772,-0.31309,0.89137
0.458905,0.309809,2.87856,0.391672,-1.7418,0.627745,-0.0007187,0.121391,0.0636249,0.0179438,-0.880721,-0.473295
0.708119,0.3095,3.03051,-2.91045,-1.22715,-3.06612,-0.0855505,0.0704429,-0.0490199,-0.402476,0.891376,-0.208475
-0.129191,0.309869,2.8117,1.22104,-1.13765,2.02096,0.114061,0.0952491,-0.0140841,-0.847094,0.5083,-0.155123
0.898086,-0.593844,1.92883,-3.0962,1.32485,1.5797,0.249125,0.487876,-0.036513,-0.605323,-0.773671,-0.187127
1.62606,0.309939,-1.13058,3.14159,1.77351,-0.376293,-0.142288,0.595973,0.311025,-0.887698,-0.446207,0.113543
-1.77506,-1.24741,-0.155497,-2.64299,1.07415,-1.73513,0.0812795,-0.145726,0.937379,0.0262288,0.835647,0.54864
-0.115047,-0.625789,2.19986,2.94048,2.05847,1.66269,0.445629,0.0583808,-0.0355474,-0.970813,0.0305766,-0.237881
0.0568244,0.309266,2.84017,0.336931,-1.0673,2.50635,0.038318,0.111506,0.0519624,-0.605191,0.671752,-0.427192
1.16289,0.309866,-1.40564,1.30114,1.20569,1.46717,0.123875,0.561809,0.215724,-0.0225791,0.191325,0.981267
-2.83517,-1.90074,2.15441,0.436436,-0.900727,0.478919,-0.140353,-0.158889,0.319803,-0.0842825,0.702918,0.70626
-0.313821,0.309924,-2.52896,1.54301,-2.73298,2.26923,0.24974,0.0337025,0.198387,-0.814741,0.533032,0.228199
2.93424,-2.19852,-1.98117,-0.42441,-1.56257,-0.201732,0.508807,-0.218582,0.105468,0.395766,0.917872,0.0296642
2.33758,0.309741,-2.16439,0.472675,0.804985,-2.52173,-0.347732,0.203607,0.318401,-0.0468474,0.894252,0.445104
-1.11958,-0.473711,1.42577,1.62046,0.183121,-0.152959,0.340111,-0.451592,0.0432416,0.483141,-0.584353,0.652002
2.3114,-0.444656,1.41721,0.853318,0.586993,-2.91604,-0.426694,0.304976,-0.0282737,0.682608,0.0533892,-0.728832
2.4026,-0.648813,2.13321,-3.13952,2.25378,-1.14518,-0.418553,0.233733,-0.0368536,-0.870305,0.359765,0.33636
-0.198606,-0.179038,-3.05693,1.35068,3.10302,0.640449,0.136932,0.0837799,0.157159,-0.793947,0.191331,0.577096
1.52683,0.309681,-2.92677,-1.73006,-0.339684,2.43982,-0.110062,-0.0183246,0.189877,-0.23901,0.356656,-0.903145
-0.418972,0.00694987,0.0885428,0.28097,1.98657,-1.39235,0.75754,-0.217878,-0.0392165,-0.203536,0.268399,-0.94156
-1.21945,0.232796,-0.349392,-0.161471,2.16255,1.25,0.387831,-0.740887,-0.0542711,0.214274,0.175847,0.960814
0.271909,0.286834,-0.472757,0.743377,0.708636,0.499306,0.686439,0.304703,-0.0388923,-0.454308,0.46647,0.758953
-1.11436,-1.23505,-0.912479,-1.35848,1.71181,0.631116,0.0505539,0.144687,0.907667,0.763483,0.258721,-0.59174
-0.386836,-0.225919,0.620597,-1.00724,1.41597,-2.06803,0.810509,-0.212311,-0.0439052,0.345941,-0.649813,-0.676807
-0.549584,0.309924,-3.07952,-0.654252,-3.07028,2.51822,0.068071,0.0863031,0.193018,0.832136,-0.441867,-0.335118
1.77655,-0.0953991,0.598998,1.12056,0.109319,-0.0518081,-0.244165,0.635628,-0.0546022,-0.106909,-0.0210533,0.994046
1.61159,0.309963,-1.07779,1.54071,1.45143,0.252489,-0.134378,0.615886,0.164212,-0.96435,0.0525883,0.259352
-2.48644,0.309801,2.79611,-1.34113,-0.529416,0.195074,0.130025,-0.0377432,-0.0361579,-0.582118,0.177536,0.793486
-0.833116,-0.58804,1.97428,0.214166,-0.107173,0.575754,0.303386,-0.171528,-0.0578666,0.316243,-0.481363,0.817484
-1.69398,0.310052,-1.07674,1.07492,2.01037,2.6732,0.0274104,-0.666945,0.141423,-0.773718,0.32237,0.545379
-1.9754,-1.49794,-2.13694,-0.167708,1.62038,-0.597033,0.247034,0.299602,0.402006,0.907898,0.0218575,0.41862
3.0629,-1.92178,0.899323,3.14171,-2.46759,0.0813851,0.0137721,-0.110575,0.872339,0.384503,0.593661,-0.706911
0.0328483,-2.06571,0.719559,0.342546,-1.41035,-1.5734,-0.0382165,0.107953,0.794705,0.843095,0.0302714,-0.536912
-2.12138,-0.547205,1.73523,-2.97143,-2.67792,-3.05772,-0.22192,-0.570109,-0.0336053,0.238565,-0.463225,-0.853528
-0.500788,-0.405275,1.3241,0.830095,-1.51853,1.33655,0.522078,-0.161318,-0.0383001,0.730346,-0.663976,-0.160408
-1.3736,0.236307,-0.348698,0.0667243,2.54785,-1.84497,0.265197,-0.770256,-0.0608976,-0.183854,0.147064,-0.97189
1.79588,0.035511,0.253867,2.57988,2.69348,-1.80424,-0.279416,0.731298,0.0533008,0.111288,-0.0369745,0.9931
-2.38209,-2.21779,2.13955,3.04095,2.33309,-2.66315,-0.0104313,-0.160419,0.552064,-0.820149,0.106623,0.562128
-1.38955,0.0304455,0.0703416,0.296902,-1.13977,-0.0956927,0.247674,-0.74598,-0.0505086,-0.965353,0.250533,0.0729804
0.61211,-0.472766,1.42285,1.59886,2.69577,-1.33637,0.390413,0.407459,0.0421099,-0.644465,-0.330076,0.689721
2.08424,-1.46428,-1.53,1.58684,0.80587,-2.8091,0.0274399,-0.27088,0.55393,0.383518,0.708199,0.592763
0.85526,-0.458311,1.11477,-1.638,-1.42583,0.434638,0.42312,0.653173,-0.0148033,0.399964,-0.907955,0.125083
-2.19526,0.309785,-2.00414,-1.05966,2.45173,-3.12214,-0.140753,-0.381999,0.436485,-0.937963,-0.213185,-0.273455
-0.709709,-0.623697,2.5992,-3.1418,3.08789,2.35715,0.281658,-0.098058,-0.0604375,-0.728367,0.575601,-0.371707
-1.47592,0.30974,-1.35284,1.37833,0.137427,2.55845,0.162764,-0.558243,0.209125,-0.0227109,-0.968502,0.247967
2.02063,0.309746,-2.46506,-0.662006,0.522214,0.298463,-0.193294,0.149294,0.376457,-0.73001,0.415444,-0.54267
-0.533558,-0.775684,0.50043,3.14172,-2.34137,1.79365,0.61964,-0.239255,0.584446,0.436338,-0.0735663,-0.896771
2.00209,-1.24503,0.531637,2.05241,2.93112,1.61533,-0.241499,0.263686,0.726753,-0.393837,0.878061,0.27185
-0.915239,-0.363723,1.18983,1.11145,1.11417,0.448382,0.436853,-0.389021,-0.0141246,0.974709,0.0593228,0.215458
-1.06775,0.309755,-2.06034,-3.06555,-2.91578,1.19197,0.211569,-0.158076,0.335734,0.39096,-0.882245,-0.262287
-1.86058,-1.75855,0.258127,3.14162,1.15497,-1.68897,0.146365,0.108881,0.904627,0.180652,0.983293,0.0223437
0.943532,-0.494491,1.51197,3.14162,-2.84498,1.99378,0.299444,0.599031,0.00687415,-0.431413,-0.390697,-0.813166
0.711339,-0.659164,-1.23826,-0.324748,0.347239,-2.86537,0.144915,0.268991,0.778349,-0.037435,-0.464485,0.88479
2.77279,-0.384268,0.97745,-1.65866,-2.04222,2.71358,-0.787485,0.18733,-0.0166043,0.233132,-0.959088,-0.160621
0.76018,-0.972109,-2.2646,-0.458691,-1.41713,1.33475,-0.220691,-0.0592206,0.483489,0.551889,0.205836,-0.808115
1.69928,-0.557325,-1.02335,1.8057,2.3661,-1.803,-0.151263,0.318938,0.613916,0.20812,-0.353574,-0.91196
0.618448,-0.780342,1.90521,-1.24115,2.48401,-1.77899,0.329598,0.368494,-0.0597472,0.0333393,-0.131324,-0.990779
0.940961,0.30975,-0.422673,2.08458,0.676815,-1.37207,0.328448,0.635941,0.0407442,-0.596193,-0.608056,0.524234
-1.54891,-0.254836,0.752483,-1.53404,2.09399,1.07285,0.127447,-0.834812,-0.0391557,0.399747,0.643423,0.652847
1.77814,0.309824,3.12492,3.00363,0.439806,-2.68575,-0.109822,-0.00816403,-0.0205839,0.222865,0.7976,-0.560504
-0.850025,0.309764,2.83723,-0.7914,-1.1965,-2.04428,0.0460758,0.112935,0.0286112,-0.17446,0.841704,0.510977
1.14347,-0.644064,2.11638,-3.14159,0.913142,-2.32262,0.0965332,0.475353,-0.0366928,0.776163,0.40017,0.487272
-1.47857,0.309806,2.80808,1.26698,-0.876492,-0.462125,0.118103,-0.0917589,-0.0192612,-0.629117,-0.667173,-0.398862
0.934265,0.251979,-0.378682,0.254926,0.099698,-1.33242,0.380966,0.699027,-0.0611089,-0.231273,-0.273344,-0.9337
2.86863,-0.599378,1.84028,2.89125,-0.642917,-2.97389,-0.565939,0.0450879,0.00970437,0.122814,-0.64823,0.751475
0.035184,-2.36284,2.7868,1.83971,-2.39447,1.9723,-0.0216418,0.108456,0.286773,0.881472,0.296755,-0.367347
-0.894804,0.0210351,-2.16799,0.348809,3.14159,2.46295,0.274987,-0.168401,0.430479,-0.272877,0.34022,-0.899883
1.42206,0.310149,-1.07618,2.91974,0.559665,-1.81394,-0.0177863,0.617844,0.283488,-0.0103193,-0.931367,0.363936
2.97343,-2.19147,-2.85809,3.14159,1.90346,0.350265,0.00942502,-0.112312,0.0960384,0.270712,-0.946446,0.17594
-2.6409,-0.313366,2.65585,2.36254,3.10153,1.08344,-0.145349,-0.203959,-0.0602711,0.787119,0.409335,0.461399
-1.52508,-0.585218,1.86644,0.545644,-1.11528,-1.70601,0.12616,-0.369337,-0.0280249,0.076442,0.978098,0.193601
-1.68743,-0.647022,1.31222,1.83172,-0.708723,2.67193,0.0396538,-0.599529,0.178905,0.607764,0.199769,-0.76858
-3.14159,-1.50851,-2.91211,3.14159,-1.91392,-0.656383,-0.00427428,-0.10915,0.110437,-0.66113,0.746023,0.0797254
2.88109,-0.883717,0.917653,-0.187434,-3.02975,-2.72978,-0.681369,0.068661,0.310881,0.78412,-0.314863,-0.534806
0.0307047,-0.618155,1.86378,2.33502,-1.96616,2.88049,0.508308,0.124814,0.0494391,0.199591,0.898129,-0.391827
-0.672236,-1.76686,3.03268,-1.31496,0.723532,1.14041,0.0989838,0.0607198,0.0373314,-0.107283,0.438411,0.892348
2.56124,-2.13604,1.72309,0.888113,-2.37043,1.75243,-0.133722,-0.0428422,0.521305,-0.34899,0.0782744,0.933852
0.128529,0.309998,-1.25479,-1.08859,-1.40826,-1.96817,0.699346,0.200442,0.319618,0.741697,0.480932,0.467536
-0.159026,-0.56222,2.73939,-3.14165,0.0515285,-2.55126,0.228409,0.0739127,-0.0605444,0.911678,-0.18955,0.364573
-1.11432,-0.604659,1.98635,3.14,0.745951,-2.83238,0.32556,-0.415337,-0.0365533,-0.507039,-0.43413,0.744609
-0.281088,-0.491843,1.57618,-2.7836,-2.95143,-3.11214,0.656563,-0.0759623,-0.0447557,0.201282,0.138534,-0.969688
0.185923,-1.16458,-0.222762,-1.41885,-1.93145,2.24293,0.245804,0.157299,0.954617,-0.156902,0.563304,-0.811215
1.34556,-1.56001,2.97313,2.62906,0.167166,0.551538,-0.0750476,0.161185,0.185541,-0.113344,0.139856,-0.983663
2.23385,-0.555245,1.72749,0.762594,2.0366,-0.283785,-0.347578,0.267712,-0.014608,-0.420448,-0.855148,-0.303224
-1.24059,-0.683769,2.33636,-3.1416,1.52469,-0.989908,0.230271,-0.335189,-0.041032,0.788047,-0.608472,-0.0935081
-0.292413,-0.313767,-0.275188,-2.47729,-1.2449,0.30346,0.737696,-0.108089,0.532606,0.00957421,-0.94704,-0.320974
1.83637,-0.676624,0.176925,-2.55208,-0.769221,1.10314,-0.284885,0.631515,0.637498,0.23892,0.316302,-0.91808
1.8676,-0.357887,0.894762,-0.297697,-1.10161,-0.92668,-0.312823,0.649627,-0.0545387,0.644737,-0.276761,-0.712544
1.74603,0.308937,2.79681,-1.33343,-2.999,0.780025,-0.0935574,-0.097659,-0.0351707,0.00390563,0.557428,-0.830216
2.53717,-0.23454,-2.50138,-2.44768,-2.63185,0.88335,-0.0362049,-0.107647,0.299757,-0.597566,0.789024,-0.142675
-2.57529,-0.263236,0.968025,1.06389,-2.08093,-0.918111,-0.461573,-0.422794,-0.035774,0.422196,0.89646,-0.134577
-2.02803,-1.5647,-2.21172,-0.575863,-0.410945,-2.09133,0.275327,0.312355,0.314886,0.607625,0.784956,-0.120981
-1.33539,0.310145,-0.940309,2.21977,-1.32653,2.30729,0.252378,-0.584251,0.192375,0.805826,-0.565282,-0.176354
0.522032,0.309896,-1.01225,1.93704,2.69641,1.95075,0.478501,0.401185,0.181733,0.743892,0.243684,0.622288
1.93965,-0.287073,1.02654,1.01763,-1.37038,1.28219,-0.319724,0.524394,-0.0373082,-0.0832822,0.989044,-0.121885
-1.61773,-1.40214,-2.60863,-1.90341,-2.09868,2.79934,0.119164,0.210619,0.120249,0.827958,0.282967,0.484164
1.63141,0.309714,-1.35846,0.253657,0.930382,-0.680253,-0.149412,0.660112,0.233351,-0.629721,0.0857912,-0.772069
0.153136,-0.573936,2.71417,-3.142,-0.0169294,1.94277,0.205867,0.142217,-0.0614439,-0.583046,-0.083764,0.808109
2.0373,0.310158,-1.18388,2.48012,1.2503,1.5961,-0.35023,0.452808,0.263562,-0.427764,0.902841,-0.0435462
-1.97007,0.309934,-1.59335,1.58313,-2.39759,2.96207,-0.0891364,-0.492033,0.245269,0.862329,0.329654,0.38434
2.43762,-0.942945,1.77117,0.697869,-2.20907,2.90371,-0.391053,0.188855,0.139896,-0.664905,-0.459344,0.588986
-2.05501,0.30954,2.81983,-1.08266,0.0803138,0.209784,0.12991,0.0125147,-0.00173473,-0.22465,-0.595667,0.771176
-0.115956,-0.461753,1.19173,-1.64165,0.955988,2.25187,0.755224,0.0219206,-0.0410329,-0.448625,-0.465556,0.762885
-1.31965,-0.593565,1.93372,-3.08812,0.766073,2.65383,0.238716,-0.49123,-0.0383121,-0.73577,0.403317,0.544038
-0.916627,-0.569485,2.57433,0.843229,-1.6927,-0.284995,0.187372,-0.0649796,0.053044,-0.873364,-0.426426,0.235365
1.24748,0.00475045,0.166126,0.568063,-2.58565,-1.47556,0.134083,0.743719,-0.0495242,-0.146455,-0.595047,-0.790234
0.282542,0.309657,2.83472,-0.849546,0.737647,2.28503,-0.0864845,0.0885493,0.0234387,0.358042,-0.354791,-0.863672
1.49529,-0.622806,2.79946,-3.14165,1.20386,1.34526,-0.0937792,0.207304,-0.0392631,-0.272037,-0.828752,0.489047
-0.61698,-0.341088,1.12123,-2.84761,2.9988,-3.1019,0.685107,-0.352164,0.000527444,0.330578,-0.40884,-0.850628
0.572706,-0.357165,0.896556,0.187461,2.44807,2.58568,0.505491,0.45581,-0.0344466,0.178743,-0.530833,0.828412
-0.592588,-0.580741,1.93496,-2.93687,3.07956,-0.799326,0.504128,-0.207849,-0.0596314,0.611907,-0.359902,0.704301
0.970764,0.309841,-1.22913,-2.08676,1.35408,-2.3477,0.280004,0.602552,0.365261,0.535143,-0.430367,0.726916
1.29472,0.309807,-2.42538,2.34507,-1.20977,1.53067,-0.0559618,0.2029,0.202889,0.0943055,0.195192,0.976221
1.62425,-2.25466,-0.257132,-0.308372,-0.451845,-1.27193,-0.0793075,-0.560643,0.739424,0.0988132,0.559316,0.823044
-0.691022,0.309871,-2.66222,2.68646,0.939206,-0.378341,0.144639,0.022019,0.148571,-0.0147654,0.9855,-0.169031
-1.61849,-1.77196,-1.43873,2.80571,-2.60566,1.98717,0.129952,0.433237,0.391516,0.238712,0.669329,0.703574
1.00598,0.309758,-0.942186,-0.264643,-0.0608751,-0.0189027,0.333406,0.730058,0.132416,-0.273987,-0.546012,-0.791708
-1.08867,0.309768,-1.24989,3.14159,-1.53874,-3.05264,0.35619,-0.445236,0.332209,0.84006,0.54184,0.0266058
-1.43415,0.309671,-1.39761,-1.62632,0.911541,1.58013,0.193426,-0.605435,0.393185,-0.0644715,0.414719,-0.907663
2.80796,-0.452149,-1.36202,-1.56402,2.95175,0.644907,-0.286684,-0.0161588,0.747546,0.538351,-0.346187,-0.768331
2.06685,0.310185,-0.375269,3.14118,2.99106,-1.67622,-0.471974,0.642778,0.0793926,-0.00455501,0.0415714,0.999125
-0.225157,-0.156007,0.681668,1.64976,0.530819,-1.66634,0.688435,-0.0457028,0.0121715,-0.854664,0.146206,0.49817
-1.5784,0.309685,-3.04428,-2.45406,0.885386,-1.25472,0.109447,0.0387113,0.0715183,0.247735,0.93304,-0.260891
-0.91748,-0.664935,2.36752,1.12835,2.67045,-2.06299,0.241048,-0.135334,0.0526582,-0.090383,-0.234815,0.967829
-2.01926,0.309982,-0.972609,-1.52402,-1.77472,-1.80962,-0.244712,-0.760329,0.2555,-0.147124,-0.840065,0.522154
2.63,-0.697267,2.22932,-3.14159,-0.620807,-0.806581,-0.433244,0.11807,-0.0262274,-0.450973,0.714817,-0.534471
1.18697,-0.410245,1.02217,-0.153478,-0.738131,0.677321,0.149284,0.661124,-0.051538,0.396503,-0.418491,0.817099
-1.68087,0.310084,-1.02104,-0.560699,-2.86067,0.875088,0.0214468,-0.799595,0.187548,-0.115975,0.568212,0.814669
